;FLAVOR:Marlin 
;Layer height: 0.12 
;Generated with Cura_SteamEngine 4.9.0 
M140 S65
M105 
M190 S65
M104 S205
M105 
M109 S205
M82 ;absolute extrusion mode 
; Ender 3 Custom Start G-code 
G92 E0 ; Reset Extruder 
G1 X0 Y0 Z10 F3000
G1 Z2.0 F3000 ; Move Z Axis up little to prevent scratching of Heat Bed 
G1 X0.1 Y20 Z0.3 F5000.0 ; Move to start position 
G1 X0.1 Y200.0 Z0.3 F1500.0 E15 ; Draw the first line 
G1 X0.4 Y200.0 Z0.3 F5000.0 ; Move to side a little 
G1 X0.4 Y20 Z0.3 F1500.0 E30 ; Draw the second line 
G92 E0 ; Reset Extruder 
G1 Z2.0 F3000 ; Move Z Axis up little to prevent scratching of Heat Bed 
G1 X5 Y20 Z0.3 F5000.0 ; Move over to prevent blob squish 
G92 E0 
G92 E0 
G1 F3000 E-8 
M104 S205
G0 X119.059697 Y100.0 Z0.24 F2400
G1 E0.0
G1 X116.506182 Y109.529849 Z0.24 E0.492218 F1200
G1 X109.529849 Y116.506182 Z0.24 E0.984436 F1200
G1 X100.0 Y119.059697 Z0.24 E1.476654 F1200
G1 X90.470151 Y116.506182 Z0.24 E1.968872 F1200
G1 X83.493818 Y109.529849 Z0.24 E2.46109 F1200
G1 X80.940303 Y100.0 Z0.24 E2.953308 F1200
G1 X83.493818 Y90.470151 Z0.24 E3.445526 F1200
G1 X90.470151 Y83.493818 Z0.24 E3.937744 F1200
G1 X100.0 Y80.940303 Z0.24 E4.429962 F1200
G1 X109.529849 Y83.493818 Z0.24 E4.92218 F1200
G1 X116.506182 Y90.470151 Z0.24 E5.414398 F1200
G1 X119.059697 Y100.0 Z0.24 E5.906616 F1200
G0 X118.542059 Y100.0 Z0.24 F2400
G1 X116.057894 Y109.27103 Z0.24 E6.385466 F1200
G1 X109.27103 Y116.057894 Z0.24 E6.864316 F1200
G1 X100.0 Y118.542059 Z0.24 E7.343166 F1200
G1 X90.72897 Y116.057894 Z0.24 E7.822016 F1200
G1 X83.942106 Y109.27103 Z0.24 E8.300866 F1200
G1 X81.457941 Y100.0 Z0.24 E8.779716 F1200
G1 X83.942106 Y90.72897 Z0.24 E9.258566 F1200
G1 X90.72897 Y83.942106 Z0.24 E9.737416 F1200
G1 X100.0 Y81.457941 Z0.24 E10.216266 F1200
G1 X109.27103 Y83.942106 Z0.24 E10.695116 F1200
G1 X116.057894 Y90.72897 Z0.24 E11.173966 F1200
G1 X118.542059 Y100.0 Z0.24 E11.652816 F1200
G0 X118.024421 Y100.0 Z0.24 F2400
G1 X115.609607 Y109.012211 Z0.24 E12.118298 F1200
G1 X109.012211 Y115.609607 Z0.24 E12.58378 F1200
G1 X100.0 Y118.024421 Z0.24 E13.049262 F1200
G1 X90.987789 Y115.609607 Z0.24 E13.514744 F1200
G1 X84.390393 Y109.012211 Z0.24 E13.980226 F1200
G1 X81.975579 Y100.0 Z0.24 E14.445708 F1200
G1 X84.390393 Y90.987789 Z0.24 E14.91119 F1200
G1 X90.987789 Y84.390393 Z0.24 E15.376672 F1200
G1 X100.0 Y81.975579 Z0.24 E15.842154 F1200
G1 X109.012211 Y84.390393 Z0.24 E16.307636 F1200
G1 X115.609607 Y90.987789 Z0.24 E16.773118 F1200
G1 X118.024421 Y100.0 Z0.24 E17.2386 F1200
G0 X117.506783 Y100.0 Z0.24 F2400
G1 X115.161319 Y108.753392 Z0.24 E17.690714 F1200
G1 X108.753392 Y115.161319 Z0.24 E18.142828 F1200
G1 X100.0 Y117.506783 Z0.24 E18.594942 F1200
G1 X91.246608 Y115.161319 Z0.24 E19.047056 F1200
G1 X84.838681 Y108.753392 Z0.24 E19.49917 F1200
G1 X82.493217 Y100.0 Z0.24 E19.951284 F1200
G1 X84.838681 Y91.246608 Z0.24 E20.403398 F1200
G1 X91.246608 Y84.838681 Z0.24 E20.855512 F1200
G1 X100.0 Y82.493217 Z0.24 E21.307626 F1200
G1 X108.753392 Y84.838681 Z0.24 E21.75974 F1200
G1 X115.161319 Y91.246608 Z0.24 E22.211854 F1200
G1 X117.506783 Y100.0 Z0.24 E22.663968 F1200
G0 X116.989145 Y100.0 Z0.24 F2400
G1 X114.713031 Y108.494573 Z0.24 E23.102714 F1200
G1 X108.494573 Y114.713031 Z0.24 E23.54146 F1200
G1 X100.0 Y116.989145 Z0.24 E23.980206 F1200
G1 X91.505427 Y114.713031 Z0.24 E24.418952 F1200
G1 X85.286969 Y108.494573 Z0.24 E24.857698 F1200
G1 X83.010855 Y100.0 Z0.24 E25.296444 F1200
G1 X85.286969 Y91.505427 Z0.24 E25.73519 F1200
G1 X91.505427 Y85.286969 Z0.24 E26.173936 F1200
G1 X100.0 Y83.010855 Z0.24 E26.612682 F1200
G1 X108.494573 Y85.286969 Z0.24 E27.051428 F1200
G1 X114.713031 Y91.505427 Z0.24 E27.490174 F1200
G1 X116.989145 Y100.0 Z0.24 E27.92892 F1200
G0 X116.471507 Y100.0 Z0.24 F2400
G1 X114.264744 Y108.235754 Z0.24 E28.354298 F1200
G1 X108.235754 Y114.264744 Z0.24 E28.779676 F1200
G1 X100.0 Y116.471507 Z0.24 E29.205054 F1200
G1 X91.764246 Y114.264744 Z0.24 E29.630432 F1200
G1 X85.735256 Y108.235754 Z0.24 E30.05581 F1200
G1 X83.528493 Y100.0 Z0.24 E30.481188 F1200
G1 X85.735256 Y91.764246 Z0.24 E30.906566 F1200
G1 X91.764246 Y85.735256 Z0.24 E31.331944 F1200
G1 X100.0 Y83.528493 Z0.24 E31.757322 F1200
G1 X108.235754 Y85.735256 Z0.24 E32.1827 F1200
G1 X114.264744 Y91.764246 Z0.24 E32.608078 F1200
G1 X116.471507 Y100.0 Z0.24 E33.033456 F1200
G0 X115.953869 Y100.0 Z0.24 F2400
G1 X113.816456 Y107.976934 Z0.24 E33.445466 F1200
G1 X107.976934 Y113.816456 Z0.24 E33.857476 F1200
G1 X100.0 Y115.953869 Z0.24 E34.269486 F1200
G1 X92.023066 Y113.816456 Z0.24 E34.681496 F1200
G1 X86.183544 Y107.976934 Z0.24 E35.093506 F1200
G1 X84.046131 Y100.0 Z0.24 E35.505516 F1200
G1 X86.183544 Y92.023066 Z0.24 E35.917526 F1200
G1 X92.023066 Y86.183544 Z0.24 E36.329536 F1200
G1 X100.0 Y84.046131 Z0.24 E36.741546 F1200
G1 X107.976934 Y86.183544 Z0.24 E37.153556 F1200
G1 X113.816456 Y92.023066 Z0.24 E37.565566 F1200
G1 X115.953869 Y100.0 Z0.24 E37.977576 F1200
G0 X115.436231 Y100.0 Z0.24 F2400
G1 X113.368168 Y107.718115 Z0.24 E38.376218 F1200
G1 X107.718115 Y113.368168 Z0.24 E38.77486 F1200
G1 X100.0 Y115.436231 Z0.24 E39.173502 F1200
G1 X92.281885 Y113.368168 Z0.24 E39.572144 F1200
G1 X86.631832 Y107.718115 Z0.24 E39.970786 F1200
G1 X84.563769 Y100.0 Z0.24 E40.369428 F1200
G1 X86.631832 Y92.281885 Z0.24 E40.76807 F1200
G1 X92.281885 Y86.631832 Z0.24 E41.166712 F1200
G1 X100.0 Y84.563769 Z0.24 E41.565354 F1200
G1 X107.718115 Y86.631832 Z0.24 E41.963996 F1200
G1 X113.368168 Y92.281885 Z0.24 E42.362638 F1200
G1 X115.436231 Y100.0 Z0.24 E42.76128 F1200
G0 X114.918593 Y100.0 Z0.24 F2400
G1 X112.91988 Y107.459296 Z0.24 E43.146554 F1200
G1 X107.459296 Y112.91988 Z0.24 E43.531828 F1200
G1 X100.0 Y114.918593 Z0.24 E43.917102 F1200
G1 X92.540704 Y112.91988 Z0.24 E44.302376 F1200
G1 X87.08012 Y107.459296 Z0.24 E44.68765 F1200
G1 X85.081407 Y100.0 Z0.24 E45.072924 F1200
G1 X87.08012 Y92.540704 Z0.24 E45.458198 F1200
G1 X92.540704 Y87.08012 Z0.24 E45.843472 F1200
G1 X100.0 Y85.081407 Z0.24 E46.228746 F1200
G1 X107.459296 Y87.08012 Z0.24 E46.61402 F1200
G1 X112.91988 Y92.540704 Z0.24 E46.999294 F1200
G1 X114.918593 Y100.0 Z0.24 E47.384568 F1200
G0 X114.400955 Y100.0 Z0.24 F2400
G1 X112.471593 Y107.200477 Z0.24 E47.756474 F1200
G1 X107.200477 Y112.471593 Z0.24 E48.12838 F1200
G1 X100.0 Y114.400955 Z0.24 E48.500286 F1200
G1 X92.799523 Y112.471593 Z0.24 E48.872192 F1200
G1 X87.528407 Y107.200477 Z0.24 E49.244098 F1200
G1 X85.599045 Y100.0 Z0.24 E49.616004 F1200
G1 X87.528407 Y92.799523 Z0.24 E49.98791 F1200
G1 X92.799523 Y87.528407 Z0.24 E50.359816 F1200
G1 X100.0 Y85.599045 Z0.24 E50.731722 F1200
G1 X107.200477 Y87.528407 Z0.24 E51.103628 F1200
G1 X112.471593 Y92.799523 Z0.24 E51.475534 F1200
G1 X114.400955 Y100.0 Z0.24 E51.84744 F1200
G0 X113.883317 Y100.0 Z0.24 F2400
G1 X112.023305 Y106.941658 Z0.24 E52.205978 F1200
G1 X106.941658 Y112.023305 Z0.24 E52.564516 F1200
G1 X100.0 Y113.883317 Z0.24 E52.923054 F1200
G1 X93.058342 Y112.023305 Z0.24 E53.281592 F1200
G1 X87.976695 Y106.941658 Z0.24 E53.64013 F1200
G1 X86.116683 Y100.0 Z0.24 E53.998668 F1200
G1 X87.976695 Y93.058342 Z0.24 E54.357206 F1200
G1 X93.058342 Y87.976695 Z0.24 E54.715744 F1200
G1 X100.0 Y86.116683 Z0.24 E55.074282 F1200
G1 X106.941658 Y87.976695 Z0.24 E55.43282 F1200
G1 X112.023305 Y93.058342 Z0.24 E55.791358 F1200
G1 X113.883317 Y100.0 Z0.24 E56.149896 F1200
G0 X113.365678 Y100.0 Z0.24 F2400
G1 X111.575017 Y106.682839 Z0.24 E56.495066 F1200
G1 X106.682839 Y111.575017 Z0.24 E56.840236 F1200
G1 X100.0 Y113.365678 Z0.24 E57.185406 F1200
G1 X93.317161 Y111.575017 Z0.24 E57.530576 F1200
G1 X88.424983 Y106.682839 Z0.24 E57.875746 F1200
G1 X86.634322 Y100.0 Z0.24 E58.220916 F1200
G1 X88.424983 Y93.317161 Z0.24 E58.566086 F1200
G1 X93.317161 Y88.424983 Z0.24 E58.911256 F1200
G1 X100.0 Y86.634322 Z0.24 E59.256426 F1200
G1 X106.682839 Y88.424983 Z0.24 E59.601596 F1200
G1 X111.575017 Y93.317161 Z0.24 E59.946766 F1200
G1 X113.365678 Y100.0 Z0.24 E60.291936 F1200
G0 X112.84804 Y100.0 Z0.24 F2400
G1 X111.126729 Y106.42402 Z0.24 E60.623738 F1200
G1 X106.42402 Y111.126729 Z0.24 E60.95554 F1200
G1 X100.0 Y112.84804 Z0.24 E61.287342 F1200
G1 X93.57598 Y111.126729 Z0.24 E61.619144 F1200
G1 X88.873271 Y106.42402 Z0.24 E61.950946 F1200
G1 X87.15196 Y100.0 Z0.24 E62.282748 F1200
G1 X88.873271 Y93.57598 Z0.24 E62.61455 F1200
G1 X93.57598 Y88.873271 Z0.24 E62.946352 F1200
G1 X100.0 Y87.15196 Z0.24 E63.278154 F1200
G1 X106.42402 Y88.873271 Z0.24 E63.609956 F1200
G1 X111.126729 Y93.57598 Z0.24 E63.941758 F1200
G1 X112.84804 Y100.0 Z0.24 E64.27356 F1200
G0 X112.330402 Y100.0 Z0.24 F2400
G1 X110.678442 Y106.165201 Z0.24 E64.591993 F1200
G1 X106.165201 Y110.678442 Z0.24 E64.910427 F1200
G1 X100.0 Y112.330402 Z0.24 E65.22886 F1200
G1 X93.834799 Y110.678442 Z0.24 E65.547293 F1200
G1 X89.321558 Y106.165201 Z0.24 E65.865727 F1200
G1 X87.669598 Y100.0 Z0.24 E66.18416 F1200
G1 X89.321558 Y93.834799 Z0.24 E66.502593 F1200
G1 X93.834799 Y89.321558 Z0.24 E66.821027 F1200
G1 X100.0 Y87.669598 Z0.24 E67.13946 F1200
G1 X106.165201 Y89.321558 Z0.24 E67.457893 F1200
G1 X110.678442 Y93.834799 Z0.24 E67.776327 F1200
G1 X112.330402 Y100.0 Z0.24 E68.09476 F1200
G0 X111.812764 Y100.0 Z0.24 F2400
G1 X110.230154 Y105.906382 Z0.24 E68.399825 F1200
G1 X105.906382 Y110.230154 Z0.24 E68.70489 F1200
G1 X100.0 Y111.812764 Z0.24 E69.009955 F1200
G1 X94.093618 Y110.230154 Z0.24 E69.31502 F1200
G1 X89.769846 Y105.906382 Z0.24 E69.620085 F1200
G1 X88.187236 Y100.0 Z0.24 E69.92515 F1200
G1 X89.769846 Y94.093618 Z0.24 E70.230215 F1200
G1 X94.093618 Y89.769846 Z0.24 E70.53528 F1200
G1 X100.0 Y88.187236 Z0.24 E70.840345 F1200
G1 X105.906382 Y89.769846 Z0.24 E71.14541 F1200
G1 X110.230154 Y94.093618 Z0.24 E71.450475 F1200
G1 X111.812764 Y100.0 Z0.24 E71.75554 F1200
G0 X111.295126 Y100.0 Z0.24 F2400
G1 X109.781866 Y105.647563 Z0.24 E72.047237 F1200
G1 X105.647563 Y109.781866 Z0.24 E72.338934 F1200
G1 X100.0 Y111.295126 Z0.24 E72.630631 F1200
G1 X94.352437 Y109.781866 Z0.24 E72.922328 F1200
G1 X90.218134 Y105.647563 Z0.24 E73.214025 F1200
G1 X88.704874 Y100.0 Z0.24 E73.505722 F1200
G1 X90.218134 Y94.352437 Z0.24 E73.797419 F1200
G1 X94.352437 Y90.218134 Z0.24 E74.089116 F1200
G1 X100.0 Y88.704874 Z0.24 E74.380813 F1200
G1 X105.647563 Y90.218134 Z0.24 E74.67251 F1200
G1 X109.781866 Y94.352437 Z0.24 E74.964207 F1200
G1 X111.295126 Y100.0 Z0.24 E75.255904 F1200
G0 X110.777488 Y100.0 Z0.24 F2400
G1 X109.333578 Y105.388744 Z0.24 E75.534233 F1200
G1 X105.388744 Y109.333578 Z0.24 E75.812562 F1200
G1 X100.0 Y110.777488 Z0.24 E76.090891 F1200
G1 X94.611256 Y109.333578 Z0.24 E76.36922 F1200
G1 X90.666422 Y105.388744 Z0.24 E76.647549 F1200
G1 X89.222512 Y100.0 Z0.24 E76.925878 F1200
G1 X90.666422 Y94.611256 Z0.24 E77.204207 F1200
G1 X94.611256 Y90.666422 Z0.24 E77.482536 F1200
G1 X100.0 Y89.222512 Z0.24 E77.760865 F1200
G1 X105.388744 Y90.666422 Z0.24 E78.039194 F1200
G1 X109.333578 Y94.611256 Z0.24 E78.317523 F1200
G1 X110.777488 Y100.0 Z0.24 E78.595852 F1200
G0 X110.25985 Y100.0 Z0.24 F2400
G1 X108.885291 Y105.129925 Z0.24 E78.860813 F1200
G1 X105.129925 Y108.885291 Z0.24 E79.125774 F1200
G1 X100.0 Y110.25985 Z0.24 E79.390735 F1200
G1 X94.870075 Y108.885291 Z0.24 E79.655696 F1200
G1 X91.114709 Y105.129925 Z0.24 E79.920657 F1200
G1 X89.74015 Y100.0 Z0.24 E80.185618 F1200
G1 X91.114709 Y94.870075 Z0.24 E80.450579 F1200
G1 X94.870075 Y91.114709 Z0.24 E80.71554 F1200
G1 X100.0 Y89.74015 Z0.24 E80.980501 F1200
G1 X105.129925 Y91.114709 Z0.24 E81.245462 F1200
G1 X108.885291 Y94.870075 Z0.24 E81.510423 F1200
G1 X110.25985 Y100.0 Z0.24 E81.775384 F1200
G0 X109.742212 Y100.0 Z0.24 F2400
G1 X108.437003 Y104.871106 Z0.24 E82.026977 F1200
G1 X104.871106 Y108.437003 Z0.24 E82.27857 F1200
G1 X100.0 Y109.742212 Z0.24 E82.530163 F1200
G1 X95.128894 Y108.437003 Z0.24 E82.781756 F1200
G1 X91.562997 Y104.871106 Z0.24 E83.033349 F1200
G1 X90.257788 Y100.0 Z0.24 E83.284942 F1200
G1 X91.562997 Y95.128894 Z0.24 E83.536535 F1200
G1 X95.128894 Y91.562997 Z0.24 E83.788128 F1200
G1 X100.0 Y90.257788 Z0.24 E84.039721 F1200
G1 X104.871106 Y91.562997 Z0.24 E84.291314 F1200
G1 X108.437003 Y95.128894 Z0.24 E84.542907 F1200
G1 X109.742212 Y100.0 Z0.24 E84.7945 F1200
G0 X109.224574 Y100.0 Z0.24 F2400
G1 X107.988715 Y104.612287 Z0.24 E85.032725 F1200
G1 X104.612287 Y107.988715 Z0.24 E85.27095 F1200
G1 X100.0 Y109.224574 Z0.24 E85.509175 F1200
G1 X95.387713 Y107.988715 Z0.24 E85.7474 F1200
G1 X92.011285 Y104.612287 Z0.24 E85.985625 F1200
G1 X90.775426 Y100.0 Z0.24 E86.22385 F1200
G1 X92.011285 Y95.387713 Z0.24 E86.462075 F1200
G1 X95.387713 Y92.011285 Z0.24 E86.7003 F1200
G1 X100.0 Y90.775426 Z0.24 E86.938525 F1200
G1 X104.612287 Y92.011285 Z0.24 E87.17675 F1200
G1 X107.988715 Y95.387713 Z0.24 E87.414975 F1200
G1 X109.224574 Y100.0 Z0.24 E87.6532 F1200
G0 X108.706936 Y100.0 Z0.24 F2400
G1 X107.540427 Y104.353468 Z0.24 E87.878057 F1200
G1 X104.353468 Y107.540427 Z0.24 E88.102914 F1200
G1 X100.0 Y108.706936 Z0.24 E88.327771 F1200
G1 X95.646532 Y107.540427 Z0.24 E88.552628 F1200
G1 X92.459573 Y104.353468 Z0.24 E88.777485 F1200
G1 X91.293064 Y100.0 Z0.24 E89.002342 F1200
G1 X92.459573 Y95.646532 Z0.24 E89.227199 F1200
G1 X95.646532 Y92.459573 Z0.24 E89.452056 F1200
G1 X100.0 Y91.293064 Z0.24 E89.676913 F1200
G1 X104.353468 Y92.459573 Z0.24 E89.90177 F1200
G1 X107.540427 Y95.646532 Z0.24 E90.126627 F1200
G1 X108.706936 Y100.0 Z0.24 E90.351484 F1200
G0 X108.189298 Y100.0 Z0.24 F2400
G1 X107.09214 Y104.094649 Z0.24 E90.562973 F1200
G1 X104.094649 Y107.09214 Z0.24 E90.774462 F1200
G1 X100.0 Y108.189298 Z0.24 E90.985951 F1200
G1 X95.905351 Y107.09214 Z0.24 E91.19744 F1200
G1 X92.90786 Y104.094649 Z0.24 E91.408929 F1200
G1 X91.810702 Y100.0 Z0.24 E91.620418 F1200
G1 X92.90786 Y95.905351 Z0.24 E91.831907 F1200
G1 X95.905351 Y92.90786 Z0.24 E92.043396 F1200
G1 X100.0 Y91.810702 Z0.24 E92.254885 F1200
G1 X104.094649 Y92.90786 Z0.24 E92.466374 F1200
G1 X107.09214 Y95.905351 Z0.24 E92.677863 F1200
G1 X108.189298 Y100.0 Z0.24 E92.889352 F1200
G0 X107.671659 Y100.0 Z0.24 F2400
G1 X106.643852 Y103.83583 Z0.24 E93.087473 F1200
G1 X103.83583 Y106.643852 Z0.24 E93.285594 F1200
G1 X100.0 Y107.671659 Z0.24 E93.483715 F1200
G1 X96.16417 Y106.643852 Z0.24 E93.681836 F1200
G1 X93.356148 Y103.83583 Z0.24 E93.879957 F1200
G1 X92.328341 Y100.0 Z0.24 E94.078078 F1200
G1 X93.356148 Y96.16417 Z0.24 E94.276199 F1200
G1 X96.16417 Y93.356148 Z0.24 E94.47432 F1200
G1 X100.0 Y92.328341 Z0.24 E94.672441 F1200
G1 X103.83583 Y93.356148 Z0.24 E94.870562 F1200
G1 X106.643852 Y96.16417 Z0.24 E95.068683 F1200
G1 X107.671659 Y100.0 Z0.24 E95.266804 F1200
G0 X107.154021 Y100.0 Z0.24 F2400
G1 X106.195564 Y103.577011 Z0.24 E95.451557 F1200
G1 X103.577011 Y106.195564 Z0.24 E95.63631 F1200
G1 X100.0 Y107.154021 Z0.24 E95.821063 F1200
G1 X96.422989 Y106.195564 Z0.24 E96.005816 F1200
G1 X93.804436 Y103.577011 Z0.24 E96.190569 F1200
G1 X92.845979 Y100.0 Z0.24 E96.375322 F1200
G1 X93.804436 Y96.422989 Z0.24 E96.560075 F1200
G1 X96.422989 Y93.804436 Z0.24 E96.744828 F1200
G1 X100.0 Y92.845979 Z0.24 E96.929581 F1200
G1 X103.577011 Y93.804436 Z0.24 E97.114334 F1200
G1 X106.195564 Y96.422989 Z0.24 E97.299087 F1200
G1 X107.154021 Y100.0 Z0.24 E97.48384 F1200
G0 X106.636383 Y100.0 Z0.24 F2400
G1 X105.747277 Y103.318192 Z0.24 E97.655225 F1200
G1 X103.318192 Y105.747277 Z0.24 E97.82661 F1200
G1 X100.0 Y106.636383 Z0.24 E97.997995 F1200
G1 X96.681808 Y105.747277 Z0.24 E98.16938 F1200
G1 X94.252723 Y103.318192 Z0.24 E98.340765 F1200
G1 X93.363617 Y100.0 Z0.24 E98.51215 F1200
G1 X94.252723 Y96.681808 Z0.24 E98.683535 F1200
G1 X96.681808 Y94.252723 Z0.24 E98.85492 F1200
G1 X100.0 Y93.363617 Z0.24 E99.026305 F1200
G1 X103.318192 Y94.252723 Z0.24 E99.19769 F1200
G1 X105.747277 Y96.681808 Z0.24 E99.369075 F1200
G1 X106.636383 Y100.0 Z0.24 E99.54046 F1200
G0 X106.118745 Y100.0 Z0.24 F2400
G1 X105.298989 Y103.059373 Z0.24 E99.698477 F1200
G1 X103.059373 Y105.298989 Z0.24 E99.856494 F1200
G1 X100.0 Y106.118745 Z0.24 E100.014511 F1200
G1 X96.940627 Y105.298989 Z0.24 E100.172528 F1200
G1 X94.701011 Y103.059373 Z0.24 E100.330545 F1200
