;FLAVOR:Marlin 
;Layer height: 0.12 
;Generated with Cura_SteamEngine 4.9.0 
M140 S65
M105 
M190 S65
M104 S205
M105 
M109 S205
M82 ;absolute extrusion mode 
; Ender 3 Custom Start G-code 
G92 E0 ; Reset Extruder 
G1 X0 Y0 Z10 F3000
G1 Z2.0 F3000 ; Move Z Axis up little to prevent scratching of Heat Bed 
G1 X0.1 Y20 Z0.3 F5000.0 ; Move to start position 
G1 X0.1 Y200.0 Z0.3 F1500.0 E15 ; Draw the first line 
G1 X0.4 Y200.0 Z0.3 F5000.0 ; Move to side a little 
G1 X0.4 Y20 Z0.3 F1500.0 E30 ; Draw the second line 
G92 E0 ; Reset Extruder 
G1 Z2.0 F3000 ; Move Z Axis up little to prevent scratching of Heat Bed 
G1 X5 Y20 Z0.3 F5000.0 ; Move over to prevent blob squish 
G92 E0 
G92 E0 
G1 F3000 E-8 
G0 X111.35 Y110.55 Z0.24 F2400
G1 E0.0
G1 X108.65 Y110.55 Z0.24 E0.134704 F1200
G1 X108.65 Y109.45 Z0.24 E0.189583 F1200
G1 X111.35 Y109.45 Z0.24 E0.324287 F1200
G1 X111.35 Y110.55 Z0.24 E0.379166 F1200
G1 E-7.620834
M104 S200
M140 S60
G0 X111.4 Y110.6 Z0.24 F4800
G0 X111.4 Y110.6 Z0.36 F4800
G1 E0.37916599999999967
G1 X108.6 Y110.6 Z0.36 E0.435043 F2400
G1 X108.6 Y109.4 Z0.36 E0.45899 F2400
G1 X111.4 Y109.4 Z0.36 E0.514867 F2400
G1 X111.4 Y110.6 Z0.36 E0.538814 F2400
G0 X111.0 Y110.2 Z0.36 F4800
G1 X109.0 Y110.2 Z0.36 E0.578726 F2400
G1 X109.0 Y109.8 Z0.36 E0.586708 F2400
G1 X111.0 Y109.8 Z0.36 E0.62662 F2400
G1 X111.0 Y110.2 Z0.36 E0.634602 F2400
G1 E-7.365398
G0 X111.4 Y110.6 Z0.36 F4800
G0 X111.4 Y110.6 Z0.48 F4800
G1 E0.6346020000000001
G1 X108.6 Y110.6 Z0.48 E0.690479 F2400
G1 X108.6 Y109.4 Z0.48 E0.714426 F2400
G1 X111.4 Y109.4 Z0.48 E0.770303 F2400
G1 X111.4 Y110.6 Z0.48 E0.79425 F2400
G0 X111.0 Y110.2 Z0.48 F4800
G1 X109.0 Y110.2 Z0.48 E0.834162 F2400
G1 X109.0 Y109.8 Z0.48 E0.842144 F2400
G1 X111.0 Y109.8 Z0.48 E0.882056 F2400
G1 X111.0 Y110.2 Z0.48 E0.890038 F2400
G1 E-7.109962
G0 X111.4 Y110.6 Z0.48 F4800
G0 X111.4 Y110.6 Z0.6 F4800
G1 E0.8900379999999997
G1 X108.6 Y110.6 Z0.6 E0.945915 F2400
G1 X108.6 Y109.4 Z0.6 E0.969862 F2400
G1 X111.4 Y109.4 Z0.6 E1.025739 F2400
G1 X111.4 Y110.6 Z0.6 E1.049686 F2400
G0 X111.0 Y110.2 Z0.6 F4800
G1 X109.0 Y110.2 Z0.6 E1.089598 F2400
G1 X109.0 Y109.8 Z0.6 E1.09758 F2400
G1 X111.0 Y109.8 Z0.6 E1.137492 F2400
G1 X111.0 Y110.2 Z0.6 E1.145474 F2400
G1 E-6.854526
G0 X111.4 Y110.6 Z0.6 F4800
G0 X111.4 Y110.6 Z0.72 F4800
G1 E1.145474
G1 X108.6 Y110.6 Z0.72 E1.201351 F2400
G1 X108.6 Y109.4 Z0.72 E1.225298 F2400
G1 X111.4 Y109.4 Z0.72 E1.281175 F2400
G1 X111.4 Y110.6 Z0.72 E1.305122 F2400
G0 X111.0 Y110.2 Z0.72 F4800
G1 X109.0 Y110.2 Z0.72 E1.345034 F2400
G1 X109.0 Y109.8 Z0.72 E1.353016 F2400
G1 X111.0 Y109.8 Z0.72 E1.392928 F2400
G1 X111.0 Y110.2 Z0.72 E1.40091 F2400
G1 E-6.59909
G0 X111.4 Y110.6 Z0.72 F4800
G0 X111.4 Y110.6 Z0.84 F4800
G1 E1.4009099999999997
G1 X108.6 Y110.6 Z0.84 E1.456787 F2400
G1 X108.6 Y109.4 Z0.84 E1.480734 F2400
G1 X111.4 Y109.4 Z0.84 E1.536611 F2400
G1 X111.4 Y110.6 Z0.84 E1.560558 F2400
G0 X111.0 Y110.2 Z0.84 F4800
G1 X109.0 Y110.2 Z0.84 E1.60047 F2400
G1 X109.0 Y109.8 Z0.84 E1.608452 F2400
G1 X111.0 Y109.8 Z0.84 E1.648364 F2400
G1 X111.0 Y110.2 Z0.84 E1.656346 F2400
G1 E-6.343654
G0 X111.4 Y110.6 Z0.84 F4800
G0 X111.4 Y110.6 Z0.96 F4800
G1 E1.656346
G1 X108.6 Y110.6 Z0.96 E1.712223 F2400
G1 X108.6 Y109.4 Z0.96 E1.73617 F2400
G1 X111.4 Y109.4 Z0.96 E1.792047 F2400
G1 X111.4 Y110.6 Z0.96 E1.815994 F2400
G0 X111.0 Y110.2 Z0.96 F4800
G1 X109.0 Y110.2 Z0.96 E1.855906 F2400
G1 X109.0 Y109.8 Z0.96 E1.863888 F2400
G1 X111.0 Y109.8 Z0.96 E1.9038 F2400
G1 X111.0 Y110.2 Z0.96 E1.911782 F2400
G1 E-6.0882179999999995
G91 ;Relative positioning
G1 E-2 F2700 ;Retract a bit
G1 E-2 Z0.2 F2400 ;Retract and raise Z
G1 X5 Y5 F3000 ;Wipe out
G1 Z10 ;Raise Z more
G90 ;Absolute positioning
G1 X0 Y220 ;Present print
M106 S0 ;Turn-off fan
M104 S0 ;Turn-off hotend
M140 S0 ;Turn-off bed
M84 X Y Z E ;Disable all steppers
;End of Gcode