;FLAVOR:Marlin 
;Layer height: 0.2 
;Generated with Cura_SteamEngine 4.9.0 
M140 S70.0
M105 
M190 S70.0
M104 S210.0
M105 
M109 S210.0
M83 ;relative extrusion mode 
; Ender 3 Custom Start G-code 
G92 E0 ; Reset Extruder 
G1 X0 Y0 Z10 F3000
G1 Z2.0 F3000 ; Move Z Axis up little to prevent scratching of Heat Bed 
G1 X0.1 Y20 Z0.3 F5000.0 ; Move to start position 
G1 X0.1 Y200.0 Z0.3 F1500.0 E15 ; Draw the first line 
G1 X0.4 Y200.0 Z0.3 F5000.0 ; Move to side a little 
G1 X0.4 Y20 Z0.3 F1500.0 E15 ; Draw the second line 
G92 E0 ; Reset Extruder 
G1 Z2.0 F3000 ; Move Z Axis up little to prevent scratching of Heat Bed 
G1 X5 Y20 Z0.3 F5000.0 ; Move over to prevent blob squish 
G92 E0 
G92 E0 
G1 F3000 E-8 
M104 S210.0
G0 X109.8 Y104.8 Z0.2 F1200.0
G1 E8
G1 X90.2 Y104.8 Z0.2 E0.6518986469044032 F1200.0
G1 X90.2 Y95.2 Z0.2 E0.31929729644297294 F1200.0
G1 X109.8 Y95.2 Z0.2 E0.6518986469044032 F1200.0
G1 X109.8 Y104.8 Z0.2 E0.31929729644297294 F1200.0
G1 X109.4 Y104.4 Z0.2 E0.018814773627446064 F1200.0
G1 X90.6 Y104.4 Z0.2 E0.6252905388674894 F1200.0
G1 X90.6 Y95.6 Z0.2 E0.2926891884060591 F1200.0
G1 X109.4 Y95.6 Z0.2 E0.6252905388674894 F1200.0
G1 X109.4 Y104.4 Z0.2 E0.2926891884060591 F1200.0
G1 X109.0 Y104.0 Z0.2 E0.018814773627446733 F1200.0
G1 X91.0 Y104.0 Z0.2 E0.5986824308305746 F1200.0
G1 X91.0 Y96.0 Z0.2 E0.2660810803691443 F1200.0
G1 X109.0 Y96.0 Z0.2 E0.5986824308305746 F1200.0
G1 X109.0 Y104.0 Z0.2 E0.2660810803691443 F1200.0
G1 X108.6 Y103.6 Z0.2 E0.018814773627446733 F1200.0
G1 X91.4 Y103.6 Z0.2 E0.5720743227936598 F1200.0
G1 X91.4 Y96.4 Z0.2 E0.23947297233222942 F1200.0
G1 X108.6 Y96.4 Z0.2 E0.5720743227936598 F1200.0
G1 X108.6 Y103.6 Z0.2 E0.23947297233222942 F1200.0
G1 X108.2 Y103.2 Z0.2 E0.018814773627446064 F1200.0
G1 X91.8 Y103.2 Z0.2 E0.5454662147567458 F1200.0
G1 X91.8 Y96.8 Z0.2 E0.21286486429531556 F1200.0
G1 X108.2 Y96.8 Z0.2 E0.5454662147567458 F1200.0
G1 X108.2 Y103.2 Z0.2 E0.21286486429531556 F1200.0
G1 X107.8 Y102.8 Z0.2 E0.018814773627446733 F1200.0
G1 X92.2 Y102.8 Z0.2 E0.5188581067198311 F1200.0
G1 X92.2 Y97.2 Z0.2 E0.1862567562584008 F1200.0
G1 X107.8 Y97.2 Z0.2 E0.5188581067198311 F1200.0
G1 X107.8 Y102.8 Z0.2 E0.1862567562584008 F1200.0
G1 X107.39999999999999 Y102.4 Z0.2 E0.018814773627446397 F1200.0
G1 X92.60000000000001 Y102.4 Z0.2 E0.49224999868291636 F1200.0
G1 X92.60000000000001 Y97.6 Z0.2 E0.15964864822148694 F1200.0
G1 X107.39999999999999 Y97.6 Z0.2 E0.49224999868291636 F1200.0
G1 X107.39999999999999 Y102.4 Z0.2 E0.15964864822148694 F1200.0
G1 X107.0 Y102.0 Z0.2 E0.018814773627446397 F1200.0
G1 X93.0 Y102.0 Z0.2 E0.4656418906460024 F1200.0
G1 X93.0 Y98.0 Z0.2 E0.13304054018457215 F1200.0
G1 X107.0 Y98.0 Z0.2 E0.4656418906460024 F1200.0
G1 X107.0 Y102.0 Z0.2 E0.13304054018457215 F1200.0
G1 X106.6 Y101.6 Z0.2 E0.018814773627446733 F1200.0
G1 X93.4 Y101.6 Z0.2 E0.43903378260908765 F1200.0
G1 X93.4 Y98.4 Z0.2 E0.10643243214765732 F1200.0
G1 X106.6 Y98.4 Z0.2 E0.43903378260908765 F1200.0
G1 X106.6 Y101.6 Z0.2 E0.10643243214765732 F1200.0
G1 X106.2 Y101.2 Z0.2 E0.018814773627446064 F1200.0
G1 X93.8 Y101.2 Z0.2 E0.4124256745721738 F1200.0
G1 X93.8 Y98.8 Z0.2 E0.07982432411074347 F1200.0
G1 X106.2 Y98.8 Z0.2 E0.4124256745721738 F1200.0
G1 X106.2 Y101.2 Z0.2 E0.07982432411074347 F1200.0
G1 X105.8 Y100.8 Z0.2 E0.018814773627446733 F1200.0
G1 X94.2 Y100.8 Z0.2 E0.38581756653525895 F1200.0
G1 X94.2 Y99.2 Z0.2 E0.05321621607382866 F1200.0
G1 X105.8 Y99.2 Z0.2 E0.38581756653525895 F1200.0
G1 X105.8 Y100.8 Z0.2 E0.05321621607382866 F1200.0
G1 X105.39999999999999 Y100.4 Z0.2 E0.018814773627446397 F1200.0
G1 X94.60000000000001 Y100.4 Z0.2 E0.3592094584983442 F1200.0
G1 X94.60000000000001 Y99.6 Z0.2 E0.026608108036914803 F1200.0
G1 X105.39999999999999 Y99.6 Z0.2 E0.3592094584983442 F1200.0
G1 X105.39999999999999 Y100.4 Z0.2 E0.026608108036914803 F1200.0
G1 X90.2 Y104.8 Z0.4 E0.6518986469044032 F1200.0
G1 X90.2 Y95.2 Z0.4 E0.31929729644297294 F1200.0
G1 X109.8 Y95.2 Z0.4 E0.6518986469044032 F1200.0
G1 X109.8 Y104.8 Z0.4 E0.31929729644297294 F1200.0
G1 X109.4 Y104.4 Z0.4 E0.018814773627446064 F1200.0
G1 X90.6 Y104.4 Z0.4 E0.6252905388674894 F1200.0
G1 X90.6 Y95.6 Z0.4 E0.2926891884060591 F1200.0
G1 X109.4 Y95.6 Z0.4 E0.6252905388674894 F1200.0
G1 X109.4 Y104.4 Z0.4 E0.2926891884060591 F1200.0
G1 X109.0 Y104.0 Z0.4 E0.018814773627446733 F1200.0
G1 X91.0 Y104.0 Z0.4 E0.5986824308305746 F1200.0
G1 X91.0 Y96.0 Z0.4 E0.2660810803691443 F1200.0
G1 X109.0 Y96.0 Z0.4 E0.5986824308305746 F1200.0
G1 X109.0 Y104.0 Z0.4 E0.2660810803691443 F1200.0
G1 X108.6 Y103.6 Z0.4 E0.018814773627446733 F1200.0
G1 X91.4 Y103.6 Z0.4 E0.5720743227936598 F1200.0
G1 X91.4 Y96.4 Z0.4 E0.23947297233222942 F1200.0
G1 X108.6 Y96.4 Z0.4 E0.5720743227936598 F1200.0
G1 X108.6 Y103.6 Z0.4 E0.23947297233222942 F1200.0
G1 X108.2 Y103.2 Z0.4 E0.018814773627446064 F1200.0
G1 X91.8 Y103.2 Z0.4 E0.5454662147567458 F1200.0
G1 X91.8 Y96.8 Z0.4 E0.21286486429531556 F1200.0
G1 X108.2 Y96.8 Z0.4 E0.5454662147567458 F1200.0
G1 X108.2 Y103.2 Z0.4 E0.21286486429531556 F1200.0
G1 X107.8 Y102.8 Z0.4 E0.018814773627446733 F1200.0
G1 X92.2 Y102.8 Z0.4 E0.5188581067198311 F1200.0
G1 X92.2 Y97.2 Z0.4 E0.1862567562584008 F1200.0
G1 X107.8 Y97.2 Z0.4 E0.5188581067198311 F1200.0
G1 X107.8 Y102.8 Z0.4 E0.1862567562584008 F1200.0
G1 X107.39999999999999 Y102.4 Z0.4 E0.018814773627446397 F1200.0
G1 X92.60000000000001 Y102.4 Z0.4 E0.49224999868291636 F1200.0
G1 X92.60000000000001 Y97.6 Z0.4 E0.15964864822148694 F1200.0
G1 X107.39999999999999 Y97.6 Z0.4 E0.49224999868291636 F1200.0
G1 X107.39999999999999 Y102.4 Z0.4 E0.15964864822148694 F1200.0
G1 X107.0 Y102.0 Z0.4 E0.018814773627446397 F1200.0
G1 X93.0 Y102.0 Z0.4 E0.4656418906460024 F1200.0
G1 X93.0 Y98.0 Z0.4 E0.13304054018457215 F1200.0
G1 X107.0 Y98.0 Z0.4 E0.4656418906460024 F1200.0
G1 X107.0 Y102.0 Z0.4 E0.13304054018457215 F1200.0
G1 X106.6 Y101.6 Z0.4 E0.018814773627446733 F1200.0
G1 X93.4 Y101.6 Z0.4 E0.43903378260908765 F1200.0
G1 X93.4 Y98.4 Z0.4 E0.10643243214765732 F1200.0
G1 X106.6 Y98.4 Z0.4 E0.43903378260908765 F1200.0
G1 X106.6 Y101.6 Z0.4 E0.10643243214765732 F1200.0
G1 X106.2 Y101.2 Z0.4 E0.018814773627446064 F1200.0
G1 X93.8 Y101.2 Z0.4 E0.4124256745721738 F1200.0
G1 X93.8 Y98.8 Z0.4 E0.07982432411074347 F1200.0
G1 X106.2 Y98.8 Z0.4 E0.4124256745721738 F1200.0
G1 X106.2 Y101.2 Z0.4 E0.07982432411074347 F1200.0
G1 X105.8 Y100.8 Z0.4 E0.018814773627446733 F1200.0
G1 X94.2 Y100.8 Z0.4 E0.38581756653525895 F1200.0
G1 X94.2 Y99.2 Z0.4 E0.05321621607382866 F1200.0
G1 X105.8 Y99.2 Z0.4 E0.38581756653525895 F1200.0
G1 X105.8 Y100.8 Z0.4 E0.05321621607382866 F1200.0
G1 X105.39999999999999 Y100.4 Z0.4 E0.018814773627446397 F1200.0
G1 X94.60000000000001 Y100.4 Z0.4 E0.3592094584983442 F1200.0
G1 X94.60000000000001 Y99.6 Z0.4 E0.026608108036914803 F1200.0
G1 X105.39999999999999 Y99.6 Z0.4 E0.3592094584983442 F1200.0
G1 X105.39999999999999 Y100.4 Z0.4 E0.026608108036914803 F1200.0
G1 X90.2 Y104.8 Z0.6000000000000001 E0.6518986469044032 F1200.0
G1 X90.2 Y95.2 Z0.6000000000000001 E0.31929729644297294 F1200.0
G1 X109.8 Y95.2 Z0.6000000000000001 E0.6518986469044032 F1200.0
G1 X109.8 Y104.8 Z0.6000000000000001 E0.31929729644297294 F1200.0
G1 X109.4 Y104.4 Z0.6000000000000001 E0.018814773627446064 F1200.0
G1 X90.6 Y104.4 Z0.6000000000000001 E0.6252905388674894 F1200.0
G1 X90.6 Y95.6 Z0.6000000000000001 E0.2926891884060591 F1200.0
G1 X109.4 Y95.6 Z0.6000000000000001 E0.6252905388674894 F1200.0
G1 X109.4 Y104.4 Z0.6000000000000001 E0.2926891884060591 F1200.0
G1 X109.0 Y104.0 Z0.6000000000000001 E0.018814773627446733 F1200.0
G1 X91.0 Y104.0 Z0.6000000000000001 E0.5986824308305746 F1200.0
G1 X91.0 Y96.0 Z0.6000000000000001 E0.2660810803691443 F1200.0
G1 X109.0 Y96.0 Z0.6000000000000001 E0.5986824308305746 F1200.0
G1 X109.0 Y104.0 Z0.6000000000000001 E0.2660810803691443 F1200.0
G1 X108.6 Y103.6 Z0.6000000000000001 E0.018814773627446733 F1200.0
G1 X91.4 Y103.6 Z0.6000000000000001 E0.5720743227936598 F1200.0
G1 X91.4 Y96.4 Z0.6000000000000001 E0.23947297233222942 F1200.0
G1 X108.6 Y96.4 Z0.6000000000000001 E0.5720743227936598 F1200.0
G1 X108.6 Y103.6 Z0.6000000000000001 E0.23947297233222942 F1200.0
G1 X108.2 Y103.2 Z0.6000000000000001 E0.018814773627446064 F1200.0
G1 X91.8 Y103.2 Z0.6000000000000001 E0.5454662147567458 F1200.0
G1 X91.8 Y96.8 Z0.6000000000000001 E0.21286486429531556 F1200.0
G1 X108.2 Y96.8 Z0.6000000000000001 E0.5454662147567458 F1200.0
G1 X108.2 Y103.2 Z0.6000000000000001 E0.21286486429531556 F1200.0
G1 X107.8 Y102.8 Z0.6000000000000001 E0.018814773627446733 F1200.0
G1 X92.2 Y102.8 Z0.6000000000000001 E0.5188581067198311 F1200.0
G1 X92.2 Y97.2 Z0.6000000000000001 E0.1862567562584008 F1200.0
G1 X107.8 Y97.2 Z0.6000000000000001 E0.5188581067198311 F1200.0
G1 X107.8 Y102.8 Z0.6000000000000001 E0.1862567562584008 F1200.0
G1 X107.39999999999999 Y102.4 Z0.6000000000000001 E0.018814773627446397 F1200.0
G1 X92.60000000000001 Y102.4 Z0.6000000000000001 E0.49224999868291636 F1200.0
G1 X92.60000000000001 Y97.6 Z0.6000000000000001 E0.15964864822148694 F1200.0
G1 X107.39999999999999 Y97.6 Z0.6000000000000001 E0.49224999868291636 F1200.0
G1 X107.39999999999999 Y102.4 Z0.6000000000000001 E0.15964864822148694 F1200.0
G1 X107.0 Y102.0 Z0.6000000000000001 E0.018814773627446397 F1200.0
G1 X93.0 Y102.0 Z0.6000000000000001 E0.4656418906460024 F1200.0
G1 X93.0 Y98.0 Z0.6000000000000001 E0.13304054018457215 F1200.0
G1 X107.0 Y98.0 Z0.6000000000000001 E0.4656418906460024 F1200.0
G1 X107.0 Y102.0 Z0.6000000000000001 E0.13304054018457215 F1200.0
G1 X106.6 Y101.6 Z0.6000000000000001 E0.018814773627446733 F1200.0
G1 X93.4 Y101.6 Z0.6000000000000001 E0.43903378260908765 F1200.0
G1 X93.4 Y98.4 Z0.6000000000000001 E0.10643243214765732 F1200.0
G1 X106.6 Y98.4 Z0.6000000000000001 E0.43903378260908765 F1200.0
G1 X106.6 Y101.6 Z0.6000000000000001 E0.10643243214765732 F1200.0
G1 X106.2 Y101.2 Z0.6000000000000001 E0.018814773627446064 F1200.0
G1 X93.8 Y101.2 Z0.6000000000000001 E0.4124256745721738 F1200.0
G1 X93.8 Y98.8 Z0.6000000000000001 E0.07982432411074347 F1200.0
G1 X106.2 Y98.8 Z0.6000000000000001 E0.4124256745721738 F1200.0
G1 X106.2 Y101.2 Z0.6000000000000001 E0.07982432411074347 F1200.0
G1 X105.8 Y100.8 Z0.6000000000000001 E0.018814773627446733 F1200.0
G1 X94.2 Y100.8 Z0.6000000000000001 E0.38581756653525895 F1200.0
G1 X94.2 Y99.2 Z0.6000000000000001 E0.05321621607382866 F1200.0
G1 X105.8 Y99.2 Z0.6000000000000001 E0.38581756653525895 F1200.0
G1 X105.8 Y100.8 Z0.6000000000000001 E0.05321621607382866 F1200.0
G1 X105.39999999999999 Y100.4 Z0.6000000000000001 E0.018814773627446397 F1200.0
G1 X94.60000000000001 Y100.4 Z0.6000000000000001 E0.3592094584983442 F1200.0
G1 X94.60000000000001 Y99.6 Z0.6000000000000001 E0.026608108036914803 F1200.0
G1 X105.39999999999999 Y99.6 Z0.6000000000000001 E0.3592094584983442 F1200.0
G1 X105.39999999999999 Y100.4 Z0.6000000000000001 E0.026608108036914803 F1200.0
G1 X90.2 Y104.8 Z0.8 E0.6518986469044032 F1200.0
G1 X90.2 Y95.2 Z0.8 E0.31929729644297294 F1200.0
G1 X109.8 Y95.2 Z0.8 E0.6518986469044032 F1200.0
G1 X109.8 Y104.8 Z0.8 E0.31929729644297294 F1200.0
G1 X109.4 Y104.4 Z0.8 E0.018814773627446064 F1200.0
G1 X90.6 Y104.4 Z0.8 E0.6252905388674894 F1200.0
G1 X90.6 Y95.6 Z0.8 E0.2926891884060591 F1200.0
G1 X109.4 Y95.6 Z0.8 E0.6252905388674894 F1200.0
G1 X109.4 Y104.4 Z0.8 E0.2926891884060591 F1200.0
G1 X109.0 Y104.0 Z0.8 E0.018814773627446733 F1200.0
G1 X91.0 Y104.0 Z0.8 E0.5986824308305746 F1200.0
G1 X91.0 Y96.0 Z0.8 E0.2660810803691443 F1200.0
G1 X109.0 Y96.0 Z0.8 E0.5986824308305746 F1200.0
G1 X109.0 Y104.0 Z0.8 E0.2660810803691443 F1200.0
G1 X108.6 Y103.6 Z0.8 E0.018814773627446733 F1200.0
G1 X91.4 Y103.6 Z0.8 E0.5720743227936598 F1200.0
G1 X91.4 Y96.4 Z0.8 E0.23947297233222942 F1200.0
G1 X108.6 Y96.4 Z0.8 E0.5720743227936598 F1200.0
G1 X108.6 Y103.6 Z0.8 E0.23947297233222942 F1200.0
G1 X108.2 Y103.2 Z0.8 E0.018814773627446064 F1200.0
G1 X91.8 Y103.2 Z0.8 E0.5454662147567458 F1200.0
G1 X91.8 Y96.8 Z0.8 E0.21286486429531556 F1200.0
G1 X108.2 Y96.8 Z0.8 E0.5454662147567458 F1200.0
G1 X108.2 Y103.2 Z0.8 E0.21286486429531556 F1200.0
G1 X107.8 Y102.8 Z0.8 E0.018814773627446733 F1200.0
G1 X92.2 Y102.8 Z0.8 E0.5188581067198311 F1200.0
G1 X92.2 Y97.2 Z0.8 E0.1862567562584008 F1200.0
G1 X107.8 Y97.2 Z0.8 E0.5188581067198311 F1200.0
G1 X107.8 Y102.8 Z0.8 E0.1862567562584008 F1200.0
G1 X107.39999999999999 Y102.4 Z0.8 E0.018814773627446397 F1200.0
G1 X92.60000000000001 Y102.4 Z0.8 E0.49224999868291636 F1200.0
G1 X92.60000000000001 Y97.6 Z0.8 E0.15964864822148694 F1200.0
G1 X107.39999999999999 Y97.6 Z0.8 E0.49224999868291636 F1200.0
G1 X107.39999999999999 Y102.4 Z0.8 E0.15964864822148694 F1200.0
G1 X107.0 Y102.0 Z0.8 E0.018814773627446397 F1200.0
G1 X93.0 Y102.0 Z0.8 E0.4656418906460024 F1200.0
G1 X93.0 Y98.0 Z0.8 E0.13304054018457215 F1200.0
G1 X107.0 Y98.0 Z0.8 E0.4656418906460024 F1200.0
G1 X107.0 Y102.0 Z0.8 E0.13304054018457215 F1200.0
G1 X106.6 Y101.6 Z0.8 E0.018814773627446733 F1200.0
G1 X93.4 Y101.6 Z0.8 E0.43903378260908765 F1200.0
G1 X93.4 Y98.4 Z0.8 E0.10643243214765732 F1200.0
G1 X106.6 Y98.4 Z0.8 E0.43903378260908765 F1200.0
G1 X106.6 Y101.6 Z0.8 E0.10643243214765732 F1200.0
G1 X106.2 Y101.2 Z0.8 E0.018814773627446064 F1200.0
G1 X93.8 Y101.2 Z0.8 E0.4124256745721738 F1200.0
G1 X93.8 Y98.8 Z0.8 E0.07982432411074347 F1200.0
G1 X106.2 Y98.8 Z0.8 E0.4124256745721738 F1200.0
G1 X106.2 Y101.2 Z0.8 E0.07982432411074347 F1200.0
G1 X105.8 Y100.8 Z0.8 E0.018814773627446733 F1200.0
G1 X94.2 Y100.8 Z0.8 E0.38581756653525895 F1200.0
G1 X94.2 Y99.2 Z0.8 E0.05321621607382866 F1200.0
G1 X105.8 Y99.2 Z0.8 E0.38581756653525895 F1200.0
G1 X105.8 Y100.8 Z0.8 E0.05321621607382866 F1200.0
G1 X105.39999999999999 Y100.4 Z0.8 E0.018814773627446397 F1200.0
G1 X94.60000000000001 Y100.4 Z0.8 E0.3592094584983442 F1200.0
G1 X94.60000000000001 Y99.6 Z0.8 E0.026608108036914803 F1200.0
G1 X105.39999999999999 Y99.6 Z0.8 E0.3592094584983442 F1200.0
G1 X105.39999999999999 Y100.4 Z0.8 E0.026608108036914803 F1200.0
G1 X90.2 Y104.8 Z1.0 E0.6518986469044032 F1200.0
G1 X90.2 Y95.2 Z1.0 E0.31929729644297294 F1200.0
G1 X109.8 Y95.2 Z1.0 E0.6518986469044032 F1200.0
G1 X109.8 Y104.8 Z1.0 E0.31929729644297294 F1200.0
G1 X109.4 Y104.4 Z1.0 E0.018814773627446064 F1200.0
G1 X90.6 Y104.4 Z1.0 E0.6252905388674894 F1200.0
G1 X90.6 Y95.6 Z1.0 E0.2926891884060591 F1200.0
G1 X109.4 Y95.6 Z1.0 E0.6252905388674894 F1200.0
G1 X109.4 Y104.4 Z1.0 E0.2926891884060591 F1200.0
G1 X109.0 Y104.0 Z1.0 E0.018814773627446733 F1200.0
G1 X91.0 Y104.0 Z1.0 E0.5986824308305746 F1200.0
G1 X91.0 Y96.0 Z1.0 E0.2660810803691443 F1200.0
G1 X109.0 Y96.0 Z1.0 E0.5986824308305746 F1200.0
G1 X109.0 Y104.0 Z1.0 E0.2660810803691443 F1200.0
G1 X108.6 Y103.6 Z1.0 E0.018814773627446733 F1200.0
G1 X91.4 Y103.6 Z1.0 E0.5720743227936598 F1200.0
G1 X91.4 Y96.4 Z1.0 E0.23947297233222942 F1200.0
G1 X108.6 Y96.4 Z1.0 E0.5720743227936598 F1200.0
G1 X108.6 Y103.6 Z1.0 E0.23947297233222942 F1200.0
G1 X108.2 Y103.2 Z1.0 E0.018814773627446064 F1200.0
G1 X91.8 Y103.2 Z1.0 E0.5454662147567458 F1200.0
G1 X91.8 Y96.8 Z1.0 E0.21286486429531556 F1200.0
G1 X108.2 Y96.8 Z1.0 E0.5454662147567458 F1200.0
G1 X108.2 Y103.2 Z1.0 E0.21286486429531556 F1200.0
G1 X107.8 Y102.8 Z1.0 E0.018814773627446733 F1200.0
G1 X92.2 Y102.8 Z1.0 E0.5188581067198311 F1200.0
G1 X92.2 Y97.2 Z1.0 E0.1862567562584008 F1200.0
G1 X107.8 Y97.2 Z1.0 E0.5188581067198311 F1200.0
G1 X107.8 Y102.8 Z1.0 E0.1862567562584008 F1200.0
G1 X107.39999999999999 Y102.4 Z1.0 E0.018814773627446397 F1200.0
G1 X92.60000000000001 Y102.4 Z1.0 E0.49224999868291636 F1200.0
G1 X92.60000000000001 Y97.6 Z1.0 E0.15964864822148694 F1200.0
G1 X107.39999999999999 Y97.6 Z1.0 E0.49224999868291636 F1200.0
G1 X107.39999999999999 Y102.4 Z1.0 E0.15964864822148694 F1200.0
G1 X107.0 Y102.0 Z1.0 E0.018814773627446397 F1200.0
G1 X93.0 Y102.0 Z1.0 E0.4656418906460024 F1200.0
G1 X93.0 Y98.0 Z1.0 E0.13304054018457215 F1200.0
G1 X107.0 Y98.0 Z1.0 E0.4656418906460024 F1200.0
G1 X107.0 Y102.0 Z1.0 E0.13304054018457215 F1200.0
