;FLAVOR:Marlin 
;Layer height: 0.12 
;Generated with Cura_SteamEngine 4.9.0 
M140 S65
M105 
M190 S65
M104 S205
M105 
M109 S205
M83 ;relative extrusion mode 
; Ender 3 Custom Start G-code 
G92 E0 ; Reset Extruder 
G1 X0 Y0 Z10 F3000
G1 Z2.0 F3000 ; Move Z Axis up little to prevent scratching of Heat Bed 
G1 X0.1 Y20 Z0.3 F5000.0 ; Move to start position 
G1 X0.1 Y200.0 Z0.3 F1500.0 E15 ; Draw the first line 
G1 X0.4 Y200.0 Z0.3 F5000.0 ; Move to side a little 
G1 X0.4 Y20 Z0.3 F1500.0 E15 ; Draw the second line 
G92 E0 ; Reset Extruder 
G1 Z2.0 F3000 ; Move Z Axis up little to prevent scratching of Heat Bed 
G1 X5 Y20 Z0.3 F5000.0 ; Move over to prevent blob squish 
G92 E0 
G92 E0 
G1 F3000 E-8 
M104 S205
G0 X104.75 Y104.75 Z0.24 F2400
G1 E8
G1 X95.25 Y104.75 Z0.24 E0.473957 F1200
G1 X95.25 Y95.25 Z0.24 E0.473957 F1200
G1 X104.75 Y95.25 Z0.24 E0.473957 F1200
G1 X104.75 Y104.75 Z0.24 E0.473957 F1200
G0 X104.25 Y104.25 Z0.24 F2400
G1 X95.75 Y104.25 Z0.24 E0.424067 F1200
G1 X95.75 Y95.75 Z0.24 E0.424067 F1200
G1 X104.25 Y95.75 Z0.24 E0.424067 F1200
G1 X104.25 Y104.25 Z0.24 E0.424067 F1200
G0 X103.75 Y103.75 Z0.24 F2400
G1 X96.25 Y103.75 Z0.24 E0.374177 F1200
G1 X96.25 Y96.25 Z0.24 E0.374177 F1200
G1 X103.75 Y96.25 Z0.24 E0.374177 F1200
G1 X103.75 Y103.75 Z0.24 E0.374177 F1200
G0 X103.25 Y103.25 Z0.24 F2400
G1 X96.75 Y103.25 Z0.24 E0.324286 F1200
G1 X96.75 Y96.75 Z0.24 E0.324286 F1200
G1 X103.25 Y96.75 Z0.24 E0.324286 F1200
G1 X103.25 Y103.25 Z0.24 E0.324286 F1200
G0 X102.75 Y102.75 Z0.24 F2400
G1 X97.25 Y102.75 Z0.24 E0.274396 F1200
G1 X97.25 Y97.25 Z0.24 E0.274396 F1200
G1 X102.75 Y97.25 Z0.24 E0.274396 F1200
G1 X102.75 Y102.75 Z0.24 E0.274396 F1200
G0 X102.25 Y102.25 Z0.24 F2400
G1 X97.75 Y102.25 Z0.24 E0.224506 F1200
G1 X97.75 Y97.75 Z0.24 E0.224506 F1200
G1 X102.25 Y97.75 Z0.24 E0.224506 F1200
G1 X102.25 Y102.25 Z0.24 E0.224506 F1200
G0 X101.75 Y101.75 Z0.24 F2400
G1 X98.25 Y101.75 Z0.24 E0.174616 F1200
G1 X98.25 Y98.25 Z0.24 E0.174616 F1200
G1 X101.75 Y98.25 Z0.24 E0.174616 F1200
G1 X101.75 Y101.75 Z0.24 E0.174616 F1200
G0 X101.25 Y101.25 Z0.24 F2400
G1 X98.75 Y101.25 Z0.24 E0.124726 F1200
G1 X98.75 Y98.75 Z0.24 E0.124726 F1200
G1 X101.25 Y98.75 Z0.24 E0.124726 F1200
G1 X101.25 Y101.25 Z0.24 E0.124726 F1200
G0 X100.75 Y100.75 Z0.24 F2400
G1 X99.25 Y100.75 Z0.24 E0.074835 F1200
G1 X99.25 Y99.25 Z0.24 E0.074835 F1200
G1 X100.75 Y99.25 Z0.24 E0.074835 F1200
G1 X100.75 Y100.75 Z0.24 E0.074835 F1200
G0 X100.25 Y100.25 Z0.24 F2400
G1 X99.75 Y100.25 Z0.24 E0.024945 F1200
G1 X99.75 Y99.75 Z0.24 E0.024945 F1200
G1 X100.25 Y99.75 Z0.24 E0.024945 F1200
G1 X100.25 Y100.25 Z0.24 E0.024945 F1200
G1 E-8
M104 S200
M140 S60
G0 X104.8 Y104.8 Z0.24 F4800
G0 X104.8 Y104.8 Z0.36 F4800
G1 E8
G1 X95.2 Y104.8 Z0.36 E0.191578 F2400
G1 X95.2 Y95.2 Z0.36 E0.191578 F2400
G1 X104.8 Y95.2 Z0.36 E0.191578 F2400
G1 X104.8 Y104.8 Z0.36 E0.191578 F2400
G0 X104.4 Y104.4 Z0.36 F4800
G1 X95.6 Y104.4 Z0.36 E0.175614 F2400
G1 X95.6 Y95.6 Z0.36 E0.175614 F2400
G1 X104.4 Y95.6 Z0.36 E0.175614 F2400
G1 X104.4 Y104.4 Z0.36 E0.175614 F2400
G0 X104.0 Y104.0 Z0.36 F4800
G1 X96.0 Y104.0 Z0.36 E0.159649 F2400
G1 X96.0 Y96.0 Z0.36 E0.159649 F2400
G1 X104.0 Y96.0 Z0.36 E0.159649 F2400
G1 X104.0 Y104.0 Z0.36 E0.159649 F2400
G0 X103.6 Y103.6 Z0.36 F4800
G1 X96.4 Y103.6 Z0.36 E0.143684 F2400
G1 X96.4 Y96.4 Z0.36 E0.143684 F2400
G1 X103.6 Y96.4 Z0.36 E0.143684 F2400
G1 X103.6 Y103.6 Z0.36 E0.143684 F2400
G0 X103.2 Y103.2 Z0.36 F4800
G1 X96.8 Y103.2 Z0.36 E0.127719 F2400
G1 X96.8 Y96.8 Z0.36 E0.127719 F2400
G1 X103.2 Y96.8 Z0.36 E0.127719 F2400
G1 X103.2 Y103.2 Z0.36 E0.127719 F2400
G0 X102.8 Y102.8 Z0.36 F4800
G1 X97.2 Y102.8 Z0.36 E0.111754 F2400
G1 X97.2 Y97.2 Z0.36 E0.111754 F2400
G1 X102.8 Y97.2 Z0.36 E0.111754 F2400
G1 X102.8 Y102.8 Z0.36 E0.111754 F2400
G0 X102.4 Y102.4 Z0.36 F4800
G1 X97.6 Y102.4 Z0.36 E0.095789 F2400
G1 X97.6 Y97.6 Z0.36 E0.095789 F2400
G1 X102.4 Y97.6 Z0.36 E0.095789 F2400
G1 X102.4 Y102.4 Z0.36 E0.095789 F2400
G0 X102.0 Y102.0 Z0.36 F4800
G1 X98.0 Y102.0 Z0.36 E0.079824 F2400
G1 X98.0 Y98.0 Z0.36 E0.079824 F2400
G1 X102.0 Y98.0 Z0.36 E0.079824 F2400
G1 X102.0 Y102.0 Z0.36 E0.079824 F2400
G0 X101.6 Y101.6 Z0.36 F4800
G1 X98.4 Y101.6 Z0.36 E0.063859 F2400
G1 X98.4 Y98.4 Z0.36 E0.063859 F2400
G1 X101.6 Y98.4 Z0.36 E0.063859 F2400
G1 X101.6 Y101.6 Z0.36 E0.063859 F2400
G0 X101.2 Y101.2 Z0.36 F4800
G1 X98.8 Y101.2 Z0.36 E0.047895 F2400
G1 X98.8 Y98.8 Z0.36 E0.047895 F2400
G1 X101.2 Y98.8 Z0.36 E0.047895 F2400
G1 X101.2 Y101.2 Z0.36 E0.047895 F2400
G0 X100.8 Y100.8 Z0.36 F4800
G1 X99.2 Y100.8 Z0.36 E0.03193 F2400
G1 X99.2 Y99.2 Z0.36 E0.03193 F2400
G1 X100.8 Y99.2 Z0.36 E0.03193 F2400
G1 X100.8 Y100.8 Z0.36 E0.03193 F2400
G0 X100.4 Y100.4 Z0.36 F4800
G1 X99.6 Y100.4 Z0.36 E0.015965 F2400
G1 X99.6 Y99.6 Z0.36 E0.015965 F2400
G1 X100.4 Y99.6 Z0.36 E0.015965 F2400
G1 X100.4 Y100.4 Z0.36 E0.015965 F2400
G1 E-8
G0 X104.8 Y104.8 Z0.36 F4800
G0 X104.8 Y104.8 Z0.48 F4800
G1 E8
G1 X95.2 Y104.8 Z0.48 E0.191578 F2400
G1 X95.2 Y95.2 Z0.48 E0.191578 F2400
G1 X104.8 Y95.2 Z0.48 E0.191578 F2400
G1 X104.8 Y104.8 Z0.48 E0.191578 F2400
G0 X104.4 Y104.4 Z0.48 F4800
G1 X95.6 Y104.4 Z0.48 E0.175614 F2400
G1 X95.6 Y95.6 Z0.48 E0.175614 F2400
G1 X104.4 Y95.6 Z0.48 E0.175614 F2400
G1 X104.4 Y104.4 Z0.48 E0.175614 F2400
G0 X104.0 Y104.0 Z0.48 F4800
G1 X96.0 Y104.0 Z0.48 E0.159649 F2400
G1 X96.0 Y96.0 Z0.48 E0.159649 F2400
G1 X104.0 Y96.0 Z0.48 E0.159649 F2400
G1 X104.0 Y104.0 Z0.48 E0.159649 F2400
G0 X103.6 Y103.6 Z0.48 F4800
G1 X96.4 Y103.6 Z0.48 E0.143684 F2400
G1 X96.4 Y96.4 Z0.48 E0.143684 F2400
G1 X103.6 Y96.4 Z0.48 E0.143684 F2400
G1 X103.6 Y103.6 Z0.48 E0.143684 F2400
G0 X103.2 Y103.2 Z0.48 F4800
G1 X96.8 Y103.2 Z0.48 E0.127719 F2400
G1 X96.8 Y96.8 Z0.48 E0.127719 F2400
G1 X103.2 Y96.8 Z0.48 E0.127719 F2400
G1 X103.2 Y103.2 Z0.48 E0.127719 F2400
G0 X102.8 Y102.8 Z0.48 F4800
G1 X97.2 Y102.8 Z0.48 E0.111754 F2400
G1 X97.2 Y97.2 Z0.48 E0.111754 F2400
G1 X102.8 Y97.2 Z0.48 E0.111754 F2400
G1 X102.8 Y102.8 Z0.48 E0.111754 F2400
G0 X102.4 Y102.4 Z0.48 F4800
G1 X97.6 Y102.4 Z0.48 E0.095789 F2400
G1 X97.6 Y97.6 Z0.48 E0.095789 F2400
G1 X102.4 Y97.6 Z0.48 E0.095789 F2400
G1 X102.4 Y102.4 Z0.48 E0.095789 F2400
G0 X102.0 Y102.0 Z0.48 F4800
G1 X98.0 Y102.0 Z0.48 E0.079824 F2400
G1 X98.0 Y98.0 Z0.48 E0.079824 F2400
G1 X102.0 Y98.0 Z0.48 E0.079824 F2400
G1 X102.0 Y102.0 Z0.48 E0.079824 F2400
G0 X101.6 Y101.6 Z0.48 F4800
G1 X98.4 Y101.6 Z0.48 E0.063859 F2400
G1 X98.4 Y98.4 Z0.48 E0.063859 F2400
G1 X101.6 Y98.4 Z0.48 E0.063859 F2400
G1 X101.6 Y101.6 Z0.48 E0.063859 F2400
G0 X101.2 Y101.2 Z0.48 F4800
G1 X98.8 Y101.2 Z0.48 E0.047895 F2400
G1 X98.8 Y98.8 Z0.48 E0.047895 F2400
G1 X101.2 Y98.8 Z0.48 E0.047895 F2400
G1 X101.2 Y101.2 Z0.48 E0.047895 F2400
G0 X100.8 Y100.8 Z0.48 F4800
G1 X99.2 Y100.8 Z0.48 E0.03193 F2400
G1 X99.2 Y99.2 Z0.48 E0.03193 F2400
G1 X100.8 Y99.2 Z0.48 E0.03193 F2400
G1 X100.8 Y100.8 Z0.48 E0.03193 F2400
G0 X100.4 Y100.4 Z0.48 F4800
G1 X99.6 Y100.4 Z0.48 E0.015965 F2400
G1 X99.6 Y99.6 Z0.48 E0.015965 F2400
G1 X100.4 Y99.6 Z0.48 E0.015965 F2400
G1 X100.4 Y100.4 Z0.48 E0.015965 F2400
G1 E-8
G0 X104.8 Y104.8 Z0.48 F4800
G0 X104.8 Y104.8 Z0.6 F4800
G1 E8
G1 X95.2 Y104.8 Z0.6 E0.191578 F2400
G1 X95.2 Y95.2 Z0.6 E0.191578 F2400
G1 X104.8 Y95.2 Z0.6 E0.191578 F2400
G1 X104.8 Y104.8 Z0.6 E0.191578 F2400
G0 X104.4 Y104.4 Z0.6 F4800
G1 X95.6 Y104.4 Z0.6 E0.175614 F2400
G1 X95.6 Y95.6 Z0.6 E0.175614 F2400
G1 X104.4 Y95.6 Z0.6 E0.175614 F2400
G1 X104.4 Y104.4 Z0.6 E0.175614 F2400
G0 X104.0 Y104.0 Z0.6 F4800
G1 X96.0 Y104.0 Z0.6 E0.159649 F2400
G1 X96.0 Y96.0 Z0.6 E0.159649 F2400
G1 X104.0 Y96.0 Z0.6 E0.159649 F2400
G1 X104.0 Y104.0 Z0.6 E0.159649 F2400
G0 X103.6 Y103.6 Z0.6 F4800
G1 X96.4 Y103.6 Z0.6 E0.143684 F2400
G1 X96.4 Y96.4 Z0.6 E0.143684 F2400
G1 X103.6 Y96.4 Z0.6 E0.143684 F2400
G1 X103.6 Y103.6 Z0.6 E0.143684 F2400
G0 X103.2 Y103.2 Z0.6 F4800
G1 X96.8 Y103.2 Z0.6 E0.127719 F2400
G1 X96.8 Y96.8 Z0.6 E0.127719 F2400
G1 X103.2 Y96.8 Z0.6 E0.127719 F2400
G1 X103.2 Y103.2 Z0.6 E0.127719 F2400
G0 X102.8 Y102.8 Z0.6 F4800
G1 X97.2 Y102.8 Z0.6 E0.111754 F2400
G1 X97.2 Y97.2 Z0.6 E0.111754 F2400
G1 X102.8 Y97.2 Z0.6 E0.111754 F2400
G1 X102.8 Y102.8 Z0.6 E0.111754 F2400
G0 X102.4 Y102.4 Z0.6 F4800
G1 X97.6 Y102.4 Z0.6 E0.095789 F2400
G1 X97.6 Y97.6 Z0.6 E0.095789 F2400
G1 X102.4 Y97.6 Z0.6 E0.095789 F2400
G1 X102.4 Y102.4 Z0.6 E0.095789 F2400
G0 X102.0 Y102.0 Z0.6 F4800
G1 X98.0 Y102.0 Z0.6 E0.079824 F2400
G1 X98.0 Y98.0 Z0.6 E0.079824 F2400
G1 X102.0 Y98.0 Z0.6 E0.079824 F2400
G1 X102.0 Y102.0 Z0.6 E0.079824 F2400
G0 X101.6 Y101.6 Z0.6 F4800
G1 X98.4 Y101.6 Z0.6 E0.063859 F2400
G1 X98.4 Y98.4 Z0.6 E0.063859 F2400
G1 X101.6 Y98.4 Z0.6 E0.063859 F2400
G1 X101.6 Y101.6 Z0.6 E0.063859 F2400
G0 X101.2 Y101.2 Z0.6 F4800
G1 X98.8 Y101.2 Z0.6 E0.047895 F2400
G1 X98.8 Y98.8 Z0.6 E0.047895 F2400
G1 X101.2 Y98.8 Z0.6 E0.047895 F2400
G1 X101.2 Y101.2 Z0.6 E0.047895 F2400
G0 X100.8 Y100.8 Z0.6 F4800
G1 X99.2 Y100.8 Z0.6 E0.03193 F2400
G1 X99.2 Y99.2 Z0.6 E0.03193 F2400
G1 X100.8 Y99.2 Z0.6 E0.03193 F2400
G1 X100.8 Y100.8 Z0.6 E0.03193 F2400
G0 X100.4 Y100.4 Z0.6 F4800
G1 X99.6 Y100.4 Z0.6 E0.015965 F2400
G1 X99.6 Y99.6 Z0.6 E0.015965 F2400
G1 X100.4 Y99.6 Z0.6 E0.015965 F2400
G1 X100.4 Y100.4 Z0.6 E0.015965 F2400
G1 E-8
G0 X104.8 Y104.8 Z0.6 F4800
G0 X104.8 Y104.8 Z0.72 F4800
G1 E8
G1 X95.2 Y104.8 Z0.72 E0.191578 F2400
G1 X95.2 Y95.2 Z0.72 E0.191578 F2400
G1 X104.8 Y95.2 Z0.72 E0.191578 F2400
G1 X104.8 Y104.8 Z0.72 E0.191578 F2400
G0 X104.4 Y104.4 Z0.72 F4800
G1 X95.6 Y104.4 Z0.72 E0.175614 F2400
G1 X95.6 Y95.6 Z0.72 E0.175614 F2400
G1 X104.4 Y95.6 Z0.72 E0.175614 F2400
G1 X104.4 Y104.4 Z0.72 E0.175614 F2400
G0 X104.0 Y104.0 Z0.72 F4800
G1 X96.0 Y104.0 Z0.72 E0.159649 F2400
G1 X96.0 Y96.0 Z0.72 E0.159649 F2400
G1 X104.0 Y96.0 Z0.72 E0.159649 F2400
G1 X104.0 Y104.0 Z0.72 E0.159649 F2400
G0 X103.6 Y103.6 Z0.72 F4800
G1 X96.4 Y103.6 Z0.72 E0.143684 F2400
G1 X96.4 Y96.4 Z0.72 E0.143684 F2400
G1 X103.6 Y96.4 Z0.72 E0.143684 F2400
G1 X103.6 Y103.6 Z0.72 E0.143684 F2400
G0 X103.2 Y103.2 Z0.72 F4800
G1 X96.8 Y103.2 Z0.72 E0.127719 F2400
G1 X96.8 Y96.8 Z0.72 E0.127719 F2400
G1 X103.2 Y96.8 Z0.72 E0.127719 F2400
G1 X103.2 Y103.2 Z0.72 E0.127719 F2400
G0 X102.8 Y102.8 Z0.72 F4800
G1 X97.2 Y102.8 Z0.72 E0.111754 F2400
G1 X97.2 Y97.2 Z0.72 E0.111754 F2400
G1 X102.8 Y97.2 Z0.72 E0.111754 F2400
G1 X102.8 Y102.8 Z0.72 E0.111754 F2400
G0 X102.4 Y102.4 Z0.72 F4800
G1 X97.6 Y102.4 Z0.72 E0.095789 F2400
G1 X97.6 Y97.6 Z0.72 E0.095789 F2400
G1 X102.4 Y97.6 Z0.72 E0.095789 F2400
G1 X102.4 Y102.4 Z0.72 E0.095789 F2400
G0 X102.0 Y102.0 Z0.72 F4800
G1 X98.0 Y102.0 Z0.72 E0.079824 F2400
G1 X98.0 Y98.0 Z0.72 E0.079824 F2400
G1 X102.0 Y98.0 Z0.72 E0.079824 F2400
G1 X102.0 Y102.0 Z0.72 E0.079824 F2400
G0 X101.6 Y101.6 Z0.72 F4800
G1 X98.4 Y101.6 Z0.72 E0.063859 F2400
G1 X98.4 Y98.4 Z0.72 E0.063859 F2400
G1 X101.6 Y98.4 Z0.72 E0.063859 F2400
G1 X101.6 Y101.6 Z0.72 E0.063859 F2400
G0 X101.2 Y101.2 Z0.72 F4800
G1 X98.8 Y101.2 Z0.72 E0.047895 F2400
G1 X98.8 Y98.8 Z0.72 E0.047895 F2400
G1 X101.2 Y98.8 Z0.72 E0.047895 F2400
G1 X101.2 Y101.2 Z0.72 E0.047895 F2400
G0 X100.8 Y100.8 Z0.72 F4800
G1 X99.2 Y100.8 Z0.72 E0.03193 F2400
G1 X99.2 Y99.2 Z0.72 E0.03193 F2400
G1 X100.8 Y99.2 Z0.72 E0.03193 F2400
G1 X100.8 Y100.8 Z0.72 E0.03193 F2400
G0 X100.4 Y100.4 Z0.72 F4800
G1 X99.6 Y100.4 Z0.72 E0.015965 F2400
G1 X99.6 Y99.6 Z0.72 E0.015965 F2400
G1 X100.4 Y99.6 Z0.72 E0.015965 F2400
G1 X100.4 Y100.4 Z0.72 E0.015965 F2400
G1 E-8
G0 X104.8 Y104.8 Z0.72 F4800
G0 X104.8 Y104.8 Z0.84 F4800
G1 E8
G1 X95.2 Y104.8 Z0.84 E0.191578 F2400
G1 X95.2 Y95.2 Z0.84 E0.191578 F2400
G1 X104.8 Y95.2 Z0.84 E0.191578 F2400
G1 X104.8 Y104.8 Z0.84 E0.191578 F2400
G0 X104.4 Y104.4 Z0.84 F4800
G1 X95.6 Y104.4 Z0.84 E0.175614 F2400
G1 X95.6 Y95.6 Z0.84 E0.175614 F2400
G1 X104.4 Y95.6 Z0.84 E0.175614 F2400
G1 X104.4 Y104.4 Z0.84 E0.175614 F2400
G0 X104.0 Y104.0 Z0.84 F4800
G1 X96.0 Y104.0 Z0.84 E0.159649 F2400
G1 X96.0 Y96.0 Z0.84 E0.159649 F2400
G1 X104.0 Y96.0 Z0.84 E0.159649 F2400
G1 X104.0 Y104.0 Z0.84 E0.159649 F2400
G0 X103.6 Y103.6 Z0.84 F4800
G1 X96.4 Y103.6 Z0.84 E0.143684 F2400
G1 X96.4 Y96.4 Z0.84 E0.143684 F2400
G1 X103.6 Y96.4 Z0.84 E0.143684 F2400
G1 X103.6 Y103.6 Z0.84 E0.143684 F2400
G0 X103.2 Y103.2 Z0.84 F4800
G1 X96.8 Y103.2 Z0.84 E0.127719 F2400
G1 X96.8 Y96.8 Z0.84 E0.127719 F2400
G1 X103.2 Y96.8 Z0.84 E0.127719 F2400
G1 X103.2 Y103.2 Z0.84 E0.127719 F2400
G0 X102.8 Y102.8 Z0.84 F4800
G1 X97.2 Y102.8 Z0.84 E0.111754 F2400
G1 X97.2 Y97.2 Z0.84 E0.111754 F2400
G1 X102.8 Y97.2 Z0.84 E0.111754 F2400
G1 X102.8 Y102.8 Z0.84 E0.111754 F2400
G0 X102.4 Y102.4 Z0.84 F4800
G1 X97.6 Y102.4 Z0.84 E0.095789 F2400
G1 X97.6 Y97.6 Z0.84 E0.095789 F2400
G1 X102.4 Y97.6 Z0.84 E0.095789 F2400
G1 X102.4 Y102.4 Z0.84 E0.095789 F2400
G0 X102.0 Y102.0 Z0.84 F4800
G1 X98.0 Y102.0 Z0.84 E0.079824 F2400
G1 X98.0 Y98.0 Z0.84 E0.079824 F2400
G1 X102.0 Y98.0 Z0.84 E0.079824 F2400
G1 X102.0 Y102.0 Z0.84 E0.079824 F2400
G0 X101.6 Y101.6 Z0.84 F4800
G1 X98.4 Y101.6 Z0.84 E0.063859 F2400
G1 X98.4 Y98.4 Z0.84 E0.063859 F2400
G1 X101.6 Y98.4 Z0.84 E0.063859 F2400
G1 X101.6 Y101.6 Z0.84 E0.063859 F2400
G0 X101.2 Y101.2 Z0.84 F4800
G1 X98.8 Y101.2 Z0.84 E0.047895 F2400
G1 X98.8 Y98.8 Z0.84 E0.047895 F2400
G1 X101.2 Y98.8 Z0.84 E0.047895 F2400
G1 X101.2 Y101.2 Z0.84 E0.047895 F2400
G0 X100.8 Y100.8 Z0.84 F4800
G1 X99.2 Y100.8 Z0.84 E0.03193 F2400
G1 X99.2 Y99.2 Z0.84 E0.03193 F2400
G1 X100.8 Y99.2 Z0.84 E0.03193 F2400
G1 X100.8 Y100.8 Z0.84 E0.03193 F2400
G0 X100.4 Y100.4 Z0.84 F4800
G1 X99.6 Y100.4 Z0.84 E0.015965 F2400
G1 X99.6 Y99.6 Z0.84 E0.015965 F2400
G1 X100.4 Y99.6 Z0.84 E0.015965 F2400
G1 X100.4 Y100.4 Z0.84 E0.015965 F2400
G1 E-8
G0 X104.8 Y104.8 Z0.84 F4800
G0 X104.8 Y104.8 Z0.96 F4800
G1 E8
G1 X95.2 Y104.8 Z0.96 E0.191578 F2400
G1 X95.2 Y95.2 Z0.96 E0.191578 F2400
G1 X104.8 Y95.2 Z0.96 E0.191578 F2400
G1 X104.8 Y104.8 Z0.96 E0.191578 F2400
G0 X104.4 Y104.4 Z0.96 F4800
G1 X95.6 Y104.4 Z0.96 E0.175614 F2400
G1 X95.6 Y95.6 Z0.96 E0.175614 F2400
G1 X104.4 Y95.6 Z0.96 E0.175614 F2400
G1 X104.4 Y104.4 Z0.96 E0.175614 F2400
G0 X104.0 Y104.0 Z0.96 F4800
G1 X96.0 Y104.0 Z0.96 E0.159649 F2400
G1 X96.0 Y96.0 Z0.96 E0.159649 F2400
G1 X104.0 Y96.0 Z0.96 E0.159649 F2400
G1 X104.0 Y104.0 Z0.96 E0.159649 F2400
G0 X103.6 Y103.6 Z0.96 F4800
G1 X96.4 Y103.6 Z0.96 E0.143684 F2400
G1 X96.4 Y96.4 Z0.96 E0.143684 F2400
G1 X103.6 Y96.4 Z0.96 E0.143684 F2400
G1 X103.6 Y103.6 Z0.96 E0.143684 F2400
G0 X103.2 Y103.2 Z0.96 F4800
G1 X96.8 Y103.2 Z0.96 E0.127719 F2400
G1 X96.8 Y96.8 Z0.96 E0.127719 F2400
G1 X103.2 Y96.8 Z0.96 E0.127719 F2400
G1 X103.2 Y103.2 Z0.96 E0.127719 F2400
G0 X102.8 Y102.8 Z0.96 F4800
G1 X97.2 Y102.8 Z0.96 E0.111754 F2400
G1 X97.2 Y97.2 Z0.96 E0.111754 F2400
G1 X102.8 Y97.2 Z0.96 E0.111754 F2400
G1 X102.8 Y102.8 Z0.96 E0.111754 F2400
G0 X102.4 Y102.4 Z0.96 F4800
G1 X97.6 Y102.4 Z0.96 E0.095789 F2400
G1 X97.6 Y97.6 Z0.96 E0.095789 F2400
G1 X102.4 Y97.6 Z0.96 E0.095789 F2400
G1 X102.4 Y102.4 Z0.96 E0.095789 F2400
G0 X102.0 Y102.0 Z0.96 F4800
G1 X98.0 Y102.0 Z0.96 E0.079824 F2400
G1 X98.0 Y98.0 Z0.96 E0.079824 F2400
G1 X102.0 Y98.0 Z0.96 E0.079824 F2400
G1 X102.0 Y102.0 Z0.96 E0.079824 F2400
G0 X101.6 Y101.6 Z0.96 F4800
G1 X98.4 Y101.6 Z0.96 E0.063859 F2400
G1 X98.4 Y98.4 Z0.96 E0.063859 F2400
G1 X101.6 Y98.4 Z0.96 E0.063859 F2400
G1 X101.6 Y101.6 Z0.96 E0.063859 F2400
G0 X101.2 Y101.2 Z0.96 F4800
G1 X98.8 Y101.2 Z0.96 E0.047895 F2400
G1 X98.8 Y98.8 Z0.96 E0.047895 F2400
G1 X101.2 Y98.8 Z0.96 E0.047895 F2400
G1 X101.2 Y101.2 Z0.96 E0.047895 F2400
G0 X100.8 Y100.8 Z0.96 F4800
G1 X99.2 Y100.8 Z0.96 E0.03193 F2400
G1 X99.2 Y99.2 Z0.96 E0.03193 F2400
G1 X100.8 Y99.2 Z0.96 E0.03193 F2400
G1 X100.8 Y100.8 Z0.96 E0.03193 F2400
G0 X100.4 Y100.4 Z0.96 F4800
G1 X99.6 Y100.4 Z0.96 E0.015965 F2400
G1 X99.6 Y99.6 Z0.96 E0.015965 F2400
G1 X100.4 Y99.6 Z0.96 E0.015965 F2400
G1 X100.4 Y100.4 Z0.96 E0.015965 F2400
G1 E-8
G0 X104.8 Y104.8 Z0.9600000000000001 F4800
G0 X104.8 Y104.8 Z1.08 F4800
G1 E8
G1 X95.2 Y104.8 Z1.08 E0.191578 F2400
