;FLAVOR:Marlin 
;Layer height: 0.12 
;Generated with Cura_SteamEngine 4.9.0 
M140 S70
M105 
M190 S70
M104 S210
M105 
M109 S210
M83 ;relative extrusion mode 
; Ender 3 Custom Start G-code 
G92 E0 ; Reset Extruder 
G1 X0 Y0 Z10 F3000
G1 Z2.0 F3000 ; Move Z Axis up little to prevent scratching of Heat Bed 
G1 X0.1 Y20 Z0.3 F5000.0 ; Move to start position 
G1 X0.1 Y200.0 Z0.3 F1500.0 E15 ; Draw the first line 
G1 X0.4 Y200.0 Z0.3 F5000.0 ; Move to side a little 
G1 X0.4 Y20 Z0.3 F1500.0 E15 ; Draw the second line 
G92 E0 ; Reset Extruder 
G1 Z2.0 F3000 ; Move Z Axis up little to prevent scratching of Heat Bed 
G1 X5 Y20 Z0.3 F5000.0 ; Move over to prevent blob squish 
G92 E0 
G92 E0 
G1 F3000 E-8 
M104 S210
G0 X69.75 Y54.75 Z0.24 F1200
G1 E8
G1 X30.25 Y54.75 Z0.24 E1.9706630014839746 F1200
G1 X30.25 Y45.25 Z0.24 E0.4739569244075381 F1200
G1 X69.75 Y45.25 Z0.24 E1.9706630014839746 F1200
G1 X69.75 Y54.75 Z0.24 E0.4739569244075381 F1200
G1 X69.25 Y54.25 Z0.24 E0.03527770055146212 F1200
G1 X30.75 Y54.25 Z0.24 E1.92077279891476 F1200
G1 X30.75 Y45.75 Z0.24 E0.4240667218383236 F1200
G1 X69.25 Y45.75 Z0.24 E1.92077279891476 F1200
G1 X69.25 Y54.25 Z0.24 E0.4240667218383236 F1200
G1 X68.75 Y53.75 Z0.24 E0.03527770055146212 F1200
G1 X31.25 Y53.75 Z0.24 E1.8708825963455453 F1200
G1 X31.25 Y46.25 Z0.24 E0.37417651926910905 F1200
G1 X68.75 Y46.25 Z0.24 E1.8708825963455453 F1200
G1 X68.75 Y53.75 Z0.24 E0.37417651926910905 F1200
G1 X68.25 Y53.25 Z0.24 E0.03527770055146212 F1200
G1 X31.75 Y53.25 Z0.24 E1.8209923937763308 F1200
G1 X31.75 Y46.75 Z0.24 E0.32428631669989455 F1200
G1 X68.25 Y46.75 Z0.24 E1.8209923937763308 F1200
G1 X68.25 Y53.25 Z0.24 E0.32428631669989455 F1200
G1 X67.75 Y52.75 Z0.24 E0.03527770055146212 F1200
G1 X32.25 Y52.75 Z0.24 E1.771102191207116 F1200
G1 X32.25 Y47.25 Z0.24 E0.27439611413067994 F1200
G1 X67.75 Y47.25 Z0.24 E1.771102191207116 F1200
G1 X67.75 Y52.75 Z0.24 E0.27439611413067994 F1200
G1 X67.25 Y52.25 Z0.24 E0.03527770055146212 F1200
G1 X32.75 Y52.25 Z0.24 E1.7212119886379016 F1200
G1 X32.75 Y47.75 Z0.24 E0.22450591156146546 F1200
G1 X67.25 Y47.75 Z0.24 E1.7212119886379016 F1200
G1 X67.25 Y52.25 Z0.24 E0.22450591156146546 F1200
G1 X66.75 Y51.75 Z0.24 E0.03527770055146212 F1200
G1 X33.25 Y51.75 Z0.24 E1.671321786068687 F1200
G1 X33.25 Y48.25 Z0.24 E0.1746157089922509 F1200
G1 X66.75 Y48.25 Z0.24 E1.671321786068687 F1200
G1 X66.75 Y51.75 Z0.24 E0.1746157089922509 F1200
G1 X66.25 Y51.25 Z0.24 E0.03527770055146212 F1200
G1 X33.75 Y51.25 Z0.24 E1.6214315834994726 F1200
G1 X33.75 Y48.75 Z0.24 E0.12472550642303636 F1200
G1 X66.25 Y48.75 Z0.24 E1.6214315834994726 F1200
G1 X66.25 Y51.25 Z0.24 E0.12472550642303636 F1200
G1 X65.75 Y50.75 Z0.24 E0.03527770055146212 F1200
G1 X34.25 Y50.75 Z0.24 E1.571541380930258 F1200
G1 X34.25 Y49.25 Z0.24 E0.07483530385382181 F1200
G1 X65.75 Y49.25 Z0.24 E1.571541380930258 F1200
G1 X65.75 Y50.75 Z0.24 E0.07483530385382181 F1200
G1 X65.25 Y50.25 Z0.24 E0.03527770055146212 F1200
G1 X34.75 Y50.25 Z0.24 E1.5216511783610434 F1200
G1 X34.75 Y49.75 Z0.24 E0.02494510128460727 F1200
G1 X65.25 Y49.75 Z0.24 E1.5216511783610434 F1200
G1 X65.25 Y50.25 Z0.24 E0.02494510128460727 F1200
G1 E-8
G1 E-8
M104 S205
G0 X69.8 Y54.8 Z0.36 F1200
G1 E8
G1 E-8
G1 X30.2 Y54.8 Z0.36 E0.7902608086963582 F1200
G1 X30.2 Y45.2 Z0.36 E0.19157837786578374 F1200
G1 X69.8 Y45.2 Z0.36 E0.7902608086963582 F1200
G1 X69.8 Y54.8 Z0.36 E0.19157837786578374 F1200
G1 X69.4 Y54.4 Z0.36 E0.011288864176467737 F1200
G1 X30.599999999999998 Y54.4 Z0.36 E0.77429594387421 F1200
G1 X30.599999999999998 Y45.6 Z0.36 E0.17561351304363515 F1200
G1 X69.4 Y45.6 Z0.36 E0.77429594387421 F1200
G1 X69.4 Y54.4 Z0.36 E0.17561351304363515 F1200
G1 X69.0 Y54.0 Z0.36 E0.011288864176467937 F1200
G1 X30.999999999999996 Y54.0 Z0.36 E0.7583310790520611 F1200
G1 X30.999999999999996 Y46.0 Z0.36 E0.15964864822148656 F1200
G1 X69.0 Y46.0 Z0.36 E0.7583310790520611 F1200
G1 X69.0 Y54.0 Z0.36 E0.15964864822148656 F1200
G1 X68.60000000000001 Y53.6 Z0.36 E0.011288864176467737 F1200
G1 X31.399999999999995 Y53.6 Z0.36 E0.7423662142299128 F1200
G1 X31.399999999999995 Y46.4 Z0.36 E0.14368378339933793 F1200
G1 X68.60000000000001 Y46.4 Z0.36 E0.7423662142299128 F1200
G1 X68.60000000000001 Y53.6 Z0.36 E0.14368378339933793 F1200
G1 X68.2 Y53.2 Z0.36 E0.011288864176467937 F1200
G1 X31.799999999999994 Y53.2 Z0.36 E0.7264013494077639 F1200
G1 X31.799999999999994 Y46.8 Z0.36 E0.12771891857718934 F1200
G1 X68.2 Y46.8 Z0.36 E0.7264013494077639 F1200
G1 X68.2 Y53.2 Z0.36 E0.12771891857718934 F1200
G1 X67.80000000000001 Y52.8 Z0.36 E0.011288864176467838 F1200
G1 X32.19999999999999 Y52.8 Z0.36 E0.7104364845856155 F1200
G1 X32.19999999999999 Y47.2 Z0.36 E0.11175405375504048 F1200
G1 X67.80000000000001 Y47.2 Z0.36 E0.7104364845856155 F1200
G1 X67.80000000000001 Y52.8 Z0.36 E0.11175405375504048 F1200
G1 X67.4 Y52.4 Z0.36 E0.011288864176467937 F1200
G1 X32.599999999999994 Y52.4 Z0.36 E0.6944716197634667 F1200
G1 X32.599999999999994 Y47.6 Z0.36 E0.09578918893289187 F1200
G1 X67.4 Y47.6 Z0.36 E0.6944716197634667 F1200
G1 X67.4 Y52.4 Z0.36 E0.09578918893289187 F1200
G1 X67.00000000000001 Y52.0 Z0.36 E0.011288864176467737 F1200
G1 X32.999999999999986 Y52.0 Z0.36 E0.6785067549413184 F1200
G1 X32.999999999999986 Y48.0 Z0.36 E0.07982432411074328 F1200
G1 X67.00000000000001 Y48.0 Z0.36 E0.6785067549413184 F1200
G1 X67.00000000000001 Y52.0 Z0.36 E0.07982432411074328 F1200
G1 X66.60000000000001 Y51.6 Z0.36 E0.011288864176467937 F1200
G1 X33.39999999999999 Y51.6 Z0.36 E0.6625418901191695 F1200
G1 X33.39999999999999 Y48.4 Z0.36 E0.06385945928859467 F1200
G1 X66.60000000000001 Y48.4 Z0.36 E0.6625418901191695 F1200
G1 X66.60000000000001 Y51.6 Z0.36 E0.06385945928859467 F1200
G1 X66.20000000000002 Y51.2 Z0.36 E0.011288864176467737 F1200
G1 X33.79999999999998 Y51.2 Z0.36 E0.6465770252970212 F1200
G1 X33.79999999999998 Y48.8 Z0.36 E0.047894594466446075 F1200
G1 X66.20000000000002 Y48.8 Z0.36 E0.6465770252970212 F1200
G1 X66.20000000000002 Y51.2 Z0.36 E0.047894594466446075 F1200
G1 X65.80000000000001 Y50.8 Z0.36 E0.011288864176468039 F1200
G1 X34.19999999999999 Y50.8 Z0.36 E0.6306121604748722 F1200
G1 X34.19999999999999 Y49.2 Z0.36 E0.031929729644297196 F1200
G1 X65.80000000000001 Y49.2 Z0.36 E0.6306121604748722 F1200
G1 X65.80000000000001 Y50.8 Z0.36 E0.031929729644297196 F1200
G1 X65.40000000000002 Y50.4 Z0.36 E0.011288864176467737 F1200
G1 X34.59999999999999 Y50.4 Z0.36 E0.6146472956527239 F1200
G1 X34.59999999999999 Y49.6 Z0.36 E0.015964864822148598 F1200
G1 X65.40000000000002 Y49.6 Z0.36 E0.6146472956527239 F1200
G1 X65.40000000000002 Y50.4 Z0.36 E0.015964864822148598 F1200
G1 E8
G1 E-8
G1 X30.2 Y54.8 Z0.48 E0.7902608086963582 F1200
G1 X30.2 Y45.2 Z0.48 E0.19157837786578374 F1200
G1 X69.8 Y45.2 Z0.48 E0.7902608086963582 F1200
G1 X69.8 Y54.8 Z0.48 E0.19157837786578374 F1200
G1 X69.4 Y54.4 Z0.48 E0.011288864176467737 F1200
G1 X30.599999999999998 Y54.4 Z0.48 E0.77429594387421 F1200
G1 X30.599999999999998 Y45.6 Z0.48 E0.17561351304363515 F1200
G1 X69.4 Y45.6 Z0.48 E0.77429594387421 F1200
G1 X69.4 Y54.4 Z0.48 E0.17561351304363515 F1200
G1 X69.0 Y54.0 Z0.48 E0.011288864176467937 F1200
G1 X30.999999999999996 Y54.0 Z0.48 E0.7583310790520611 F1200
G1 X30.999999999999996 Y46.0 Z0.48 E0.15964864822148656 F1200
G1 X69.0 Y46.0 Z0.48 E0.7583310790520611 F1200
G1 X69.0 Y54.0 Z0.48 E0.15964864822148656 F1200
G1 X68.60000000000001 Y53.6 Z0.48 E0.011288864176467737 F1200
G1 X31.399999999999995 Y53.6 Z0.48 E0.7423662142299128 F1200
G1 X31.399999999999995 Y46.4 Z0.48 E0.14368378339933793 F1200
G1 X68.60000000000001 Y46.4 Z0.48 E0.7423662142299128 F1200
G1 X68.60000000000001 Y53.6 Z0.48 E0.14368378339933793 F1200
G1 X68.2 Y53.2 Z0.48 E0.011288864176467937 F1200
G1 X31.799999999999994 Y53.2 Z0.48 E0.7264013494077639 F1200
G1 X31.799999999999994 Y46.8 Z0.48 E0.12771891857718934 F1200
G1 X68.2 Y46.8 Z0.48 E0.7264013494077639 F1200
G1 X68.2 Y53.2 Z0.48 E0.12771891857718934 F1200
G1 X67.80000000000001 Y52.8 Z0.48 E0.011288864176467838 F1200
G1 X32.19999999999999 Y52.8 Z0.48 E0.7104364845856155 F1200
G1 X32.19999999999999 Y47.2 Z0.48 E0.11175405375504048 F1200
G1 X67.80000000000001 Y47.2 Z0.48 E0.7104364845856155 F1200
G1 X67.80000000000001 Y52.8 Z0.48 E0.11175405375504048 F1200
G1 X67.4 Y52.4 Z0.48 E0.011288864176467937 F1200
G1 X32.599999999999994 Y52.4 Z0.48 E0.6944716197634667 F1200
G1 X32.599999999999994 Y47.6 Z0.48 E0.09578918893289187 F1200
G1 X67.4 Y47.6 Z0.48 E0.6944716197634667 F1200
G1 X67.4 Y52.4 Z0.48 E0.09578918893289187 F1200
G1 X67.00000000000001 Y52.0 Z0.48 E0.011288864176467737 F1200
G1 X32.999999999999986 Y52.0 Z0.48 E0.6785067549413184 F1200
G1 X32.999999999999986 Y48.0 Z0.48 E0.07982432411074328 F1200
G1 X67.00000000000001 Y48.0 Z0.48 E0.6785067549413184 F1200
G1 X67.00000000000001 Y52.0 Z0.48 E0.07982432411074328 F1200
G1 X66.60000000000001 Y51.6 Z0.48 E0.011288864176467937 F1200
G1 X33.39999999999999 Y51.6 Z0.48 E0.6625418901191695 F1200
G1 X33.39999999999999 Y48.4 Z0.48 E0.06385945928859467 F1200
G1 X66.60000000000001 Y48.4 Z0.48 E0.6625418901191695 F1200
G1 X66.60000000000001 Y51.6 Z0.48 E0.06385945928859467 F1200
G1 X66.20000000000002 Y51.2 Z0.48 E0.011288864176467737 F1200
G1 X33.79999999999998 Y51.2 Z0.48 E0.6465770252970212 F1200
G1 X33.79999999999998 Y48.8 Z0.48 E0.047894594466446075 F1200
G1 X66.20000000000002 Y48.8 Z0.48 E0.6465770252970212 F1200
G1 X66.20000000000002 Y51.2 Z0.48 E0.047894594466446075 F1200
G1 X65.80000000000001 Y50.8 Z0.48 E0.011288864176468039 F1200
G1 X34.19999999999999 Y50.8 Z0.48 E0.6306121604748722 F1200
G1 X34.19999999999999 Y49.2 Z0.48 E0.031929729644297196 F1200
G1 X65.80000000000001 Y49.2 Z0.48 E0.6306121604748722 F1200
G1 X65.80000000000001 Y50.8 Z0.48 E0.031929729644297196 F1200
G1 X65.40000000000002 Y50.4 Z0.48 E0.011288864176467737 F1200
G1 X34.59999999999999 Y50.4 Z0.48 E0.6146472956527239 F1200
G1 X34.59999999999999 Y49.6 Z0.48 E0.015964864822148598 F1200
G1 X65.40000000000002 Y49.6 Z0.48 E0.6146472956527239 F1200
G1 X65.40000000000002 Y50.4 Z0.48 E0.015964864822148598 F1200
G1 E8
G1 E-8
G1 X30.2 Y54.8 Z0.6 E0.7902608086963582 F1200
G1 X30.2 Y45.2 Z0.6 E0.19157837786578374 F1200
G1 X69.8 Y45.2 Z0.6 E0.7902608086963582 F1200
G1 X69.8 Y54.8 Z0.6 E0.19157837786578374 F1200
G1 X69.4 Y54.4 Z0.6 E0.011288864176467737 F1200
G1 X30.599999999999998 Y54.4 Z0.6 E0.77429594387421 F1200
G1 X30.599999999999998 Y45.6 Z0.6 E0.17561351304363515 F1200
G1 X69.4 Y45.6 Z0.6 E0.77429594387421 F1200
G1 X69.4 Y54.4 Z0.6 E0.17561351304363515 F1200
G1 X69.0 Y54.0 Z0.6 E0.011288864176467937 F1200
G1 X30.999999999999996 Y54.0 Z0.6 E0.7583310790520611 F1200
G1 X30.999999999999996 Y46.0 Z0.6 E0.15964864822148656 F1200
G1 X69.0 Y46.0 Z0.6 E0.7583310790520611 F1200
G1 X69.0 Y54.0 Z0.6 E0.15964864822148656 F1200
G1 X68.60000000000001 Y53.6 Z0.6 E0.011288864176467737 F1200
G1 X31.399999999999995 Y53.6 Z0.6 E0.7423662142299128 F1200
G1 X31.399999999999995 Y46.4 Z0.6 E0.14368378339933793 F1200
G1 X68.60000000000001 Y46.4 Z0.6 E0.7423662142299128 F1200
G1 X68.60000000000001 Y53.6 Z0.6 E0.14368378339933793 F1200
G1 X68.2 Y53.2 Z0.6 E0.011288864176467937 F1200
G1 X31.799999999999994 Y53.2 Z0.6 E0.7264013494077639 F1200
G1 X31.799999999999994 Y46.8 Z0.6 E0.12771891857718934 F1200
G1 X68.2 Y46.8 Z0.6 E0.7264013494077639 F1200
G1 X68.2 Y53.2 Z0.6 E0.12771891857718934 F1200
G1 X67.80000000000001 Y52.8 Z0.6 E0.011288864176467838 F1200
G1 X32.19999999999999 Y52.8 Z0.6 E0.7104364845856155 F1200
G1 X32.19999999999999 Y47.2 Z0.6 E0.11175405375504048 F1200
G1 X67.80000000000001 Y47.2 Z0.6 E0.7104364845856155 F1200
G1 X67.80000000000001 Y52.8 Z0.6 E0.11175405375504048 F1200
G1 X67.4 Y52.4 Z0.6 E0.011288864176467937 F1200
G1 X32.599999999999994 Y52.4 Z0.6 E0.6944716197634667 F1200
G1 X32.599999999999994 Y47.6 Z0.6 E0.09578918893289187 F1200
G1 X67.4 Y47.6 Z0.6 E0.6944716197634667 F1200
G1 X67.4 Y52.4 Z0.6 E0.09578918893289187 F1200
G1 X67.00000000000001 Y52.0 Z0.6 E0.011288864176467737 F1200
G1 X32.999999999999986 Y52.0 Z0.6 E0.6785067549413184 F1200
G1 X32.999999999999986 Y48.0 Z0.6 E0.07982432411074328 F1200
G1 X67.00000000000001 Y48.0 Z0.6 E0.6785067549413184 F1200
G1 X67.00000000000001 Y52.0 Z0.6 E0.07982432411074328 F1200
G1 X66.60000000000001 Y51.6 Z0.6 E0.011288864176467937 F1200
G1 X33.39999999999999 Y51.6 Z0.6 E0.6625418901191695 F1200
G1 X33.39999999999999 Y48.4 Z0.6 E0.06385945928859467 F1200
G1 X66.60000000000001 Y48.4 Z0.6 E0.6625418901191695 F1200
G1 X66.60000000000001 Y51.6 Z0.6 E0.06385945928859467 F1200
G1 X66.20000000000002 Y51.2 Z0.6 E0.011288864176467737 F1200
G1 X33.79999999999998 Y51.2 Z0.6 E0.6465770252970212 F1200
G1 X33.79999999999998 Y48.8 Z0.6 E0.047894594466446075 F1200
G1 X66.20000000000002 Y48.8 Z0.6 E0.6465770252970212 F1200
G1 X66.20000000000002 Y51.2 Z0.6 E0.047894594466446075 F1200
G1 X65.80000000000001 Y50.8 Z0.6 E0.011288864176468039 F1200
G1 X34.19999999999999 Y50.8 Z0.6 E0.6306121604748722 F1200
G1 X34.19999999999999 Y49.2 Z0.6 E0.031929729644297196 F1200
G1 X65.80000000000001 Y49.2 Z0.6 E0.6306121604748722 F1200
G1 X65.80000000000001 Y50.8 Z0.6 E0.031929729644297196 F1200
G1 X65.40000000000002 Y50.4 Z0.6 E0.011288864176467737 F1200
G1 X34.59999999999999 Y50.4 Z0.6 E0.6146472956527239 F1200
G1 X34.59999999999999 Y49.6 Z0.6 E0.015964864822148598 F1200
G1 X65.40000000000002 Y49.6 Z0.6 E0.6146472956527239 F1200
G1 X65.40000000000002 Y50.4 Z0.6 E0.015964864822148598 F1200
G1 E8
G1 E-8
G1 X30.2 Y54.8 Z0.72 E0.7902608086963582 F1200
G1 X30.2 Y45.2 Z0.72 E0.19157837786578374 F1200
G1 X69.8 Y45.2 Z0.72 E0.7902608086963582 F1200
G1 X69.8 Y54.8 Z0.72 E0.19157837786578374 F1200
G1 X69.4 Y54.4 Z0.72 E0.011288864176467737 F1200
G1 X30.599999999999998 Y54.4 Z0.72 E0.77429594387421 F1200
G1 X30.599999999999998 Y45.6 Z0.72 E0.17561351304363515 F1200
G1 X69.4 Y45.6 Z0.72 E0.77429594387421 F1200
G1 X69.4 Y54.4 Z0.72 E0.17561351304363515 F1200
G1 X69.0 Y54.0 Z0.72 E0.011288864176467937 F1200
G1 X30.999999999999996 Y54.0 Z0.72 E0.7583310790520611 F1200
G1 X30.999999999999996 Y46.0 Z0.72 E0.15964864822148656 F1200
G1 X69.0 Y46.0 Z0.72 E0.7583310790520611 F1200
G1 X69.0 Y54.0 Z0.72 E0.15964864822148656 F1200
G1 X68.60000000000001 Y53.6 Z0.72 E0.011288864176467737 F1200
G1 X31.399999999999995 Y53.6 Z0.72 E0.7423662142299128 F1200
G1 X31.399999999999995 Y46.4 Z0.72 E0.14368378339933793 F1200
G1 X68.60000000000001 Y46.4 Z0.72 E0.7423662142299128 F1200
G1 X68.60000000000001 Y53.6 Z0.72 E0.14368378339933793 F1200
G1 X68.2 Y53.2 Z0.72 E0.011288864176467937 F1200
G1 X31.799999999999994 Y53.2 Z0.72 E0.7264013494077639 F1200
G1 X31.799999999999994 Y46.8 Z0.72 E0.12771891857718934 F1200
G1 X68.2 Y46.8 Z0.72 E0.7264013494077639 F1200
G1 X68.2 Y53.2 Z0.72 E0.12771891857718934 F1200
G1 X67.80000000000001 Y52.8 Z0.72 E0.011288864176467838 F1200
G1 X32.19999999999999 Y52.8 Z0.72 E0.7104364845856155 F1200
G1 X32.19999999999999 Y47.2 Z0.72 E0.11175405375504048 F1200
G1 X67.80000000000001 Y47.2 Z0.72 E0.7104364845856155 F1200
G1 X67.80000000000001 Y52.8 Z0.72 E0.11175405375504048 F1200
G1 X67.4 Y52.4 Z0.72 E0.011288864176467937 F1200
G1 X32.599999999999994 Y52.4 Z0.72 E0.6944716197634667 F1200
G1 X32.599999999999994 Y47.6 Z0.72 E0.09578918893289187 F1200
G1 X67.4 Y47.6 Z0.72 E0.6944716197634667 F1200
G1 X67.4 Y52.4 Z0.72 E0.09578918893289187 F1200
G1 X67.00000000000001 Y52.0 Z0.72 E0.011288864176467737 F1200
G1 X32.999999999999986 Y52.0 Z0.72 E0.6785067549413184 F1200
G1 X32.999999999999986 Y48.0 Z0.72 E0.07982432411074328 F1200
G1 X67.00000000000001 Y48.0 Z0.72 E0.6785067549413184 F1200
G1 X67.00000000000001 Y52.0 Z0.72 E0.07982432411074328 F1200
G1 X66.60000000000001 Y51.6 Z0.72 E0.011288864176467937 F1200
G1 X33.39999999999999 Y51.6 Z0.72 E0.6625418901191695 F1200
G1 X33.39999999999999 Y48.4 Z0.72 E0.06385945928859467 F1200
G1 X66.60000000000001 Y48.4 Z0.72 E0.6625418901191695 F1200
G1 X66.60000000000001 Y51.6 Z0.72 E0.06385945928859467 F1200
G1 X66.20000000000002 Y51.2 Z0.72 E0.011288864176467737 F1200
G1 X33.79999999999998 Y51.2 Z0.72 E0.6465770252970212 F1200
