;FLAVOR:Marlin 
;Layer height: 0.12 
;Generated with Cura_SteamEngine 4.9.0 
M140 S55
M105 
M190 S55
M140 S65
M104 S205
M105 
M109 S205
M190 S65
M82 ;absolute extrusion mode 
; Ender 3 Custom Start G-code 
G92 E0 ; Reset Extruder 
G1 X0 Y0 Z10 F3000
G1 Z2.0 F3000 ; Move Z Axis up little to prevent scratching of Heat Bed 
G1 X0.1 Y20 Z0.3 F5000.0 ; Move to start position 
G1 X0.1 Y200.0 Z0.3 F1500.0 E15 ; Draw the first line 
G1 X0.4 Y200.0 Z0.3 F5000.0 ; Move to side a little 
G1 X0.4 Y20 Z0.3 F1500.0 E30 ; Draw the second line 
G92 E0 ; Reset Extruder 
G1 Z2.0 F3000 ; Move Z Axis up little to prevent scratching of Heat Bed 
G1 X5 Y20 Z0.3 F5000.0 ; Move over to prevent blob squish 
G92 E0 
G92 E0 
G1 F3000 E-8 
G0 X121.147005 Y110.0 Z0.12 F2400
G1 E0.0
G1 X104.426497 Y119.65359 Z0.12 E0.385296 F1200
G1 X104.426497 Y100.34641 Z0.12 E0.770592 F1200
G1 X121.147005 Y110.0 Z0.12 E1.155888 F1200
G0 X120.347005 Y110.0 Z0.12 F2400
G1 X104.826497 Y118.96077 Z0.12 E1.513532 F1200
G1 X104.826497 Y101.03923 Z0.12 E1.871176 F1200
G1 X120.347005 Y110.0 Z0.12 E2.22882 F1200
G0 X119.547005 Y110.0 Z0.12 F2400
G1 X105.226497 Y118.267949 Z0.12 E2.558812 F1200
G1 X105.226497 Y101.732051 Z0.12 E2.888804 F1200
G1 X119.547005 Y110.0 Z0.12 E3.218796 F1200
G0 X118.747005 Y110.0 Z0.12 F2400
G1 X105.626497 Y117.575129 Z0.12 E3.521136 F1200
G1 X105.626497 Y102.424871 Z0.12 E3.823476 F1200
G1 X118.747005 Y110.0 Z0.12 E4.125816 F1200
G0 X117.947005 Y110.0 Z0.12 F2400
G1 X106.026497 Y116.882309 Z0.12 E4.400504 F1200
G1 X106.026497 Y103.117691 Z0.12 E4.675192 F1200
G1 X117.947005 Y110.0 Z0.12 E4.94988 F1200
G0 X117.147005 Y110.0 Z0.12 F2400
G1 X106.426497 Y116.189488 Z0.12 E5.196916 F1200
G1 X106.426497 Y103.810512 Z0.12 E5.443952 F1200
G1 X117.147005 Y110.0 Z0.12 E5.690988 F1200
G0 X116.347005 Y110.0 Z0.12 F2400
G1 X106.826497 Y115.496668 Z0.12 E5.910372 F1200
G1 X106.826497 Y104.503332 Z0.12 E6.129756 F1200
G1 X116.347005 Y110.0 Z0.12 E6.34914 F1200
G0 X115.547005 Y110.0 Z0.12 F2400
G1 X107.226497 Y114.803848 Z0.12 E6.540872 F1200
G1 X107.226497 Y105.196152 Z0.12 E6.732604 F1200
G1 X115.547005 Y110.0 Z0.12 E6.924336 F1200
G0 X114.747005 Y110.0 Z0.12 F2400
G1 X107.626497 Y114.111027 Z0.12 E7.088416 F1200
G1 X107.626497 Y105.888973 Z0.12 E7.252496 F1200
G1 X114.747005 Y110.0 Z0.12 E7.416576 F1200
G0 X113.947005 Y110.0 Z0.12 F2400
G1 X108.026497 Y113.418207 Z0.12 E7.553004 F1200
G1 X108.026497 Y106.581793 Z0.12 E7.689432 F1200
G1 X113.947005 Y110.0 Z0.12 E7.82586 F1200
G0 X113.147005 Y110.0 Z0.12 F2400
G1 X108.426497 Y112.725387 Z0.12 E7.934636 F1200
G1 X108.426497 Y107.274613 Z0.12 E8.043412 F1200
G1 X113.147005 Y110.0 Z0.12 E8.152188 F1200
G0 X112.347005 Y110.0 Z0.12 F2400
G1 X108.826497 Y112.032566 Z0.12 E8.233312 F1200
G1 X108.826497 Y107.967434 Z0.12 E8.314436 F1200
G1 X112.347005 Y110.0 Z0.12 E8.39556 F1200
G0 X111.547005 Y110.0 Z0.12 F2400
G1 X109.226497 Y111.339746 Z0.12 E8.449032 F1200
G1 X109.226497 Y108.660254 Z0.12 E8.502504 F1200
G1 X111.547005 Y110.0 Z0.12 E8.555976 F1200
G0 X110.747005 Y110.0 Z0.12 F2400
G1 X109.626497 Y110.646926 Z0.12 E8.581796 F1200
G1 X109.626497 Y109.353074 Z0.12 E8.607616 F1200
G1 X110.747005 Y110.0 Z0.12 E8.633436 F1200
G1 E0.6334359999999997
M104 S200
M140 S60
G0 X121.147005 Y110.0 Z0.12 F4800
G0 X121.147005 Y110.0 Z0.24 F4800
G1 E8.633436
G1 X104.426497 Y119.65359 Z0.24 E9.018732 F2400
G1 X104.426497 Y100.34641 Z0.24 E9.404028 F2400
G1 X121.147005 Y110.0 Z0.24 E9.789324 F2400
G0 X120.347005 Y110.0 Z0.24 F4800
G1 X104.826497 Y118.96077 Z0.24 E10.146968 F2400
G1 X104.826497 Y101.03923 Z0.24 E10.504612 F2400
G1 X120.347005 Y110.0 Z0.24 E10.862256 F2400
G0 X119.547005 Y110.0 Z0.24 F4800
G1 X105.226497 Y118.267949 Z0.24 E11.192248 F2400
G1 X105.226497 Y101.732051 Z0.24 E11.52224 F2400
G1 X119.547005 Y110.0 Z0.24 E11.852232 F2400
G0 X118.747005 Y110.0 Z0.24 F4800
G1 X105.626497 Y117.575129 Z0.24 E12.154572 F2400
G1 X105.626497 Y102.424871 Z0.24 E12.456912 F2400
G1 X118.747005 Y110.0 Z0.24 E12.759252 F2400
G0 X117.947005 Y110.0 Z0.24 F4800
G1 X106.026497 Y116.882309 Z0.24 E13.03394 F2400
G1 X106.026497 Y103.117691 Z0.24 E13.308628 F2400
G1 X117.947005 Y110.0 Z0.24 E13.583316 F2400
G0 X117.147005 Y110.0 Z0.24 F4800
G1 X106.426497 Y116.189488 Z0.24 E13.830352 F2400
G1 X106.426497 Y103.810512 Z0.24 E14.077388 F2400
G1 X117.147005 Y110.0 Z0.24 E14.324424 F2400
G0 X116.347005 Y110.0 Z0.24 F4800
G1 X106.826497 Y115.496668 Z0.24 E14.543808 F2400
G1 X106.826497 Y104.503332 Z0.24 E14.763192 F2400
G1 X116.347005 Y110.0 Z0.24 E14.982576 F2400
G0 X115.547005 Y110.0 Z0.24 F4800
G1 X107.226497 Y114.803848 Z0.24 E15.174308 F2400
G1 X107.226497 Y105.196152 Z0.24 E15.36604 F2400
G1 X115.547005 Y110.0 Z0.24 E15.557772 F2400
G0 X114.747005 Y110.0 Z0.24 F4800
G1 X107.626497 Y114.111027 Z0.24 E15.721852 F2400
G1 X107.626497 Y105.888973 Z0.24 E15.885932 F2400
G1 X114.747005 Y110.0 Z0.24 E16.050012 F2400
G0 X113.947005 Y110.0 Z0.24 F4800
G1 X108.026497 Y113.418207 Z0.24 E16.18644 F2400
G1 X108.026497 Y106.581793 Z0.24 E16.322868 F2400
G1 X113.947005 Y110.0 Z0.24 E16.459296 F2400
G0 X113.147005 Y110.0 Z0.24 F4800
G1 X108.426497 Y112.725387 Z0.24 E16.568072 F2400
G1 X108.426497 Y107.274613 Z0.24 E16.676848 F2400
G1 X113.147005 Y110.0 Z0.24 E16.785624 F2400
G0 X112.347005 Y110.0 Z0.24 F4800
G1 X108.826497 Y112.032566 Z0.24 E16.866748 F2400
G1 X108.826497 Y107.967434 Z0.24 E16.947872 F2400
G1 X112.347005 Y110.0 Z0.24 E17.028996 F2400
G0 X111.547005 Y110.0 Z0.24 F4800
G1 X109.226497 Y111.339746 Z0.24 E17.082468 F2400
G1 X109.226497 Y108.660254 Z0.24 E17.13594 F2400
G1 X111.547005 Y110.0 Z0.24 E17.189412 F2400
G0 X110.747005 Y110.0 Z0.24 F4800
G1 X109.626497 Y110.646926 Z0.24 E17.215232 F2400
G1 X109.626497 Y109.353074 Z0.24 E17.241052 F2400
G1 X110.747005 Y110.0 Z0.24 E17.266872 F2400
G1 E9.266872
G0 X121.147005 Y110.0 Z0.24 F4800
G0 X121.147005 Y110.0 Z0.36 F4800
G1 E17.266872
G1 X104.426497 Y119.65359 Z0.36 E17.652168 F2400
G1 X104.426497 Y100.34641 Z0.36 E18.037464 F2400
G1 X121.147005 Y110.0 Z0.36 E18.42276 F2400
G0 X120.347005 Y110.0 Z0.36 F4800
G1 X104.826497 Y118.96077 Z0.36 E18.780404 F2400
G1 X104.826497 Y101.03923 Z0.36 E19.138048 F2400
G1 X120.347005 Y110.0 Z0.36 E19.495692 F2400
G0 X119.547005 Y110.0 Z0.36 F4800
G1 X105.226497 Y118.267949 Z0.36 E19.825684 F2400
G1 X105.226497 Y101.732051 Z0.36 E20.155676 F2400
G1 X119.547005 Y110.0 Z0.36 E20.485668 F2400
G0 X118.747005 Y110.0 Z0.36 F4800
G1 X105.626497 Y117.575129 Z0.36 E20.788008 F2400
G1 X105.626497 Y102.424871 Z0.36 E21.090348 F2400
G1 X118.747005 Y110.0 Z0.36 E21.392688 F2400
G0 X117.947005 Y110.0 Z0.36 F4800
G1 X106.026497 Y116.882309 Z0.36 E21.667376 F2400
G1 X106.026497 Y103.117691 Z0.36 E21.942064 F2400
G1 X117.947005 Y110.0 Z0.36 E22.216752 F2400
G0 X117.147005 Y110.0 Z0.36 F4800
G1 X106.426497 Y116.189488 Z0.36 E22.463788 F2400
G1 X106.426497 Y103.810512 Z0.36 E22.710824 F2400
G1 X117.147005 Y110.0 Z0.36 E22.95786 F2400
G0 X116.347005 Y110.0 Z0.36 F4800
G1 X106.826497 Y115.496668 Z0.36 E23.177244 F2400
G1 X106.826497 Y104.503332 Z0.36 E23.396628 F2400
G1 X116.347005 Y110.0 Z0.36 E23.616012 F2400
G0 X115.547005 Y110.0 Z0.36 F4800
G1 X107.226497 Y114.803848 Z0.36 E23.807744 F2400
G1 X107.226497 Y105.196152 Z0.36 E23.999476 F2400
G1 X115.547005 Y110.0 Z0.36 E24.191208 F2400
G0 X114.747005 Y110.0 Z0.36 F4800
G1 X107.626497 Y114.111027 Z0.36 E24.355288 F2400
G1 X107.626497 Y105.888973 Z0.36 E24.519368 F2400
G1 X114.747005 Y110.0 Z0.36 E24.683448 F2400
G0 X113.947005 Y110.0 Z0.36 F4800
G1 X108.026497 Y113.418207 Z0.36 E24.819876 F2400
G1 X108.026497 Y106.581793 Z0.36 E24.956304 F2400
G1 X113.947005 Y110.0 Z0.36 E25.092732 F2400
G0 X113.147005 Y110.0 Z0.36 F4800
G1 X108.426497 Y112.725387 Z0.36 E25.201508 F2400
G1 X108.426497 Y107.274613 Z0.36 E25.310284 F2400
G1 X113.147005 Y110.0 Z0.36 E25.41906 F2400
G0 X112.347005 Y110.0 Z0.36 F4800
G1 X108.826497 Y112.032566 Z0.36 E25.500184 F2400
G1 X108.826497 Y107.967434 Z0.36 E25.581308 F2400
G1 X112.347005 Y110.0 Z0.36 E25.662432 F2400
G0 X111.547005 Y110.0 Z0.36 F4800
G1 X109.226497 Y111.339746 Z0.36 E25.715904 F2400
G1 X109.226497 Y108.660254 Z0.36 E25.769376 F2400
G1 X111.547005 Y110.0 Z0.36 E25.822848 F2400
G0 X110.747005 Y110.0 Z0.36 F4800
G1 X109.626497 Y110.646926 Z0.36 E25.848668 F2400
G1 X109.626497 Y109.353074 Z0.36 E25.874488 F2400
G1 X110.747005 Y110.0 Z0.36 E25.900308 F2400
G1 E17.900308
G0 X121.147005 Y110.0 Z0.36 F4800
G0 X121.147005 Y110.0 Z0.48 F4800
G1 E25.900308
G1 X104.426497 Y119.65359 Z0.48 E26.285604 F2400
G1 X104.426497 Y100.34641 Z0.48 E26.6709 F2400
G1 X121.147005 Y110.0 Z0.48 E27.056196 F2400
G0 X120.347005 Y110.0 Z0.48 F4800
G1 X104.826497 Y118.96077 Z0.48 E27.41384 F2400
G1 X104.826497 Y101.03923 Z0.48 E27.771484 F2400
G1 X120.347005 Y110.0 Z0.48 E28.129128 F2400
G0 X119.547005 Y110.0 Z0.48 F4800
G1 X105.226497 Y118.267949 Z0.48 E28.45912 F2400
G1 X105.226497 Y101.732051 Z0.48 E28.789112 F2400
G1 X119.547005 Y110.0 Z0.48 E29.119104 F2400
G0 X118.747005 Y110.0 Z0.48 F4800
G1 X105.626497 Y117.575129 Z0.48 E29.421444 F2400
G1 X105.626497 Y102.424871 Z0.48 E29.723784 F2400
G1 X118.747005 Y110.0 Z0.48 E30.026124 F2400
G0 X117.947005 Y110.0 Z0.48 F4800
G1 X106.026497 Y116.882309 Z0.48 E30.300812 F2400
G1 X106.026497 Y103.117691 Z0.48 E30.5755 F2400
G1 X117.947005 Y110.0 Z0.48 E30.850188 F2400
G0 X117.147005 Y110.0 Z0.48 F4800
G1 X106.426497 Y116.189488 Z0.48 E31.097224 F2400
G1 X106.426497 Y103.810512 Z0.48 E31.34426 F2400
G1 X117.147005 Y110.0 Z0.48 E31.591296 F2400
G0 X116.347005 Y110.0 Z0.48 F4800
G1 X106.826497 Y115.496668 Z0.48 E31.81068 F2400
G1 X106.826497 Y104.503332 Z0.48 E32.030064 F2400
G1 X116.347005 Y110.0 Z0.48 E32.249448 F2400
G0 X115.547005 Y110.0 Z0.48 F4800
G1 X107.226497 Y114.803848 Z0.48 E32.44118 F2400
G1 X107.226497 Y105.196152 Z0.48 E32.632912 F2400
G1 X115.547005 Y110.0 Z0.48 E32.824644 F2400
G0 X114.747005 Y110.0 Z0.48 F4800
G1 X107.626497 Y114.111027 Z0.48 E32.988724 F2400
G1 X107.626497 Y105.888973 Z0.48 E33.152804 F2400
G1 X114.747005 Y110.0 Z0.48 E33.316884 F2400
G0 X113.947005 Y110.0 Z0.48 F4800
G1 X108.026497 Y113.418207 Z0.48 E33.453312 F2400
G1 X108.026497 Y106.581793 Z0.48 E33.58974 F2400
G1 X113.947005 Y110.0 Z0.48 E33.726168 F2400
G0 X113.147005 Y110.0 Z0.48 F4800
G1 X108.426497 Y112.725387 Z0.48 E33.834944 F2400
G1 X108.426497 Y107.274613 Z0.48 E33.94372 F2400
G1 X113.147005 Y110.0 Z0.48 E34.052496 F2400
G0 X112.347005 Y110.0 Z0.48 F4800
G1 X108.826497 Y112.032566 Z0.48 E34.13362 F2400
G1 X108.826497 Y107.967434 Z0.48 E34.214744 F2400
G1 X112.347005 Y110.0 Z0.48 E34.295868 F2400
G0 X111.547005 Y110.0 Z0.48 F4800
G1 X109.226497 Y111.339746 Z0.48 E34.34934 F2400
G1 X109.226497 Y108.660254 Z0.48 E34.402812 F2400
G1 X111.547005 Y110.0 Z0.48 E34.456284 F2400
G0 X110.747005 Y110.0 Z0.48 F4800
G1 X109.626497 Y110.646926 Z0.48 E34.482104 F2400
G1 X109.626497 Y109.353074 Z0.48 E34.507924 F2400
G1 X110.747005 Y110.0 Z0.48 E34.533744 F2400
G1 E26.533744
G0 X121.147005 Y110.0 Z0.48 F4800
G0 X121.147005 Y110.0 Z0.6 F4800
G1 E34.533744
G1 X104.426497 Y119.65359 Z0.6 E34.91904 F2400
G1 X104.426497 Y100.34641 Z0.6 E35.304336 F2400
G1 X121.147005 Y110.0 Z0.6 E35.689632 F2400
G0 X120.347005 Y110.0 Z0.6 F4800
G1 X104.826497 Y118.96077 Z0.6 E36.047276 F2400
G1 X104.826497 Y101.03923 Z0.6 E36.40492 F2400
G1 X120.347005 Y110.0 Z0.6 E36.762564 F2400
G0 X119.547005 Y110.0 Z0.6 F4800
G1 X105.226497 Y118.267949 Z0.6 E37.092556 F2400
G1 X105.226497 Y101.732051 Z0.6 E37.422548 F2400
G1 X119.547005 Y110.0 Z0.6 E37.75254 F2400
G0 X118.747005 Y110.0 Z0.6 F4800
G1 X105.626497 Y117.575129 Z0.6 E38.05488 F2400
G1 X105.626497 Y102.424871 Z0.6 E38.35722 F2400
G1 X118.747005 Y110.0 Z0.6 E38.65956 F2400
G0 X117.947005 Y110.0 Z0.6 F4800
G1 X106.026497 Y116.882309 Z0.6 E38.934248 F2400
G1 X106.026497 Y103.117691 Z0.6 E39.208936 F2400
G1 X117.947005 Y110.0 Z0.6 E39.483624 F2400
G0 X117.147005 Y110.0 Z0.6 F4800
G1 X106.426497 Y116.189488 Z0.6 E39.73066 F2400
G1 X106.426497 Y103.810512 Z0.6 E39.977696 F2400
G1 X117.147005 Y110.0 Z0.6 E40.224732 F2400
G0 X116.347005 Y110.0 Z0.6 F4800
G1 X106.826497 Y115.496668 Z0.6 E40.444116 F2400
G1 X106.826497 Y104.503332 Z0.6 E40.6635 F2400
G1 X116.347005 Y110.0 Z0.6 E40.882884 F2400
G0 X115.547005 Y110.0 Z0.6 F4800
G1 X107.226497 Y114.803848 Z0.6 E41.074616 F2400
G1 X107.226497 Y105.196152 Z0.6 E41.266348 F2400
G1 X115.547005 Y110.0 Z0.6 E41.45808 F2400
G0 X114.747005 Y110.0 Z0.6 F4800
G1 X107.626497 Y114.111027 Z0.6 E41.62216 F2400
G1 X107.626497 Y105.888973 Z0.6 E41.78624 F2400
G1 X114.747005 Y110.0 Z0.6 E41.95032 F2400
G0 X113.947005 Y110.0 Z0.6 F4800
G1 X108.026497 Y113.418207 Z0.6 E42.086748 F2400
G1 X108.026497 Y106.581793 Z0.6 E42.223176 F2400
G1 X113.947005 Y110.0 Z0.6 E42.359604 F2400
G0 X113.147005 Y110.0 Z0.6 F4800
G1 X108.426497 Y112.725387 Z0.6 E42.46838 F2400
G1 X108.426497 Y107.274613 Z0.6 E42.577156 F2400
G1 X113.147005 Y110.0 Z0.6 E42.685932 F2400
G0 X112.347005 Y110.0 Z0.6 F4800
G1 X108.826497 Y112.032566 Z0.6 E42.767056 F2400
G1 X108.826497 Y107.967434 Z0.6 E42.84818 F2400
G1 X112.347005 Y110.0 Z0.6 E42.929304 F2400
G0 X111.547005 Y110.0 Z0.6 F4800
G1 X109.226497 Y111.339746 Z0.6 E42.982776 F2400
G1 X109.226497 Y108.660254 Z0.6 E43.036248 F2400
G1 X111.547005 Y110.0 Z0.6 E43.08972 F2400
G0 X110.747005 Y110.0 Z0.6 F4800
G1 X109.626497 Y110.646926 Z0.6 E43.11554 F2400
G1 X109.626497 Y109.353074 Z0.6 E43.14136 F2400
G1 X110.747005 Y110.0 Z0.6 E43.16718 F2400
G1 E35.16718
G0 X121.147005 Y110.0 Z0.6 F4800
G0 X121.147005 Y110.0 Z0.72 F4800
G1 E43.16718
G1 X104.426497 Y119.65359 Z0.72 E43.552476 F2400
G1 X104.426497 Y100.34641 Z0.72 E43.937772 F2400
G1 X121.147005 Y110.0 Z0.72 E44.323068 F2400
G0 X120.347005 Y110.0 Z0.72 F4800
G1 X104.826497 Y118.96077 Z0.72 E44.680712 F2400
G1 X104.826497 Y101.03923 Z0.72 E45.038356 F2400
G1 X120.347005 Y110.0 Z0.72 E45.396 F2400
G0 X119.547005 Y110.0 Z0.72 F4800
G1 X105.226497 Y118.267949 Z0.72 E45.725992 F2400
G1 X105.226497 Y101.732051 Z0.72 E46.055984 F2400
G1 X119.547005 Y110.0 Z0.72 E46.385976 F2400
G0 X118.747005 Y110.0 Z0.72 F4800
G1 X105.626497 Y117.575129 Z0.72 E46.688316 F2400
G1 X105.626497 Y102.424871 Z0.72 E46.990656 F2400
G1 X118.747005 Y110.0 Z0.72 E47.292996 F2400
G0 X117.947005 Y110.0 Z0.72 F4800
G1 X106.026497 Y116.882309 Z0.72 E47.567684 F2400
G1 X106.026497 Y103.117691 Z0.72 E47.842372 F2400
G1 X117.947005 Y110.0 Z0.72 E48.11706 F2400
G0 X117.147005 Y110.0 Z0.72 F4800
G1 X106.426497 Y116.189488 Z0.72 E48.364096 F2400
G1 X106.426497 Y103.810512 Z0.72 E48.611132 F2400
G1 X117.147005 Y110.0 Z0.72 E48.858168 F2400
G0 X116.347005 Y110.0 Z0.72 F4800
G1 X106.826497 Y115.496668 Z0.72 E49.077552 F2400
G1 X106.826497 Y104.503332 Z0.72 E49.296936 F2400
G1 X116.347005 Y110.0 Z0.72 E49.51632 F2400
G0 X115.547005 Y110.0 Z0.72 F4800
G1 X107.226497 Y114.803848 Z0.72 E49.708052 F2400
G1 X107.226497 Y105.196152 Z0.72 E49.899784 F2400
G1 X115.547005 Y110.0 Z0.72 E50.091516 F2400
G0 X114.747005 Y110.0 Z0.72 F4800
G1 X107.626497 Y114.111027 Z0.72 E50.255596 F2400
G1 X107.626497 Y105.888973 Z0.72 E50.419676 F2400
G1 X114.747005 Y110.0 Z0.72 E50.583756 F2400
G0 X113.947005 Y110.0 Z0.72 F4800
G1 X108.026497 Y113.418207 Z0.72 E50.720184 F2400
G1 X108.026497 Y106.581793 Z0.72 E50.856612 F2400
G1 X113.947005 Y110.0 Z0.72 E50.99304 F2400
G0 X113.147005 Y110.0 Z0.72 F4800
G1 X108.426497 Y112.725387 Z0.72 E51.101816 F2400
G1 X108.426497 Y107.274613 Z0.72 E51.210592 F2400
G1 X113.147005 Y110.0 Z0.72 E51.319368 F2400
G0 X112.347005 Y110.0 Z0.72 F4800
G1 X108.826497 Y112.032566 Z0.72 E51.400492 F2400
G1 X108.826497 Y107.967434 Z0.72 E51.481616 F2400
G1 X112.347005 Y110.0 Z0.72 E51.56274 F2400
G0 X111.547005 Y110.0 Z0.72 F4800
G1 X109.226497 Y111.339746 Z0.72 E51.616212 F2400
G1 X109.226497 Y108.660254 Z0.72 E51.669684 F2400
G1 X111.547005 Y110.0 Z0.72 E51.723156 F2400
G0 X110.747005 Y110.0 Z0.72 F4800
G1 X109.626497 Y110.646926 Z0.72 E51.748976 F2400
G1 X109.626497 Y109.353074 Z0.72 E51.774796 F2400
G1 X110.747005 Y110.0 Z0.72 E51.800616 F2400
G1 E43.800616
G0 X121.147005 Y110.0 Z0.72 F4800
