;FLAVOR:Marlin 
;Layer height: 0.12 
;Generated with Cura_SteamEngine 4.9.0 
M140 S70
M105 
M190 S70
M104 S210
M105 
M109 S210
M83 ;relative extrusion mode 
; Ender 3 Custom Start G-code 
G92 E0 ; Reset Extruder 
G1 X0 Y0 Z10 F3000
G1 Z2.0 F3000 ; Move Z Axis up little to prevent scratching of Heat Bed 
G1 X0.1 Y20 Z0.3 F5000.0 ; Move to start position 
G1 X0.1 Y200.0 Z0.3 F1500.0 E15 ; Draw the first line 
G1 X0.4 Y200.0 Z0.3 F5000.0 ; Move to side a little 
G1 X0.4 Y20 Z0.3 F1500.0 E15 ; Draw the second line 
G92 E0 ; Reset Extruder 
G1 Z2.0 F3000 ; Move Z Axis up little to prevent scratching of Heat Bed 
G1 X5 Y20 Z0.3 F5000.0 ; Move over to prevent blob squish 
G92 E0 
G92 E0 
G1 F3000 E-8 
M104 S210
G0 X59.75 Y54.75 Z0.24 F1200
G1 E8
G1 X40.25 Y54.75 Z0.24 E0.9728589500996835 F1200
G1 X40.25 Y45.25 Z0.24 E0.4739569244075381 F1200
G1 X59.75 Y45.25 Z0.24 E0.9728589500996835 F1200
G1 X59.75 Y54.75 Z0.24 E0.4739569244075381 F1200
G1 X59.25 Y54.25 Z0.24 E0.03527770055146212 F1200
G1 X40.75 Y54.25 Z0.24 E0.922968747530469 F1200
G1 X40.75 Y45.75 Z0.24 E0.4240667218383236 F1200
G1 X59.25 Y45.75 Z0.24 E0.922968747530469 F1200
G1 X59.25 Y54.25 Z0.24 E0.4240667218383236 F1200
G1 X58.75 Y53.75 Z0.24 E0.03527770055146212 F1200
G1 X41.25 Y53.75 Z0.24 E0.8730785449612546 F1200
G1 X41.25 Y46.25 Z0.24 E0.37417651926910905 F1200
G1 X58.75 Y46.25 Z0.24 E0.8730785449612546 F1200
G1 X58.75 Y53.75 Z0.24 E0.37417651926910905 F1200
G1 X58.25 Y53.25 Z0.24 E0.03527770055146212 F1200
G1 X41.75 Y53.25 Z0.24 E0.82318834239204 F1200
G1 X41.75 Y46.75 Z0.24 E0.32428631669989455 F1200
G1 X58.25 Y46.75 Z0.24 E0.82318834239204 F1200
G1 X58.25 Y53.25 Z0.24 E0.32428631669989455 F1200
G1 X57.75 Y52.75 Z0.24 E0.03527770055146212 F1200
G1 X42.25 Y52.75 Z0.24 E0.7732981398228254 F1200
G1 X42.25 Y47.25 Z0.24 E0.27439611413067994 F1200
G1 X57.75 Y47.25 Z0.24 E0.7732981398228254 F1200
G1 X57.75 Y52.75 Z0.24 E0.27439611413067994 F1200
G1 X57.25 Y52.25 Z0.24 E0.03527770055146212 F1200
G1 X42.75 Y52.25 Z0.24 E0.7234079372536109 F1200
G1 X42.75 Y47.75 Z0.24 E0.22450591156146546 F1200
G1 X57.25 Y47.75 Z0.24 E0.7234079372536109 F1200
G1 X57.25 Y52.25 Z0.24 E0.22450591156146546 F1200
G1 X56.75 Y51.75 Z0.24 E0.03527770055146212 F1200
G1 X43.25 Y51.75 Z0.24 E0.6735177346843962 F1200
G1 X43.25 Y48.25 Z0.24 E0.1746157089922509 F1200
G1 X56.75 Y48.25 Z0.24 E0.6735177346843962 F1200
G1 X56.75 Y51.75 Z0.24 E0.1746157089922509 F1200
G1 X56.25 Y51.25 Z0.24 E0.03527770055146212 F1200
G1 X43.75 Y51.25 Z0.24 E0.6236275321151817 F1200
G1 X43.75 Y48.75 Z0.24 E0.12472550642303636 F1200
G1 X56.25 Y48.75 Z0.24 E0.6236275321151817 F1200
G1 X56.25 Y51.25 Z0.24 E0.12472550642303636 F1200
G1 X55.75 Y50.75 Z0.24 E0.03527770055146212 F1200
G1 X44.25 Y50.75 Z0.24 E0.5737373295459672 F1200
G1 X44.25 Y49.25 Z0.24 E0.07483530385382181 F1200
G1 X55.75 Y49.25 Z0.24 E0.5737373295459672 F1200
G1 X55.75 Y50.75 Z0.24 E0.07483530385382181 F1200
G1 X55.25 Y50.25 Z0.24 E0.03527770055146212 F1200
G1 X44.75 Y50.25 Z0.24 E0.5238471269767527 F1200
G1 X44.75 Y49.75 Z0.24 E0.02494510128460727 F1200
G1 X55.25 Y49.75 Z0.24 E0.5238471269767527 F1200
G1 X55.25 Y50.25 Z0.24 E0.02494510128460727 F1200
G1 E-8
M104 S205
G0 X59.8 Y54.8 Z0.36 F1200
G1 E8
G0 X59.8 Y54.8 Z0.24 F1200
G0 X59.8 Y54.8 Z0.36 F1200
G1 E8
G1 X40.2 Y54.8 Z0.36 E0.3911391881426419 F1200
G1 X40.2 Y45.2 Z0.36 E0.19157837786578374 F1200
G1 X59.8 Y45.2 Z0.36 E0.3911391881426419 F1200
G1 X59.8 Y54.8 Z0.36 E0.19157837786578374 F1200
G1 X59.4 Y54.4 Z0.36 E0.011288864176467838 F1200
G1 X40.6 Y54.4 Z0.36 E0.37517432332049333 F1200
G1 X40.6 Y45.6 Z0.36 E0.17561351304363515 F1200
G1 X59.4 Y45.6 Z0.36 E0.37517432332049333 F1200
G1 X59.4 Y54.4 Z0.36 E0.17561351304363515 F1200
G1 X59.0 Y54.0 Z0.36 E0.011288864176467838 F1200
G1 X41.0 Y54.0 Z0.36 E0.3592094584983447 F1200
G1 X41.0 Y46.0 Z0.36 E0.15964864822148656 F1200
G1 X59.0 Y46.0 Z0.36 E0.3592094584983447 F1200
G1 X59.0 Y54.0 Z0.36 E0.15964864822148656 F1200
G1 X58.6 Y53.6 Z0.36 E0.011288864176467838 F1200
G1 X41.4 Y53.6 Z0.36 E0.34324459367619614 F1200
G1 X41.4 Y46.4 Z0.36 E0.14368378339933793 F1200
G1 X58.6 Y46.4 Z0.36 E0.34324459367619614 F1200
G1 X58.6 Y53.6 Z0.36 E0.14368378339933793 F1200
G1 X58.2 Y53.2 Z0.36 E0.011288864176467838 F1200
G1 X41.8 Y53.2 Z0.36 E0.3272797288540475 F1200
G1 X41.8 Y46.8 Z0.36 E0.12771891857718934 F1200
G1 X58.2 Y46.8 Z0.36 E0.3272797288540475 F1200
G1 X58.2 Y53.2 Z0.36 E0.12771891857718934 F1200
G1 X57.8 Y52.8 Z0.36 E0.011288864176468039 F1200
G1 X42.2 Y52.8 Z0.36 E0.3113148640318987 F1200
G1 X42.2 Y47.2 Z0.36 E0.11175405375504048 F1200
G1 X57.8 Y47.2 Z0.36 E0.3113148640318987 F1200
G1 X57.8 Y52.8 Z0.36 E0.11175405375504048 F1200
G1 X57.4 Y52.4 Z0.36 E0.011288864176467838 F1200
G1 X42.6 Y52.4 Z0.36 E0.29534999920975 F1200
G1 X42.6 Y47.6 Z0.36 E0.09578918893289187 F1200
G1 X57.4 Y47.6 Z0.36 E0.29534999920975 F1200
G1 X57.4 Y52.4 Z0.36 E0.09578918893289187 F1200
G1 X57.0 Y52.0 Z0.36 E0.011288864176467838 F1200
G1 X43.0 Y52.0 Z0.36 E0.2793851343876015 F1200
G1 X43.0 Y48.0 Z0.36 E0.07982432411074328 F1200
G1 X57.0 Y48.0 Z0.36 E0.2793851343876015 F1200
G1 X57.0 Y52.0 Z0.36 E0.07982432411074328 F1200
G1 X56.599999999999994 Y51.6 Z0.36 E0.011288864176467937 F1200
G1 X43.400000000000006 Y51.6 Z0.36 E0.26342026956545256 F1200
G1 X43.400000000000006 Y48.4 Z0.36 E0.06385945928859467 F1200
G1 X56.599999999999994 Y48.4 Z0.36 E0.26342026956545256 F1200
G1 X56.599999999999994 Y51.6 Z0.36 E0.06385945928859467 F1200
G1 X56.199999999999996 Y51.2 Z0.36 E0.011288864176467838 F1200
G1 X43.800000000000004 Y51.2 Z0.36 E0.24745540474330396 F1200
G1 X43.800000000000004 Y48.8 Z0.36 E0.047894594466446075 F1200
G1 X56.199999999999996 Y48.8 Z0.36 E0.24745540474330396 F1200
G1 X56.199999999999996 Y51.2 Z0.36 E0.047894594466446075 F1200
G1 X55.8 Y50.8 Z0.36 E0.011288864176467937 F1200
G1 X44.2 Y50.8 Z0.36 E0.23149053992115537 F1200
G1 X44.2 Y49.2 Z0.36 E0.031929729644297196 F1200
G1 X55.8 Y49.2 Z0.36 E0.23149053992115537 F1200
G1 X55.8 Y50.8 Z0.36 E0.031929729644297196 F1200
G1 X55.4 Y50.4 Z0.36 E0.011288864176467838 F1200
G1 X44.6 Y50.4 Z0.36 E0.21552567509900677 F1200
G1 X44.6 Y49.6 Z0.36 E0.015964864822148598 F1200
G1 X55.4 Y49.6 Z0.36 E0.21552567509900677 F1200
G1 X55.4 Y50.4 Z0.36 E0.015964864822148598 F1200
G1 E-8
G0 X59.8 Y54.8 Z0.36 F1200
G0 X59.8 Y54.8 Z0.48 F1200
G1 E8
G1 X40.2 Y54.8 Z0.48 E0.3911391881426419 F1200
G1 X40.2 Y45.2 Z0.48 E0.19157837786578374 F1200
G1 X59.8 Y45.2 Z0.48 E0.3911391881426419 F1200
G1 X59.8 Y54.8 Z0.48 E0.19157837786578374 F1200
G1 X59.4 Y54.4 Z0.48 E0.011288864176467838 F1200
G1 X40.6 Y54.4 Z0.48 E0.37517432332049333 F1200
G1 X40.6 Y45.6 Z0.48 E0.17561351304363515 F1200
G1 X59.4 Y45.6 Z0.48 E0.37517432332049333 F1200
G1 X59.4 Y54.4 Z0.48 E0.17561351304363515 F1200
G1 X59.0 Y54.0 Z0.48 E0.011288864176467838 F1200
G1 X41.0 Y54.0 Z0.48 E0.3592094584983447 F1200
G1 X41.0 Y46.0 Z0.48 E0.15964864822148656 F1200
G1 X59.0 Y46.0 Z0.48 E0.3592094584983447 F1200
G1 X59.0 Y54.0 Z0.48 E0.15964864822148656 F1200
G1 X58.6 Y53.6 Z0.48 E0.011288864176467838 F1200
G1 X41.4 Y53.6 Z0.48 E0.34324459367619614 F1200
G1 X41.4 Y46.4 Z0.48 E0.14368378339933793 F1200
G1 X58.6 Y46.4 Z0.48 E0.34324459367619614 F1200
G1 X58.6 Y53.6 Z0.48 E0.14368378339933793 F1200
G1 X58.2 Y53.2 Z0.48 E0.011288864176467838 F1200
G1 X41.8 Y53.2 Z0.48 E0.3272797288540475 F1200
G1 X41.8 Y46.8 Z0.48 E0.12771891857718934 F1200
G1 X58.2 Y46.8 Z0.48 E0.3272797288540475 F1200
G1 X58.2 Y53.2 Z0.48 E0.12771891857718934 F1200
G1 X57.8 Y52.8 Z0.48 E0.011288864176468039 F1200
G1 X42.2 Y52.8 Z0.48 E0.3113148640318987 F1200
G1 X42.2 Y47.2 Z0.48 E0.11175405375504048 F1200
G1 X57.8 Y47.2 Z0.48 E0.3113148640318987 F1200
G1 X57.8 Y52.8 Z0.48 E0.11175405375504048 F1200
G1 X57.4 Y52.4 Z0.48 E0.011288864176467838 F1200
G1 X42.6 Y52.4 Z0.48 E0.29534999920975 F1200
G1 X42.6 Y47.6 Z0.48 E0.09578918893289187 F1200
G1 X57.4 Y47.6 Z0.48 E0.29534999920975 F1200
G1 X57.4 Y52.4 Z0.48 E0.09578918893289187 F1200
G1 X57.0 Y52.0 Z0.48 E0.011288864176467838 F1200
G1 X43.0 Y52.0 Z0.48 E0.2793851343876015 F1200
G1 X43.0 Y48.0 Z0.48 E0.07982432411074328 F1200
G1 X57.0 Y48.0 Z0.48 E0.2793851343876015 F1200
G1 X57.0 Y52.0 Z0.48 E0.07982432411074328 F1200
G1 X56.599999999999994 Y51.6 Z0.48 E0.011288864176467937 F1200
G1 X43.400000000000006 Y51.6 Z0.48 E0.26342026956545256 F1200
G1 X43.400000000000006 Y48.4 Z0.48 E0.06385945928859467 F1200
G1 X56.599999999999994 Y48.4 Z0.48 E0.26342026956545256 F1200
G1 X56.599999999999994 Y51.6 Z0.48 E0.06385945928859467 F1200
G1 X56.199999999999996 Y51.2 Z0.48 E0.011288864176467838 F1200
G1 X43.800000000000004 Y51.2 Z0.48 E0.24745540474330396 F1200
G1 X43.800000000000004 Y48.8 Z0.48 E0.047894594466446075 F1200
G1 X56.199999999999996 Y48.8 Z0.48 E0.24745540474330396 F1200
G1 X56.199999999999996 Y51.2 Z0.48 E0.047894594466446075 F1200
G1 X55.8 Y50.8 Z0.48 E0.011288864176467937 F1200
G1 X44.2 Y50.8 Z0.48 E0.23149053992115537 F1200
G1 X44.2 Y49.2 Z0.48 E0.031929729644297196 F1200
G1 X55.8 Y49.2 Z0.48 E0.23149053992115537 F1200
G1 X55.8 Y50.8 Z0.48 E0.031929729644297196 F1200
G1 X55.4 Y50.4 Z0.48 E0.011288864176467838 F1200
G1 X44.6 Y50.4 Z0.48 E0.21552567509900677 F1200
G1 X44.6 Y49.6 Z0.48 E0.015964864822148598 F1200
G1 X55.4 Y49.6 Z0.48 E0.21552567509900677 F1200
G1 X55.4 Y50.4 Z0.48 E0.015964864822148598 F1200
G1 E-8
G0 X59.8 Y54.8 Z0.48 F1200
G0 X59.8 Y54.8 Z0.6 F1200
G1 E8
G1 X40.2 Y54.8 Z0.6 E0.3911391881426419 F1200
G1 X40.2 Y45.2 Z0.6 E0.19157837786578374 F1200
G1 X59.8 Y45.2 Z0.6 E0.3911391881426419 F1200
G1 X59.8 Y54.8 Z0.6 E0.19157837786578374 F1200
G1 X59.4 Y54.4 Z0.6 E0.011288864176467838 F1200
G1 X40.6 Y54.4 Z0.6 E0.37517432332049333 F1200
G1 X40.6 Y45.6 Z0.6 E0.17561351304363515 F1200
G1 X59.4 Y45.6 Z0.6 E0.37517432332049333 F1200
G1 X59.4 Y54.4 Z0.6 E0.17561351304363515 F1200
G1 X59.0 Y54.0 Z0.6 E0.011288864176467838 F1200
G1 X41.0 Y54.0 Z0.6 E0.3592094584983447 F1200
G1 X41.0 Y46.0 Z0.6 E0.15964864822148656 F1200
G1 X59.0 Y46.0 Z0.6 E0.3592094584983447 F1200
G1 X59.0 Y54.0 Z0.6 E0.15964864822148656 F1200
G1 X58.6 Y53.6 Z0.6 E0.011288864176467838 F1200
G1 X41.4 Y53.6 Z0.6 E0.34324459367619614 F1200
G1 X41.4 Y46.4 Z0.6 E0.14368378339933793 F1200
G1 X58.6 Y46.4 Z0.6 E0.34324459367619614 F1200
G1 X58.6 Y53.6 Z0.6 E0.14368378339933793 F1200
G1 X58.2 Y53.2 Z0.6 E0.011288864176467838 F1200
G1 X41.8 Y53.2 Z0.6 E0.3272797288540475 F1200
G1 X41.8 Y46.8 Z0.6 E0.12771891857718934 F1200
G1 X58.2 Y46.8 Z0.6 E0.3272797288540475 F1200
G1 X58.2 Y53.2 Z0.6 E0.12771891857718934 F1200
G1 X57.8 Y52.8 Z0.6 E0.011288864176468039 F1200
G1 X42.2 Y52.8 Z0.6 E0.3113148640318987 F1200
G1 X42.2 Y47.2 Z0.6 E0.11175405375504048 F1200
G1 X57.8 Y47.2 Z0.6 E0.3113148640318987 F1200
G1 X57.8 Y52.8 Z0.6 E0.11175405375504048 F1200
G1 X57.4 Y52.4 Z0.6 E0.011288864176467838 F1200
G1 X42.6 Y52.4 Z0.6 E0.29534999920975 F1200
G1 X42.6 Y47.6 Z0.6 E0.09578918893289187 F1200
G1 X57.4 Y47.6 Z0.6 E0.29534999920975 F1200
G1 X57.4 Y52.4 Z0.6 E0.09578918893289187 F1200
G1 X57.0 Y52.0 Z0.6 E0.011288864176467838 F1200
G1 X43.0 Y52.0 Z0.6 E0.2793851343876015 F1200
G1 X43.0 Y48.0 Z0.6 E0.07982432411074328 F1200
G1 X57.0 Y48.0 Z0.6 E0.2793851343876015 F1200
G1 X57.0 Y52.0 Z0.6 E0.07982432411074328 F1200
G1 X56.599999999999994 Y51.6 Z0.6 E0.011288864176467937 F1200
G1 X43.400000000000006 Y51.6 Z0.6 E0.26342026956545256 F1200
G1 X43.400000000000006 Y48.4 Z0.6 E0.06385945928859467 F1200
G1 X56.599999999999994 Y48.4 Z0.6 E0.26342026956545256 F1200
G1 X56.599999999999994 Y51.6 Z0.6 E0.06385945928859467 F1200
G1 X56.199999999999996 Y51.2 Z0.6 E0.011288864176467838 F1200
G1 X43.800000000000004 Y51.2 Z0.6 E0.24745540474330396 F1200
G1 X43.800000000000004 Y48.8 Z0.6 E0.047894594466446075 F1200
G1 X56.199999999999996 Y48.8 Z0.6 E0.24745540474330396 F1200
G1 X56.199999999999996 Y51.2 Z0.6 E0.047894594466446075 F1200
G1 X55.8 Y50.8 Z0.6 E0.011288864176467937 F1200
G1 X44.2 Y50.8 Z0.6 E0.23149053992115537 F1200
G1 X44.2 Y49.2 Z0.6 E0.031929729644297196 F1200
G1 X55.8 Y49.2 Z0.6 E0.23149053992115537 F1200
G1 X55.8 Y50.8 Z0.6 E0.031929729644297196 F1200
G1 X55.4 Y50.4 Z0.6 E0.011288864176467838 F1200
G1 X44.6 Y50.4 Z0.6 E0.21552567509900677 F1200
G1 X44.6 Y49.6 Z0.6 E0.015964864822148598 F1200
G1 X55.4 Y49.6 Z0.6 E0.21552567509900677 F1200
G1 X55.4 Y50.4 Z0.6 E0.015964864822148598 F1200
G1 E-8
G0 X59.8 Y54.8 Z0.6 F1200
G0 X59.8 Y54.8 Z0.72 F1200
G1 E8
G1 X40.2 Y54.8 Z0.72 E0.3911391881426419 F1200
G1 X40.2 Y45.2 Z0.72 E0.19157837786578374 F1200
G1 X59.8 Y45.2 Z0.72 E0.3911391881426419 F1200
G1 X59.8 Y54.8 Z0.72 E0.19157837786578374 F1200
G1 X59.4 Y54.4 Z0.72 E0.011288864176467838 F1200
G1 X40.6 Y54.4 Z0.72 E0.37517432332049333 F1200
G1 X40.6 Y45.6 Z0.72 E0.17561351304363515 F1200
G1 X59.4 Y45.6 Z0.72 E0.37517432332049333 F1200
G1 X59.4 Y54.4 Z0.72 E0.17561351304363515 F1200
G1 X59.0 Y54.0 Z0.72 E0.011288864176467838 F1200
G1 X41.0 Y54.0 Z0.72 E0.3592094584983447 F1200
G1 X41.0 Y46.0 Z0.72 E0.15964864822148656 F1200
G1 X59.0 Y46.0 Z0.72 E0.3592094584983447 F1200
G1 X59.0 Y54.0 Z0.72 E0.15964864822148656 F1200
G1 X58.6 Y53.6 Z0.72 E0.011288864176467838 F1200
G1 X41.4 Y53.6 Z0.72 E0.34324459367619614 F1200
G1 X41.4 Y46.4 Z0.72 E0.14368378339933793 F1200
G1 X58.6 Y46.4 Z0.72 E0.34324459367619614 F1200
G1 X58.6 Y53.6 Z0.72 E0.14368378339933793 F1200
G1 X58.2 Y53.2 Z0.72 E0.011288864176467838 F1200
G1 X41.8 Y53.2 Z0.72 E0.3272797288540475 F1200
G1 X41.8 Y46.8 Z0.72 E0.12771891857718934 F1200
G1 X58.2 Y46.8 Z0.72 E0.3272797288540475 F1200
G1 X58.2 Y53.2 Z0.72 E0.12771891857718934 F1200
G1 X57.8 Y52.8 Z0.72 E0.011288864176468039 F1200
G1 X42.2 Y52.8 Z0.72 E0.3113148640318987 F1200
G1 X42.2 Y47.2 Z0.72 E0.11175405375504048 F1200
G1 X57.8 Y47.2 Z0.72 E0.3113148640318987 F1200
G1 X57.8 Y52.8 Z0.72 E0.11175405375504048 F1200
G1 X57.4 Y52.4 Z0.72 E0.011288864176467838 F1200
G1 X42.6 Y52.4 Z0.72 E0.29534999920975 F1200
G1 X42.6 Y47.6 Z0.72 E0.09578918893289187 F1200
G1 X57.4 Y47.6 Z0.72 E0.29534999920975 F1200
G1 X57.4 Y52.4 Z0.72 E0.09578918893289187 F1200
G1 X57.0 Y52.0 Z0.72 E0.011288864176467838 F1200
G1 X43.0 Y52.0 Z0.72 E0.2793851343876015 F1200
G1 X43.0 Y48.0 Z0.72 E0.07982432411074328 F1200
G1 X57.0 Y48.0 Z0.72 E0.2793851343876015 F1200
G1 X57.0 Y52.0 Z0.72 E0.07982432411074328 F1200
G1 X56.599999999999994 Y51.6 Z0.72 E0.011288864176467937 F1200
G1 X43.400000000000006 Y51.6 Z0.72 E0.26342026956545256 F1200
G1 X43.400000000000006 Y48.4 Z0.72 E0.06385945928859467 F1200
G1 X56.599999999999994 Y48.4 Z0.72 E0.26342026956545256 F1200
G1 X56.599999999999994 Y51.6 Z0.72 E0.06385945928859467 F1200
G1 X56.199999999999996 Y51.2 Z0.72 E0.011288864176467838 F1200
G1 X43.800000000000004 Y51.2 Z0.72 E0.24745540474330396 F1200
G1 X43.800000000000004 Y48.8 Z0.72 E0.047894594466446075 F1200
G1 X56.199999999999996 Y48.8 Z0.72 E0.24745540474330396 F1200
G1 X56.199999999999996 Y51.2 Z0.72 E0.047894594466446075 F1200
G1 X55.8 Y50.8 Z0.72 E0.011288864176467937 F1200
G1 X44.2 Y50.8 Z0.72 E0.23149053992115537 F1200
G1 X44.2 Y49.2 Z0.72 E0.031929729644297196 F1200
G1 X55.8 Y49.2 Z0.72 E0.23149053992115537 F1200
G1 X55.8 Y50.8 Z0.72 E0.031929729644297196 F1200
G1 X55.4 Y50.4 Z0.72 E0.011288864176467838 F1200
G1 X44.6 Y50.4 Z0.72 E0.21552567509900677 F1200
G1 X44.6 Y49.6 Z0.72 E0.015964864822148598 F1200
G1 X55.4 Y49.6 Z0.72 E0.21552567509900677 F1200
G1 X55.4 Y50.4 Z0.72 E0.015964864822148598 F1200
G1 E-8
G0 X59.8 Y54.8 Z0.72 F1200
G0 X59.8 Y54.8 Z0.84 F1200
G1 E8
G1 X40.2 Y54.8 Z0.84 E0.3911391881426419 F1200
G1 X40.2 Y45.2 Z0.84 E0.19157837786578374 F1200
G1 X59.8 Y45.2 Z0.84 E0.3911391881426419 F1200
G1 X59.8 Y54.8 Z0.84 E0.19157837786578374 F1200
G1 X59.4 Y54.4 Z0.84 E0.011288864176467838 F1200
G1 X40.6 Y54.4 Z0.84 E0.37517432332049333 F1200
G1 X40.6 Y45.6 Z0.84 E0.17561351304363515 F1200
G1 X59.4 Y45.6 Z0.84 E0.37517432332049333 F1200
G1 X59.4 Y54.4 Z0.84 E0.17561351304363515 F1200
G1 X59.0 Y54.0 Z0.84 E0.011288864176467838 F1200
G1 X41.0 Y54.0 Z0.84 E0.3592094584983447 F1200
G1 X41.0 Y46.0 Z0.84 E0.15964864822148656 F1200
G1 X59.0 Y46.0 Z0.84 E0.3592094584983447 F1200
