;FLAVOR:Marlin 
;Layer height: 0.12 
;Generated with Cura_SteamEngine 4.9.0 
M140 S70
M105 
M190 S70
M104 S210
M105 
M109 S210
M83 ;relative extrusion mode 
; Ender 3 Custom Start G-code 
G92 E0 ; Reset Extruder 
G1 X0 Y0 Z10 F3000
G1 Z2.0 F3000 ; Move Z Axis up little to prevent scratching of Heat Bed 
G1 X0.1 Y20 Z0.3 F5000.0 ; Move to start position 
G1 X0.1 Y200.0 Z0.3 F1500.0 E15 ; Draw the first line 
G1 X0.4 Y200.0 Z0.3 F5000.0 ; Move to side a little 
G1 X0.4 Y20 Z0.3 F1500.0 E15 ; Draw the second line 
G92 E0 ; Reset Extruder 
G1 Z2.0 F3000 ; Move Z Axis up little to prevent scratching of Heat Bed 
G1 X5 Y20 Z0.3 F5000.0 ; Move over to prevent blob squish 
G92 E0 
G92 E0 
G1 F3000 E-8 
M104 S210
G0 X59.71132486540519 Y50.0 Z0.24 F1200
G1 E8
G1 X54.855662432702594 Y58.41025403784439 Z0.24 E0.48449996475051504 F1200
G1 X45.144337567297406 Y58.41025403784439 Z0.24 E0.48449996475051504 F1200
G1 X40.28867513459481 Y50.0 Z0.24 E0.48449996475051504 F1200
G1 X45.1443375672974 Y41.58974596215562 Z0.24 E0.4844999647505146 F1200
G1 X54.855662432702594 Y41.58974596215561 Z0.24 E0.4844999647505153 F1200
G1 X59.71132486540519 Y50.0 Z0.24 E0.48449996475051504 F1200
G1 X59.133974596215566 Y50.0 Z0.24 E0.02880412188326082 F1200
G1 X54.56698729810778 Y57.91025403784439 Z0.24 E0.4556958428672541 F1200
G1 X45.433012701892224 Y57.91025403784439 Z0.24 E0.45569584286725384 F1200
G1 X40.866025403784434 Y50.0 Z0.24 E0.4556958428672543 F1200
G1 X45.43301270189222 Y42.08974596215561 Z0.24 E0.4556958428672541 F1200
G1 X54.56698729810778 Y42.08974596215561 Z0.24 E0.45569584286725423 F1200
G1 X59.133974596215566 Y50.0 Z0.24 E0.4556958428672541 F1200
G1 X58.556624327025936 Y50.0 Z0.24 E0.02880412188326117 F1200
G1 X54.27831216351297 Y57.41025403784439 Z0.24 E0.426891720983993 F1200
G1 X45.721687836487035 Y57.41025403784439 Z0.24 E0.426891720983993 F1200
G1 X41.443375672974064 Y50.0 Z0.24 E0.4268917209839932 F1200
G1 X45.72168783648703 Y42.58974596215562 Z0.24 E0.4268917209839927 F1200
G1 X54.27831216351297 Y42.58974596215561 Z0.24 E0.42689172098399336 F1200
G1 X58.556624327025936 Y50.0 Z0.24 E0.426891720983993 F1200
G1 X57.97927405783631 Y50.0 Z0.24 E0.02880412188326117 F1200
G1 X53.98963702891815 Y56.91025403784439 Z0.24 E0.39808759910073205 F1200
G1 X46.01036297108185 Y56.91025403784439 Z0.24 E0.3980875991007318 F1200
G1 X42.02072594216369 Y50.0 Z0.24 E0.39808759910073205 F1200
G1 X46.01036297108184 Y43.08974596215562 Z0.24 E0.39808759910073155 F1200
G1 X53.98963702891815 Y43.08974596215561 Z0.24 E0.3980875991007322 F1200
G1 X57.97927405783631 Y50.0 Z0.24 E0.39808759910073205 F1200
G1 X57.401923788646684 Y50.0 Z0.24 E0.02880412188326082 F1200
G1 X53.70096189432334 Y56.41025403784439 Z0.24 E0.3692834772174711 F1200
G1 X46.29903810567666 Y56.41025403784439 Z0.24 E0.36928347721747107 F1200
G1 X42.598076211353316 Y50.0 Z0.24 E0.3692834772174711 F1200
G1 X46.29903810567666 Y43.58974596215562 Z0.24 E0.36928347721747085 F1200
G1 X53.70096189432334 Y43.58974596215561 Z0.24 E0.36928347721747107 F1200
G1 X57.401923788646684 Y50.0 Z0.24 E0.3692834772174711 F1200
G1 X56.82457351945706 Y50.0 Z0.24 E0.02880412188326082 F1200
G1 X53.41228675972853 Y55.91025403784438 Z0.24 E0.34047935533420987 F1200
G1 X46.58771324027147 Y55.91025403784439 Z0.24 E0.3404793553342102 F1200
G1 X43.17542648054294 Y50.0 Z0.24 E0.3404793553342102 F1200
G1 X46.58771324027147 Y44.08974596215562 Z0.24 E0.34047935533420987 F1200
G1 X53.41228675972853 Y44.08974596215562 Z0.24 E0.3404793553342102 F1200
G1 X56.82457351945706 Y50.0 Z0.24 E0.34047935533420987 F1200
G1 X56.24722325026743 Y50.0 Z0.24 E0.02880412188326117 F1200
G1 X53.12361162513372 Y55.41025403784438 Z0.24 E0.3116752334509488 F1200
G1 X46.87638837486629 Y55.41025403784439 Z0.24 E0.31167523345094905 F1200
G1 X43.75277674973257 Y50.0 Z0.24 E0.3116752334509493 F1200
G1 X46.87638837486628 Y44.58974596215562 Z0.24 E0.3116752334509488 F1200
G1 X53.12361162513372 Y44.58974596215562 Z0.24 E0.3116752334509494 F1200
G1 X56.24722325026743 Y50.0 Z0.24 E0.3116752334509488 F1200
G1 X55.6698729810778 Y50.0 Z0.24 E0.02880412188326117 F1200
G1 X52.8349364905389 Y54.91025403784438 Z0.24 E0.28287111156768785 F1200
G1 X47.1650635094611 Y54.91025403784438 Z0.24 E0.28287111156768785 F1200
G1 X44.3301270189222 Y50.0 Z0.24 E0.28287111156768785 F1200
G1 X47.16506350946109 Y45.08974596215562 Z0.24 E0.2828711115676877 F1200
G1 X52.8349364905389 Y45.08974596215562 Z0.24 E0.28287111156768824 F1200
G1 X55.6698729810778 Y50.0 Z0.24 E0.28287111156768785 F1200
G1 X55.09252271188818 Y50.0 Z0.24 E0.02880412188326082 F1200
G1 X52.54626135594409 Y54.41025403784438 Z0.24 E0.2540669896844269 F1200
G1 X47.45373864405591 Y54.41025403784438 Z0.24 E0.25406698968442704 F1200
G1 X44.90747728811182 Y50.0 Z0.24 E0.2540669896844269 F1200
G1 X47.45373864405591 Y45.58974596215562 Z0.24 E0.2540669896844269 F1200
G1 X52.54626135594409 Y45.58974596215562 Z0.24 E0.25406698968442704 F1200
G1 X55.09252271188818 Y50.0 Z0.24 E0.2540669896844269 F1200
G1 X54.51517244269856 Y50.0 Z0.24 E0.02880412188326082 F1200
G1 X52.25758622134928 Y53.91025403784438 Z0.24 E0.22526286780116597 F1200
G1 X47.74241377865072 Y53.91025403784438 Z0.24 E0.22526286780116622 F1200
G1 X45.48482755730144 Y50.0 Z0.24 E0.22526286780116597 F1200
G1 X47.74241377865072 Y46.08974596215562 Z0.24 E0.22526286780116597 F1200
G1 X52.25758622134928 Y46.08974596215562 Z0.24 E0.22526286780116622 F1200
G1 X54.51517244269856 Y50.0 Z0.24 E0.22526286780116597 F1200
G1 X53.93782217350893 Y50.0 Z0.24 E0.02880412188326117 F1200
G1 X51.96891108675447 Y53.41025403784438 Z0.24 E0.19645874591790485 F1200
G1 X48.03108891324554 Y53.41025403784438 Z0.24 E0.19645874591790505 F1200
G1 X46.06217782649107 Y50.0 Z0.24 E0.19645874591790502 F1200
G1 X48.03108891324553 Y46.58974596215562 Z0.24 E0.19645874591790485 F1200
G1 X51.96891108675447 Y46.58974596215562 Z0.24 E0.1964587459179054 F1200
G1 X53.93782217350893 Y50.0 Z0.24 E0.19645874591790485 F1200
G1 X53.360471904319304 Y50.0 Z0.24 E0.02880412188326082 F1200
G1 X51.68023595215965 Y52.91025403784438 Z0.24 E0.1676546240346441 F1200
G1 X48.31976404784035 Y52.91025403784438 Z0.24 E0.1676546240346439 F1200
G1 X46.639528095680696 Y50.0 Z0.24 E0.1676546240346441 F1200
G1 X48.319764047840344 Y47.08974596215562 Z0.24 E0.16765462403464393 F1200
G1 X51.68023595215965 Y47.08974596215562 Z0.24 E0.16765462403464423 F1200
G1 X53.360471904319304 Y50.0 Z0.24 E0.1676546240346441 F1200
G1 X52.783121635129675 Y50.0 Z0.24 E0.02880412188326117 F1200
G1 X51.39156081756484 Y52.41025403784438 Z0.24 E0.138850502151383 F1200
G1 X48.60843918243516 Y52.41025403784438 Z0.24 E0.13885050215138306 F1200
G1 X47.216878364870325 Y50.0 Z0.24 E0.138850502151383 F1200
G1 X48.60843918243516 Y47.58974596215562 Z0.24 E0.138850502151383 F1200
G1 X51.39156081756484 Y47.58974596215562 Z0.24 E0.13885050215138306 F1200
G1 X52.783121635129675 Y50.0 Z0.24 E0.138850502151383 F1200
G1 X52.20577136594005 Y50.0 Z0.24 E0.02880412188326082 F1200
G1 X51.102885682970026 Y51.91025403784438 Z0.24 E0.11004638026812208 F1200
G1 X48.897114317029974 Y51.91025403784438 Z0.24 E0.11004638026812225 F1200
G1 X47.79422863405995 Y50.0 Z0.24 E0.11004638026812208 F1200
G1 X48.897114317029974 Y48.08974596215562 Z0.24 E0.11004638026812208 F1200
G1 X51.102885682970026 Y48.08974596215562 Z0.24 E0.11004638026812225 F1200
G1 X52.20577136594005 Y50.0 Z0.24 E0.11004638026812208 F1200
G1 X51.62842109675042 Y50.0 Z0.24 E0.02880412188326117 F1200
G1 X50.814210548375215 Y51.41025403784438 Z0.24 E0.08124225838486096 F1200
G1 X49.185789451624785 Y51.41025403784438 Z0.24 E0.08124225838486143 F1200
G1 X48.37157890324958 Y50.0 Z0.24 E0.08124225838486096 F1200
G1 X49.185789451624785 Y48.58974596215562 Z0.24 E0.08124225838486096 F1200
G1 X50.814210548375215 Y48.58974596215562 Z0.24 E0.08124225838486143 F1200
G1 X51.62842109675042 Y50.0 Z0.24 E0.08124225838486096 F1200
G1 X51.0510708275608 Y50.0 Z0.24 E0.02880412188326082 F1200
G1 X50.525535413780396 Y50.91025403784438 Z0.24 E0.05243813650160019 F1200
G1 X49.474464586219604 Y50.91025403784438 Z0.24 E0.0524381365015999 F1200
G1 X48.9489291724392 Y50.0 Z0.24 E0.05243813650160019 F1200
G1 X49.4744645862196 Y49.08974596215562 Z0.24 E0.052438136501600015 F1200
G1 X50.525535413780396 Y49.08974596215562 Z0.24 E0.05243813650160026 F1200
G1 X51.0510708275608 Y50.0 Z0.24 E0.05243813650160019 F1200
G1 X50.47372055837117 Y50.0 Z0.24 E0.02880412188326117 F1200
G1 X50.236860279185585 Y50.41025403784438 Z0.24 E0.023634014618339083 F1200
G1 X49.763139720814415 Y50.41025403784438 Z0.24 E0.023634014618339087 F1200
G1 X49.52627944162883 Y50.0 Z0.24 E0.023634014618339083 F1200
G1 X49.763139720814415 Y49.58974596215562 Z0.24 E0.023634014618339083 F1200
G1 X50.236860279185585 Y49.58974596215562 Z0.24 E0.023634014618339087 F1200
G1 X50.47372055837117 Y50.0 Z0.24 E0.023634014618339083 F1200
G1 E-8
M104 S205
M140 S65
G0 X59.76905989232415 Y50.0 Z0.24 F1200
G0 X59.76905989232415 Y50.0 Z0.36 F1200
G1 E8
G1 X54.884529946162075 Y58.460254037844386 Z0.36 E0.19495215077553643 F1200
G1 X45.115470053837925 Y58.460254037844386 Z0.36 E0.19495215077553643 F1200
G1 X40.23094010767585 Y50.0 Z0.36 E0.19495215077553643 F1200
G1 X45.11547005383792 Y41.539745962155614 Z0.36 E0.19495215077553632 F1200
G1 X54.884529946162075 Y41.539745962155614 Z0.36 E0.1949521507755366 F1200
G1 X59.76905989232415 Y50.0 Z0.36 E0.19495215077553643 F1200
G1 X59.30717967697245 Y50.0 Z0.36 E0.009217319002643463 F1200
G1 X54.653589838486226 Y58.06025403784439 Z0.36 E0.18573483177289296 F1200
G1 X45.346410161513774 Y58.06025403784439 Z0.36 E0.185734831772893 F1200
G1 X40.69282032302755 Y50.0 Z0.36 E0.18573483177289296 F1200
G1 X45.346410161513774 Y41.93974596215561 Z0.36 E0.18573483177289296 F1200
G1 X54.653589838486226 Y41.93974596215561 Z0.36 E0.185734831772893 F1200
G1 X59.30717967697245 Y50.0 Z0.36 E0.18573483177289296 F1200
G1 X58.845299461620755 Y50.0 Z0.36 E0.009217319002643463 F1200
G1 X54.42264973081038 Y57.66025403784439 Z0.36 E0.1765175127702495 F1200
G1 X45.57735026918962 Y57.66025403784439 Z0.36 E0.17651751277024952 F1200
G1 X41.154700538379245 Y50.0 Z0.36 E0.1765175127702495 F1200
G1 X45.57735026918962 Y42.33974596215561 Z0.36 E0.1765175127702495 F1200
G1 X54.42264973081038 Y42.33974596215561 Z0.36 E0.17651751277024952 F1200
G1 X58.845299461620755 Y50.0 Z0.36 E0.1765175127702495 F1200
G1 X58.38341924626905 Y50.0 Z0.36 E0.009217319002643604 F1200
G1 X54.19170962313453 Y57.26025403784439 Z0.36 E0.16730019376760594 F1200
G1 X45.80829037686548 Y57.26025403784439 Z0.36 E0.1673001937676059 F1200
G1 X41.61658075373095 Y50.0 Z0.36 E0.167300193767606 F1200
G1 X45.80829037686547 Y42.73974596215561 Z0.36 E0.16730019376760594 F1200
G1 X54.19170962313453 Y42.73974596215561 Z0.36 E0.16730019376760605 F1200
G1 X58.38341924626905 Y50.0 Z0.36 E0.16730019376760594 F1200
G1 X57.92153903091735 Y50.0 Z0.36 E0.009217319002643463 F1200
G1 X53.96076951545868 Y56.86025403784439 Z0.36 E0.15808287476496244 F1200
G1 X46.03923048454133 Y56.86025403784439 Z0.36 E0.15808287476496244 F1200
G1 X42.07846096908265 Y50.0 Z0.36 E0.15808287476496252 F1200
G1 X46.03923048454132 Y43.139745962155615 Z0.36 E0.15808287476496233 F1200
G1 X53.96076951545868 Y43.13974596215561 Z0.36 E0.1580828747649626 F1200
G1 X57.92153903091735 Y50.0 Z0.36 E0.15808287476496244 F1200
G1 X57.459658815565646 Y50.0 Z0.36 E0.009217319002643604 F1200
G1 X53.72982940778282 Y56.460254037844386 Z0.36 E0.14886555576231886 F1200
G1 X46.27017059221718 Y56.46025403784439 Z0.36 E0.14886555576231886 F1200
G1 X42.540341184434354 Y50.0 Z0.36 E0.148865555762319 F1200
G1 X46.27017059221717 Y43.539745962155614 Z0.36 E0.14886555576231877 F1200
G1 X53.72982940778282 Y43.539745962155614 Z0.36 E0.148865555762319 F1200
G1 X57.459658815565646 Y50.0 Z0.36 E0.14886555576231886 F1200
G1 X56.99777860021395 Y50.0 Z0.36 E0.009217319002643463 F1200
G1 X53.498889300106974 Y56.06025403784439 Z0.36 E0.1396482367596754 F1200
G1 X46.501110699893026 Y56.06025403784439 Z0.36 E0.1396482367596754 F1200
G1 X43.00222139978605 Y50.0 Z0.36 E0.1396482367596754 F1200
G1 X46.50111069989302 Y43.93974596215561 Z0.36 E0.1396482367596753 F1200
G1 X53.498889300106974 Y43.93974596215561 Z0.36 E0.13964823675967553 F1200
G1 X56.99777860021395 Y50.0 Z0.36 E0.1396482367596754 F1200
G1 X56.53589838486225 Y50.0 Z0.36 E0.009217319002643463 F1200
G1 X53.267949192431125 Y55.66025403784439 Z0.36 E0.1304309177570319 F1200
G1 X46.732050807568875 Y55.66025403784439 Z0.36 E0.13043091775703192 F1200
G1 X43.46410161513775 Y50.0 Z0.36 E0.1304309177570319 F1200
G1 X46.732050807568875 Y44.33974596215561 Z0.36 E0.1304309177570319 F1200
G1 X53.267949192431125 Y44.33974596215561 Z0.36 E0.13043091775703192 F1200
G1 X56.53589838486225 Y50.0 Z0.36 E0.1304309177570319 F1200
G1 X56.074018169510545 Y50.0 Z0.36 E0.009217319002643604 F1200
G1 X53.037009084755276 Y55.26025403784439 Z0.36 E0.12121359875438835 F1200
G1 X46.96299091524473 Y55.26025403784439 Z0.36 E0.12121359875438832 F1200
G1 X43.925981830489455 Y50.0 Z0.36 E0.12121359875438843 F1200
G1 X46.962990915244724 Y44.73974596215561 Z0.36 E0.12121359875438835 F1200
G1 X53.037009084755276 Y44.73974596215561 Z0.36 E0.12121359875438846 F1200
G1 X56.074018169510545 Y50.0 Z0.36 E0.12121359875438835 F1200
G1 X55.61213795415885 Y50.0 Z0.36 E0.009217319002643463 F1200
G1 X52.80606897707943 Y54.860254037844385 Z0.36 E0.11199627975174474 F1200
G1 X47.19393102292058 Y54.86025403784439 Z0.36 E0.11199627975174485 F1200
G1 X44.38786204584115 Y50.0 Z0.36 E0.11199627975174495 F1200
G1 X47.19393102292057 Y45.139745962155615 Z0.36 E0.11199627975174474 F1200
G1 X52.80606897707943 Y45.139745962155615 Z0.36 E0.11199627975174502 F1200
G1 X55.61213795415885 Y50.0 Z0.36 E0.11199627975174474 F1200
G1 X55.15025773880715 Y50.0 Z0.36 E0.009217319002643463 F1200
G1 X52.57512886940357 Y54.460254037844386 Z0.36 E0.10277896074910137 F1200
G1 X47.42487113059643 Y54.460254037844386 Z0.36 E0.10277896074910124 F1200
G1 X44.84974226119285 Y50.0 Z0.36 E0.10277896074910137 F1200
G1 X47.42487113059642 Y45.539745962155614 Z0.36 E0.1027789607491013 F1200
G1 X52.57512886940357 Y45.539745962155614 Z0.36 E0.1027789607491014 F1200
G1 X55.15025773880715 Y50.0 Z0.36 E0.10277896074910137 F1200
G1 X54.68837752345544 Y50.0 Z0.36 E0.009217319002643604 F1200
G1 X52.34418876172772 Y54.06025403784439 Z0.36 E0.09356164174645781 F1200
G1 X47.65581123827228 Y54.06025403784439 Z0.36 E0.09356164174645779 F1200
G1 X45.31162247654456 Y50.0 Z0.36 E0.09356164174645781 F1200
G1 X47.65581123827228 Y45.93974596215561 Z0.36 E0.09356164174645781 F1200
G1 X52.34418876172772 Y45.93974596215561 Z0.36 E0.09356164174645779 F1200
G1 X54.68837752345544 Y50.0 Z0.36 E0.09356164174645781 F1200
G1 X54.226497308103745 Y50.0 Z0.36 E0.009217319002643463 F1200
G1 X52.11324865405187 Y53.66025403784439 Z0.36 E0.08434432274381433 F1200
G1 X47.88675134594813 Y53.66025403784439 Z0.36 E0.08434432274381433 F1200
G1 X45.773502691896255 Y50.0 Z0.36 E0.08434432274381433 F1200
G1 X47.88675134594813 Y46.33974596215561 Z0.36 E0.08434432274381433 F1200
G1 X52.11324865405187 Y46.33974596215561 Z0.36 E0.08434432274381433 F1200
G1 X54.226497308103745 Y50.0 Z0.36 E0.08434432274381433 F1200
G1 X53.76461709275205 Y50.0 Z0.36 E0.009217319002643463 F1200
G1 X51.882308546376024 Y53.26025403784439 Z0.36 E0.07512700374117086 F1200
G1 X48.117691453623976 Y53.26025403784439 Z0.36 E0.07512700374117086 F1200
G1 X46.23538290724795 Y50.0 Z0.36 E0.07512700374117086 F1200
G1 X48.117691453623976 Y46.73974596215561 Z0.36 E0.07512700374117086 F1200
G1 X51.882308546376024 Y46.73974596215561 Z0.36 E0.07512700374117086 F1200
G1 X53.76461709275205 Y50.0 Z0.36 E0.07512700374117086 F1200
G1 X53.30273687740034 Y50.0 Z0.36 E0.009217319002643604 F1200
G1 X51.651368438700175 Y52.860254037844385 Z0.36 E0.0659096847385272 F1200
G1 X48.34863156129983 Y52.860254037844385 Z0.36 E0.06590968473852726 F1200
G1 X46.69726312259966 Y50.0 Z0.36 E0.06590968473852725 F1200
G1 X48.348631561299825 Y47.139745962155615 Z0.36 E0.0659096847385272 F1200
