;FLAVOR:Marlin 
;Layer height: 0.12 
;Generated with Cura_SteamEngine 4.9.0 
M140 S70
M105 
M190 S70
M104 S210
M105 
M109 S210
M83 ;relative extrusion mode 
; Ender 3 Custom Start G-code 
G92 E0 ; Reset Extruder 
G1 X0 Y0 Z10 F3000
G1 Z2.0 F3000 ; Move Z Axis up little to prevent scratching of Heat Bed 
G1 X0.1 Y20 Z0.3 F5000.0 ; Move to start position 
G1 X0.1 Y200.0 Z0.3 F1500.0 E15 ; Draw the first line 
G1 X0.4 Y200.0 Z0.3 F5000.0 ; Move to side a little 
G1 X0.4 Y20 Z0.3 F1500.0 E15 ; Draw the second line 
G92 E0 ; Reset Extruder 
G1 Z2.0 F3000 ; Move Z Axis up little to prevent scratching of Heat Bed 
G1 X5 Y20 Z0.3 F5000.0 ; Move over to prevent blob squish 
G92 E0 
G92 E0 
G1 F3000 E-8 
M104 S210
G0 X62.79503159869067 Y50.0 Z0.24 F1200
G1 E8
G1 X59.047453608930326 Y59.047453608930326 Z0.24 E0.4885694264252907 F1200
G1 X50.0 Y62.79503159869067 Z0.24 E0.4885694264252907 F1200
G1 X40.952546391069674 Y59.047453608930326 Z0.24 E0.4885694264252907 F1200
G1 X37.20496840130933 Y50.0 Z0.24 E0.4885694264252907 F1200
G1 X40.952546391069674 Y40.952546391069674 Z0.24 E0.4885694264252907 F1200
G1 X50.0 Y37.20496840130933 Z0.24 E0.4885694264252907 F1200
G1 X59.04745360893032 Y40.952546391069674 Z0.24 E0.48856942642529033 F1200
G1 X62.79503159869067 Y50.0 Z0.24 E0.48856942642529083 F1200
G1 X62.25383549854447 Y50.0 Z0.24 E0.02700038306596293 F1200
G1 X58.664770176565234 Y58.664770176565234 Z0.24 E0.4679042278915809 F1200
G1 X50.0 Y62.25383549854447 Z0.24 E0.4679042278915809 F1200
G1 X41.335229823434766 Y58.664770176565234 Z0.24 E0.4679042278915809 F1200
G1 X37.74616450145553 Y50.0 Z0.24 E0.4679042278915809 F1200
G1 X41.335229823434766 Y41.335229823434766 Z0.24 E0.4679042278915809 F1200
G1 X50.0 Y37.74616450145553 Z0.24 E0.4679042278915809 F1200
G1 X58.66477017656523 Y41.335229823434766 Z0.24 E0.4679042278915806 F1200
G1 X62.25383549854447 Y50.0 Z0.24 E0.46790422789158104 F1200
G1 X61.712639398398274 Y50.0 Z0.24 E0.02700038306596257 F1200
G1 X58.28208674420014 Y58.28208674420014 Z0.24 E0.4472390293578712 F1200
G1 X50.0 Y61.712639398398274 Z0.24 E0.4472390293578712 F1200
G1 X41.71791325579986 Y58.28208674420014 Z0.24 E0.4472390293578712 F1200
G1 X38.287360601601726 Y50.0 Z0.24 E0.4472390293578712 F1200
G1 X41.71791325579986 Y41.71791325579986 Z0.24 E0.4472390293578712 F1200
G1 X50.0 Y38.287360601601726 Z0.24 E0.4472390293578712 F1200
G1 X58.28208674420014 Y41.71791325579986 Z0.24 E0.4472390293578712 F1200
G1 X61.712639398398274 Y50.0 Z0.24 E0.4472390293578712 F1200
G1 X61.17144329825208 Y50.0 Z0.24 E0.02700038306596257 F1200
G1 X57.89940331183506 Y57.89940331183506 Z0.24 E0.42657383082416167 F1200
G1 X50.0 Y61.17144329825208 Z0.24 E0.42657383082416167 F1200
G1 X42.10059668816495 Y57.89940331183506 Z0.24 E0.42657383082416134 F1200
G1 X38.82855670174792 Y50.0 Z0.24 E0.4265738308241618 F1200
G1 X42.10059668816494 Y42.10059668816495 Z0.24 E0.42657383082416134 F1200
G1 X50.0 Y38.82855670174792 Z0.24 E0.4265738308241618 F1200
G1 X57.89940331183505 Y42.10059668816494 Z0.24 E0.42657383082416134 F1200
G1 X61.17144329825208 Y50.0 Z0.24 E0.4265738308241618 F1200
G1 X60.63024719810588 Y50.0 Z0.24 E0.02700038306596293 F1200
G1 X57.51671987946997 Y57.51671987946997 Z0.24 E0.4059086322904518 F1200
G1 X50.0 Y60.63024719810588 Z0.24 E0.4059086322904518 F1200
G1 X42.48328012053003 Y57.51671987946997 Z0.24 E0.4059086322904518 F1200
G1 X39.36975280189412 Y50.0 Z0.24 E0.4059086322904518 F1200
G1 X42.48328012053003 Y42.48328012053003 Z0.24 E0.4059086322904518 F1200
G1 X50.0 Y39.36975280189412 Z0.24 E0.4059086322904518 F1200
G1 X57.51671987946996 Y42.48328012053003 Z0.24 E0.40590863229045154 F1200
G1 X60.63024719810588 Y50.0 Z0.24 E0.40590863229045193 F1200
G1 X60.08905109795968 Y50.0 Z0.24 E0.02700038306596257 F1200
G1 X57.134036447104876 Y57.134036447104876 Z0.24 E0.38524343375674214 F1200
G1 X50.0 Y60.08905109795968 Z0.24 E0.38524343375674214 F1200
G1 X42.865963552895124 Y57.134036447104876 Z0.24 E0.38524343375674214 F1200
G1 X39.91094890204032 Y50.0 Z0.24 E0.38524343375674214 F1200
G1 X42.865963552895124 Y42.865963552895124 Z0.24 E0.38524343375674214 F1200
G1 X50.0 Y39.91094890204032 Z0.24 E0.38524343375674214 F1200
G1 X57.134036447104876 Y42.865963552895124 Z0.24 E0.38524343375674214 F1200
G1 X60.08905109795968 Y50.0 Z0.24 E0.38524343375674214 F1200
G1 X59.54785499781349 Y50.0 Z0.24 E0.02700038306596257 F1200
G1 X56.751353014739784 Y56.751353014739784 Z0.24 E0.36457823522303245 F1200
G1 X50.0 Y59.54785499781349 Z0.24 E0.36457823522303245 F1200
G1 X43.248646985260216 Y56.751353014739784 Z0.24 E0.36457823522303245 F1200
G1 X40.45214500218651 Y50.0 Z0.24 E0.36457823522303245 F1200
G1 X43.24864698526021 Y43.248646985260216 Z0.24 E0.36457823522303234 F1200
G1 X50.0 Y40.45214500218651 Z0.24 E0.3645782352230328 F1200
G1 X56.751353014739784 Y43.24864698526021 Z0.24 E0.36457823522303234 F1200
G1 X59.54785499781349 Y50.0 Z0.24 E0.3645782352230328 F1200
G1 X59.00665889766729 Y50.0 Z0.24 E0.02700038306596257 F1200
G1 X56.3686695823747 Y56.3686695823747 Z0.24 E0.343913036689323 F1200
G1 X50.0 Y59.00665889766729 Z0.24 E0.343913036689323 F1200
G1 X43.63133041762531 Y56.3686695823747 Z0.24 E0.34391303668932266 F1200
G1 X40.99334110233271 Y50.0 Z0.24 E0.3439130366893231 F1200
G1 X43.6313304176253 Y43.63133041762531 Z0.24 E0.34391303668932266 F1200
G1 X50.0 Y40.99334110233271 Z0.24 E0.3439130366893231 F1200
G1 X56.36866958237469 Y43.6313304176253 Z0.24 E0.34391303668932266 F1200
G1 X59.00665889766729 Y50.0 Z0.24 E0.3439130366893231 F1200
G1 X58.4654627975211 Y50.0 Z0.24 E0.02700038306596257 F1200
G1 X55.98598615000961 Y55.98598615000961 Z0.24 E0.32324783815561325 F1200
G1 X50.0 Y58.4654627975211 Z0.24 E0.32324783815561325 F1200
G1 X44.01401384999039 Y55.98598615000961 Z0.24 E0.32324783815561325 F1200
G1 X41.5345372024789 Y50.0 Z0.24 E0.32324783815561325 F1200
G1 X44.01401384999039 Y44.01401384999039 Z0.24 E0.32324783815561325 F1200
G1 X50.0 Y41.5345372024789 Z0.24 E0.32324783815561325 F1200
G1 X55.98598615000961 Y44.01401384999039 Z0.24 E0.32324783815561325 F1200
G1 X58.4654627975211 Y50.0 Z0.24 E0.32324783815561325 F1200
G1 X57.9242666973749 Y50.0 Z0.24 E0.02700038306596293 F1200
G1 X55.60330271764452 Y55.60330271764452 Z0.24 E0.3025826396219034 F1200
G1 X50.0 Y57.9242666973749 Z0.24 E0.3025826396219034 F1200
G1 X44.39669728235548 Y55.60330271764452 Z0.24 E0.3025826396219034 F1200
G1 X42.0757333026251 Y50.0 Z0.24 E0.3025826396219034 F1200
G1 X44.39669728235548 Y44.39669728235548 Z0.24 E0.3025826396219034 F1200
G1 X50.0 Y42.0757333026251 Z0.24 E0.3025826396219034 F1200
G1 X55.60330271764452 Y44.39669728235548 Z0.24 E0.3025826396219034 F1200
G1 X57.9242666973749 Y50.0 Z0.24 E0.3025826396219034 F1200
G1 X57.3830705972287 Y50.0 Z0.24 E0.02700038306596257 F1200
G1 X55.220619285279426 Y55.220619285279426 Z0.24 E0.2819174410881938 F1200
G1 X50.0 Y57.3830705972287 Z0.24 E0.2819174410881938 F1200
G1 X44.779380714720574 Y55.220619285279426 Z0.24 E0.2819174410881938 F1200
G1 X42.6169294027713 Y50.0 Z0.24 E0.2819174410881938 F1200
G1 X44.779380714720574 Y44.779380714720574 Z0.24 E0.2819174410881938 F1200
G1 X50.0 Y42.6169294027713 Z0.24 E0.2819174410881938 F1200
G1 X55.220619285279426 Y44.779380714720574 Z0.24 E0.2819174410881938 F1200
G1 X57.3830705972287 Y50.0 Z0.24 E0.2819174410881938 F1200
G1 X56.8418744970825 Y50.0 Z0.24 E0.02700038306596293 F1200
G1 X54.837935852914335 Y54.837935852914335 Z0.24 E0.2612522425544839 F1200
G1 X50.0 Y56.8418744970825 Z0.24 E0.2612522425544839 F1200
G1 X45.162064147085665 Y54.837935852914335 Z0.24 E0.2612522425544839 F1200
G1 X43.1581255029175 Y50.0 Z0.24 E0.2612522425544839 F1200
G1 X45.16206414708566 Y45.162064147085665 Z0.24 E0.2612522425544838 F1200
G1 X50.0 Y43.1581255029175 Z0.24 E0.26125224255448426 F1200
G1 X54.837935852914335 Y45.16206414708566 Z0.24 E0.2612522425544838 F1200
G1 X56.8418744970825 Y50.0 Z0.24 E0.26125224255448426 F1200
G1 X56.300678396936306 Y50.0 Z0.24 E0.02700038306596257 F1200
G1 X54.45525242054925 Y54.45525242054925 Z0.24 E0.24058704402077444 F1200
G1 X50.0 Y56.300678396936306 Z0.24 E0.24058704402077444 F1200
G1 X45.54474757945076 Y54.45525242054925 Z0.24 E0.24058704402077413 F1200
G1 X43.699321603063694 Y50.0 Z0.24 E0.24058704402077455 F1200
G1 X45.54474757945075 Y45.54474757945076 Z0.24 E0.24058704402077413 F1200
G1 X50.0 Y43.699321603063694 Z0.24 E0.24058704402077455 F1200
G1 X54.45525242054924 Y45.54474757945075 Z0.24 E0.24058704402077413 F1200
G1 X56.300678396936306 Y50.0 Z0.24 E0.24058704402077455 F1200
G1 X55.75948229679011 Y50.0 Z0.24 E0.02700038306596257 F1200
G1 X54.07256898818416 Y54.07256898818416 Z0.24 E0.21992184548706473 F1200
G1 X50.0 Y55.75948229679011 Z0.24 E0.21992184548706473 F1200
G1 X45.92743101181584 Y54.07256898818416 Z0.24 E0.21992184548706473 F1200
G1 X44.24051770320989 Y50.0 Z0.24 E0.21992184548706473 F1200
G1 X45.92743101181584 Y45.92743101181584 Z0.24 E0.21992184548706473 F1200
G1 X50.0 Y44.24051770320989 Z0.24 E0.21992184548706473 F1200
G1 X54.07256898818416 Y45.92743101181584 Z0.24 E0.21992184548706473 F1200
G1 X55.75948229679011 Y50.0 Z0.24 E0.21992184548706473 F1200
G1 X55.21828619664391 Y50.0 Z0.24 E0.02700038306596293 F1200
G1 X53.68988555581907 Y53.68988555581907 Z0.24 E0.1992566469533549 F1200
G1 X50.0 Y55.21828619664391 Z0.24 E0.1992566469533549 F1200
G1 X46.31011444418093 Y53.68988555581907 Z0.24 E0.1992566469533549 F1200
G1 X44.78171380335609 Y50.0 Z0.24 E0.1992566469533549 F1200
G1 X46.31011444418093 Y46.31011444418093 Z0.24 E0.1992566469533549 F1200
G1 X50.0 Y44.78171380335609 Z0.24 E0.1992566469533549 F1200
G1 X53.68988555581907 Y46.31011444418093 Z0.24 E0.1992566469533549 F1200
G1 X55.21828619664391 Y50.0 Z0.24 E0.1992566469533549 F1200
G1 X54.677090096497714 Y50.0 Z0.24 E0.02700038306596257 F1200
G1 X53.307202123453976 Y53.307202123453976 Z0.24 E0.1785914484196452 F1200
G1 X50.0 Y54.677090096497714 Z0.24 E0.1785914484196452 F1200
G1 X46.692797876546024 Y53.307202123453976 Z0.24 E0.1785914484196452 F1200
G1 X45.322909903502286 Y50.0 Z0.24 E0.1785914484196452 F1200
G1 X46.692797876546024 Y46.692797876546024 Z0.24 E0.1785914484196452 F1200
G1 X50.0 Y45.322909903502286 Z0.24 E0.1785914484196452 F1200
G1 X53.307202123453976 Y46.692797876546024 Z0.24 E0.1785914484196452 F1200
G1 X54.677090096497714 Y50.0 Z0.24 E0.1785914484196452 F1200
G1 X54.13589399635151 Y50.0 Z0.24 E0.02700038306596293 F1200
G1 X52.924518691088885 Y52.924518691088885 Z0.24 E0.15792624988593537 F1200
G1 X50.0 Y54.13589399635151 Z0.24 E0.15792624988593537 F1200
G1 X47.075481308911115 Y52.924518691088885 Z0.24 E0.15792624988593537 F1200
G1 X45.86410600364849 Y50.0 Z0.24 E0.15792624988593537 F1200
G1 X47.075481308911115 Y47.075481308911115 Z0.24 E0.15792624988593537 F1200
G1 X50.0 Y45.86410600364849 Z0.24 E0.15792624988593537 F1200
G1 X52.924518691088885 Y47.075481308911115 Z0.24 E0.15792624988593537 F1200
G1 X54.13589399635151 Y50.0 Z0.24 E0.15792624988593537 F1200
G1 X53.59469789620532 Y50.0 Z0.24 E0.02700038306596257 F1200
G1 X52.5418352587238 Y52.5418352587238 Z0.24 E0.13726105135222588 F1200
G1 X50.0 Y53.59469789620532 Z0.24 E0.13726105135222588 F1200
G1 X47.4581647412762 Y52.5418352587238 Z0.24 E0.13726105135222588 F1200
G1 X46.40530210379468 Y50.0 Z0.24 E0.13726105135222588 F1200
G1 X47.4581647412762 Y47.4581647412762 Z0.24 E0.13726105135222588 F1200
G1 X50.0 Y46.40530210379468 Z0.24 E0.13726105135222588 F1200
G1 X52.54183525872379 Y47.4581647412762 Z0.24 E0.13726105135222555 F1200
G1 X53.59469789620532 Y50.0 Z0.24 E0.13726105135222602 F1200
G1 X53.05350179605912 Y50.0 Z0.24 E0.02700038306596257 F1200
G1 X52.15915182635871 Y52.15915182635871 Z0.24 E0.11659585281851617 F1200
G1 X50.0 Y53.05350179605912 Z0.24 E0.11659585281851617 F1200
G1 X47.84084817364129 Y52.15915182635871 Z0.24 E0.11659585281851617 F1200
G1 X46.94649820394088 Y50.0 Z0.24 E0.11659585281851617 F1200
G1 X47.84084817364129 Y47.84084817364129 Z0.24 E0.11659585281851617 F1200
G1 X50.0 Y46.94649820394088 Z0.24 E0.11659585281851617 F1200
G1 X52.15915182635871 Y47.84084817364129 Z0.24 E0.11659585281851617 F1200
G1 X53.05350179605912 Y50.0 Z0.24 E0.11659585281851617 F1200
G1 X52.51230569591293 Y50.0 Z0.24 E0.02700038306596257 F1200
G1 X51.77646839399362 Y51.77646839399362 Z0.24 E0.09593065428480649 F1200
G1 X50.0 Y52.51230569591293 Z0.24 E0.09593065428480649 F1200
G1 X48.22353160600638 Y51.77646839399362 Z0.24 E0.09593065428480649 F1200
G1 X47.48769430408707 Y50.0 Z0.24 E0.09593065428480649 F1200
G1 X48.22353160600638 Y48.22353160600638 Z0.24 E0.09593065428480649 F1200
G1 X50.0 Y47.48769430408707 Z0.24 E0.09593065428480649 F1200
G1 X51.77646839399362 Y48.22353160600638 Z0.24 E0.09593065428480649 F1200
G1 X52.51230569591293 Y50.0 Z0.24 E0.09593065428480649 F1200
G1 X51.97110959576673 Y50.0 Z0.24 E0.02700038306596293 F1200
G1 X51.393784961628526 Y51.393784961628526 Z0.24 E0.07526545575109665 F1200
G1 X50.0 Y51.97110959576673 Z0.24 E0.07526545575109665 F1200
G1 X48.606215038371474 Y51.393784961628526 Z0.24 E0.07526545575109665 F1200
G1 X48.02889040423327 Y50.0 Z0.24 E0.07526545575109665 F1200
G1 X48.606215038371474 Y48.606215038371474 Z0.24 E0.07526545575109665 F1200
G1 X50.0 Y48.02889040423327 Z0.24 E0.07526545575109665 F1200
G1 X51.393784961628526 Y48.606215038371474 Z0.24 E0.07526545575109665 F1200
G1 X51.97110959576673 Y50.0 Z0.24 E0.07526545575109665 F1200
G1 X51.42991349562053 Y50.0 Z0.24 E0.02700038306596257 F1200
G1 X51.01110152926344 Y51.01110152926344 Z0.24 E0.054600257217387156 F1200
G1 X50.0 Y51.42991349562053 Z0.24 E0.054600257217387156 F1200
G1 X48.98889847073656 Y51.01110152926344 Z0.24 E0.054600257217387156 F1200
G1 X48.57008650437947 Y50.0 Z0.24 E0.054600257217387156 F1200
G1 X48.98889847073656 Y48.98889847073656 Z0.24 E0.054600257217387156 F1200
G1 X50.0 Y48.57008650437947 Z0.24 E0.054600257217387156 F1200
G1 X51.01110152926344 Y48.98889847073656 Z0.24 E0.054600257217387156 F1200
G1 X51.42991349562053 Y50.0 Z0.24 E0.054600257217387156 F1200
G1 X50.88871739547434 Y50.0 Z0.24 E0.02700038306596257 F1200
G1 X50.62841809689835 Y50.62841809689835 Z0.24 E0.03393505868367746 F1200
G1 X50.0 Y50.88871739547434 Z0.24 E0.03393505868367746 F1200
G1 X49.37158190310165 Y50.62841809689835 Z0.24 E0.03393505868367746 F1200
G1 X49.11128260452566 Y50.0 Z0.24 E0.03393505868367746 F1200
G1 X49.37158190310165 Y49.37158190310165 Z0.24 E0.03393505868367746 F1200
G1 X50.0 Y49.11128260452566 Z0.24 E0.03393505868367746 F1200
G1 X50.62841809689835 Y49.37158190310165 Z0.24 E0.03393505868367746 F1200
G1 X50.88871739547434 Y50.0 Z0.24 E0.03393505868367746 F1200
G1 X50.347521295328136 Y50.0 Z0.24 E0.02700038306596293 F1200
G1 X50.24573466453326 Y50.24573466453326 Z0.24 E0.013269860149967623 F1200
G1 X50.0 Y50.347521295328136 Z0.24 E0.013269860149967623 F1200
G1 X49.75426533546674 Y50.24573466453326 Z0.24 E0.013269860149967623 F1200
G1 X49.652478704671864 Y50.0 Z0.24 E0.013269860149967623 F1200
G1 X49.75426533546674 Y49.75426533546674 Z0.24 E0.013269860149967623 F1200
G1 X50.0 Y49.652478704671864 Z0.24 E0.013269860149967623 F1200
G1 X50.24573466453326 Y49.75426533546674 Z0.24 E0.013269860149967623 F1200
G1 X50.347521295328136 Y50.0 Z0.24 E0.013269860149967623 F1200
G1 E-8
M104 S205
M140 S65
G0 X62.84915120870529 Y50.0 Z0.24 F1200
G0 X62.84915120870529 Y50.0 Z0.36 F1200
G1 E8
G1 X59.085721952166836 Y59.085721952166836 Z0.36 E0.19625437851146466 F1200
G1 X50.0 Y62.84915120870529 Z0.36 E0.19625437851146466 F1200
G1 X40.91427804783317 Y59.085721952166836 Z0.36 E0.19625437851146454 F1200
G1 X37.15084879129471 Y50.0 Z0.36 E0.19625437851146474 F1200
G1 X40.914278047833164 Y40.91427804783317 Z0.36 E0.19625437851146454 F1200
G1 X50.0 Y37.15084879129471 Z0.36 E0.19625437851146474 F1200
G1 X59.08572195216683 Y40.914278047833164 Z0.36 E0.19625437851146454 F1200
G1 X62.84915120870529 Y50.0 Z0.36 E0.19625437851146474 F1200
G1 X62.41619432858833 Y50.0 Z0.36 E0.008640122581107995 F1200
G1 X58.77957520627476 Y58.77957520627476 Z0.36 E0.18964151498067755 F1200
G1 X50.0 Y62.41619432858833 Z0.36 E0.18964151498067755 F1200
