;FLAVOR:Marlin 
;Layer height: 0.12 
;Generated with Cura_SteamEngine 4.9.0 
M140 S65
M105 
M190 S65
M104 S205
M105 
M109 S205
M83 ;relative extrusion mode 
; Ender 3 Custom Start G-code 
G92 E0 ; Reset Extruder 
G1 X0 Y0 Z10 F3000
G1 Z2.0 F3000 ; Move Z Axis up little to prevent scratching of Heat Bed 
G1 X0.1 Y20 Z0.3 F5000.0 ; Move to start position 
G1 X0.1 Y200.0 Z0.3 F1500.0 E15 ; Draw the first line 
G1 X0.4 Y200.0 Z0.3 F5000.0 ; Move to side a little 
G1 X0.4 Y20 Z0.3 F1500.0 E15 ; Draw the second line 
G92 E0 ; Reset Extruder 
G1 Z2.0 F3000 ; Move Z Axis up little to prevent scratching of Heat Bed 
G1 X5 Y20 Z0.3 F5000.0 ; Move over to prevent blob squish 
G92 E0 
G92 E0 
G1 F3000 E-8 
M104 S205
G0 X40.353553 Y50.0 Z0.24 F2400
G1 E8
G1 X50.0 Y59.646447 Z0.24 E0.680609 F1200
G1 X40.353553 Y50.0 Z0.24 E0.680609 F1200
G1 X50.0 Y40.353553 Z0.24 E0.680609 F1200
G1 X59.646447 Y50.0 Z0.24 E0.680609 F1200
G0 X58.93934 Y50.0 Z0.24 F2400
G1 X50.0 Y58.93934 Z0.24 E0.630719 F1200
G1 X41.06066 Y50.0 Z0.24 E0.630719 F1200
G1 X50.0 Y41.06066 Z0.24 E0.630719 F1200
G1 X58.93934 Y50.0 Z0.24 E0.630719 F1200
G0 X58.232233 Y50.0 Z0.24 F2400
G1 X50.0 Y58.232233 Z0.24 E0.580829 F1200
G1 X41.767767 Y50.0 Z0.24 E0.580829 F1200
G1 X50.0 Y41.767767 Z0.24 E0.580829 F1200
G1 X58.232233 Y50.0 Z0.24 E0.580829 F1200
G0 X57.525126 Y50.0 Z0.24 F2400
G1 X50.0 Y57.525126 Z0.24 E0.530938 F1200
G1 X42.474874 Y50.0 Z0.24 E0.530938 F1200
G1 X50.0 Y42.474874 Z0.24 E0.530938 F1200
G1 X57.525126 Y50.0 Z0.24 E0.530938 F1200
G0 X56.818019 Y50.0 Z0.24 F2400
G1 X50.0 Y56.818019 Z0.24 E0.481048 F1200
G1 X43.181981 Y50.0 Z0.24 E0.481048 F1200
G1 X50.0 Y43.181981 Z0.24 E0.481048 F1200
G1 X56.818019 Y50.0 Z0.24 E0.481048 F1200
G0 X56.110913 Y50.0 Z0.24 F2400
G1 X50.0 Y56.110913 Z0.24 E0.431158 F1200
G1 X43.889087 Y50.0 Z0.24 E0.431158 F1200
G1 X50.0 Y43.889087 Z0.24 E0.431158 F1200
G1 X56.110913 Y50.0 Z0.24 E0.431158 F1200
G0 X55.403806 Y50.0 Z0.24 F2400
G1 X50.0 Y55.403806 Z0.24 E0.381268 F1200
G1 X44.596194 Y50.0 Z0.24 E0.381268 F1200
G1 X50.0 Y44.596194 Z0.24 E0.381268 F1200
G1 X55.403806 Y50.0 Z0.24 E0.381268 F1200
G0 X54.696699 Y50.0 Z0.24 F2400
G1 X50.0 Y54.696699 Z0.24 E0.331377 F1200
G1 X45.303301 Y50.0 Z0.24 E0.331377 F1200
G1 X50.0 Y45.303301 Z0.24 E0.331377 F1200
G1 X54.696699 Y50.0 Z0.24 E0.331377 F1200
G0 X53.989592 Y50.0 Z0.24 F2400
G1 X50.0 Y53.989592 Z0.24 E0.281487 F1200
G1 X46.010408 Y50.0 Z0.24 E0.281487 F1200
G1 X50.0 Y46.010408 Z0.24 E0.281487 F1200
G1 X53.989592 Y50.0 Z0.24 E0.281487 F1200
G0 X53.282486 Y50.0 Z0.24 F2400
G1 X50.0 Y53.282486 Z0.24 E0.231597 F1200
G1 X46.717514 Y50.0 Z0.24 E0.231597 F1200
G1 X50.0 Y46.717514 Z0.24 E0.231597 F1200
G1 X53.282486 Y50.0 Z0.24 E0.231597 F1200
G0 X52.575379 Y50.0 Z0.24 F2400
G1 X50.0 Y52.575379 Z0.24 E0.181707 F1200
G1 X47.424621 Y50.0 Z0.24 E0.181707 F1200
G1 X50.0 Y47.424621 Z0.24 E0.181707 F1200
G1 X52.575379 Y50.0 Z0.24 E0.181707 F1200
G0 X51.868272 Y50.0 Z0.24 F2400
G1 X50.0 Y51.868272 Z0.24 E0.131817 F1200
G1 X48.131728 Y50.0 Z0.24 E0.131817 F1200
G1 X50.0 Y48.131728 Z0.24 E0.131817 F1200
G1 X51.868272 Y50.0 Z0.24 E0.131817 F1200
G0 X51.161165 Y50.0 Z0.24 F2400
G1 X50.0 Y51.161165 Z0.24 E0.081926 F1200
G1 X48.838835 Y50.0 Z0.24 E0.081926 F1200
G1 X50.0 Y48.838835 Z0.24 E0.081926 F1200
G1 X51.161165 Y50.0 Z0.24 E0.081926 F1200
G0 X50.454058 Y50.0 Z0.24 F2400
G1 X50.0 Y50.454058 Z0.24 E0.032036 F1200
G1 X49.545942 Y50.0 Z0.24 E0.032036 F1200
G1 X50.0 Y49.545942 Z0.24 E0.032036 F1200
G1 X50.454058 Y50.0 Z0.24 E0.032036 F1200
G1 E-8
G1 X50.0 Y59.717157 Z0.36 E0.274239 F2400
G1 X40.282843 Y50.0 Z0.36 E0.274239 F2400
G1 X50.0 Y40.282843 Z0.36 E0.274239 F2400
G1 X59.717157 Y50.0 Z0.36 E0.274239 F2400
G0 X59.151472 Y50.0 Z0.36 F4800
G1 X50.0 Y59.151472 Z0.36 E0.258274 F2400
G1 X40.848528 Y50.0 Z0.36 E0.258274 F2400
G1 X50.0 Y40.848528 Z0.36 E0.258274 F2400
G1 X59.151472 Y50.0 Z0.36 E0.258274 F2400
G0 X58.585786 Y50.0 Z0.36 F4800
G1 X50.0 Y58.585786 Z0.36 E0.242309 F2400
G1 X41.414214 Y50.0 Z0.36 E0.242309 F2400
G1 X50.0 Y41.414214 Z0.36 E0.242309 F2400
G1 X58.585786 Y50.0 Z0.36 E0.242309 F2400
G0 X58.020101 Y50.0 Z0.36 F4800
G1 X50.0 Y58.020101 Z0.36 E0.226345 F2400
G1 X41.979899 Y50.0 Z0.36 E0.226345 F2400
G1 X50.0 Y41.979899 Z0.36 E0.226345 F2400
G1 X58.020101 Y50.0 Z0.36 E0.226345 F2400
G0 X57.454416 Y50.0 Z0.36 F4800
G1 X50.0 Y57.454416 Z0.36 E0.21038 F2400
G1 X42.545584 Y50.0 Z0.36 E0.21038 F2400
G1 X50.0 Y42.545584 Z0.36 E0.21038 F2400
G1 X57.454416 Y50.0 Z0.36 E0.21038 F2400
G0 X56.88873 Y50.0 Z0.36 F4800
G1 X50.0 Y56.88873 Z0.36 E0.194415 F2400
G1 X43.11127 Y50.0 Z0.36 E0.194415 F2400
G1 X50.0 Y43.11127 Z0.36 E0.194415 F2400
G1 X56.88873 Y50.0 Z0.36 E0.194415 F2400
G0 X56.323045 Y50.0 Z0.36 F4800
G1 X50.0 Y56.323045 Z0.36 E0.17845 F2400
G1 X43.676955 Y50.0 Z0.36 E0.17845 F2400
G1 X50.0 Y43.676955 Z0.36 E0.17845 F2400
G1 X56.323045 Y50.0 Z0.36 E0.17845 F2400
G0 X55.757359 Y50.0 Z0.36 F4800
G1 X50.0 Y55.757359 Z0.36 E0.162485 F2400
G1 X44.242641 Y50.0 Z0.36 E0.162485 F2400
G1 X50.0 Y44.242641 Z0.36 E0.162485 F2400
G1 X55.757359 Y50.0 Z0.36 E0.162485 F2400
G0 X55.191674 Y50.0 Z0.36 F4800
G1 X50.0 Y55.191674 Z0.36 E0.14652 F2400
G1 X44.808326 Y50.0 Z0.36 E0.14652 F2400
G1 X50.0 Y44.808326 Z0.36 E0.14652 F2400
G1 X55.191674 Y50.0 Z0.36 E0.14652 F2400
G0 X54.625988 Y50.0 Z0.36 F4800
G1 X50.0 Y54.625988 Z0.36 E0.130555 F2400
G1 X45.374012 Y50.0 Z0.36 E0.130555 F2400
G1 X50.0 Y45.374012 Z0.36 E0.130555 F2400
G1 X54.625988 Y50.0 Z0.36 E0.130555 F2400
G0 X54.060303 Y50.0 Z0.36 F4800
G1 X50.0 Y54.060303 Z0.36 E0.114591 F2400
G1 X45.939697 Y50.0 Z0.36 E0.114591 F2400
G1 X50.0 Y45.939697 Z0.36 E0.114591 F2400
G1 X54.060303 Y50.0 Z0.36 E0.114591 F2400
G0 X53.494618 Y50.0 Z0.36 F4800
G1 X50.0 Y53.494618 Z0.36 E0.098626 F2400
G1 X46.505382 Y50.0 Z0.36 E0.098626 F2400
G1 X50.0 Y46.505382 Z0.36 E0.098626 F2400
G1 X53.494618 Y50.0 Z0.36 E0.098626 F2400
G0 X52.928932 Y50.0 Z0.36 F4800
G1 X50.0 Y52.928932 Z0.36 E0.082661 F2400
G1 X47.071068 Y50.0 Z0.36 E0.082661 F2400
G1 X50.0 Y47.071068 Z0.36 E0.082661 F2400
G1 X52.928932 Y50.0 Z0.36 E0.082661 F2400
G0 X52.363247 Y50.0 Z0.36 F4800
G1 X50.0 Y52.363247 Z0.36 E0.066696 F2400
G1 X47.636753 Y50.0 Z0.36 E0.066696 F2400
G1 X50.0 Y47.636753 Z0.36 E0.066696 F2400
G1 X52.363247 Y50.0 Z0.36 E0.066696 F2400
G0 X51.797561 Y50.0 Z0.36 F4800
G1 X50.0 Y51.797561 Z0.36 E0.050731 F2400
G1 X48.202439 Y50.0 Z0.36 E0.050731 F2400
G1 X50.0 Y48.202439 Z0.36 E0.050731 F2400
G1 X51.797561 Y50.0 Z0.36 E0.050731 F2400
G0 X51.231876 Y50.0 Z0.36 F4800
G1 X50.0 Y51.231876 Z0.36 E0.034766 F2400
G1 X48.768124 Y50.0 Z0.36 E0.034766 F2400
G1 X50.0 Y48.768124 Z0.36 E0.034766 F2400
G1 X51.231876 Y50.0 Z0.36 E0.034766 F2400
G0 X50.66619 Y50.0 Z0.36 F4800
G1 X50.0 Y50.66619 Z0.36 E0.018801 F2400
G1 X49.33381 Y50.0 Z0.36 E0.018801 F2400
G1 X50.0 Y49.33381 Z0.36 E0.018801 F2400
G1 X50.66619 Y50.0 Z0.36 E0.018801 F2400
G1 X50.0 Y59.717157 Z0.48 E0.274239 F2400
G1 X40.282843 Y50.0 Z0.48 E0.274239 F2400
G1 X50.0 Y40.282843 Z0.48 E0.274239 F2400
G1 X59.717157 Y50.0 Z0.48 E0.274239 F2400
G0 X59.151472 Y50.0 Z0.48 F4800
G1 X50.0 Y59.151472 Z0.48 E0.258274 F2400
G1 X40.848528 Y50.0 Z0.48 E0.258274 F2400
G1 X50.0 Y40.848528 Z0.48 E0.258274 F2400
G1 X59.151472 Y50.0 Z0.48 E0.258274 F2400
G0 X58.585786 Y50.0 Z0.48 F4800
G1 X50.0 Y58.585786 Z0.48 E0.242309 F2400
G1 X41.414214 Y50.0 Z0.48 E0.242309 F2400
G1 X50.0 Y41.414214 Z0.48 E0.242309 F2400
G1 X58.585786 Y50.0 Z0.48 E0.242309 F2400
G0 X58.020101 Y50.0 Z0.48 F4800
G1 X50.0 Y58.020101 Z0.48 E0.226345 F2400
G1 X41.979899 Y50.0 Z0.48 E0.226345 F2400
G1 X50.0 Y41.979899 Z0.48 E0.226345 F2400
G1 X58.020101 Y50.0 Z0.48 E0.226345 F2400
G0 X57.454416 Y50.0 Z0.48 F4800
G1 X50.0 Y57.454416 Z0.48 E0.21038 F2400
G1 X42.545584 Y50.0 Z0.48 E0.21038 F2400
G1 X50.0 Y42.545584 Z0.48 E0.21038 F2400
G1 X57.454416 Y50.0 Z0.48 E0.21038 F2400
G0 X56.88873 Y50.0 Z0.48 F4800
G1 X50.0 Y56.88873 Z0.48 E0.194415 F2400
G1 X43.11127 Y50.0 Z0.48 E0.194415 F2400
G1 X50.0 Y43.11127 Z0.48 E0.194415 F2400
G1 X56.88873 Y50.0 Z0.48 E0.194415 F2400
G0 X56.323045 Y50.0 Z0.48 F4800
G1 X50.0 Y56.323045 Z0.48 E0.17845 F2400
G1 X43.676955 Y50.0 Z0.48 E0.17845 F2400
G1 X50.0 Y43.676955 Z0.48 E0.17845 F2400
G1 X56.323045 Y50.0 Z0.48 E0.17845 F2400
G0 X55.757359 Y50.0 Z0.48 F4800
G1 X50.0 Y55.757359 Z0.48 E0.162485 F2400
G1 X44.242641 Y50.0 Z0.48 E0.162485 F2400
G1 X50.0 Y44.242641 Z0.48 E0.162485 F2400
G1 X55.757359 Y50.0 Z0.48 E0.162485 F2400
G0 X55.191674 Y50.0 Z0.48 F4800
G1 X50.0 Y55.191674 Z0.48 E0.14652 F2400
G1 X44.808326 Y50.0 Z0.48 E0.14652 F2400
G1 X50.0 Y44.808326 Z0.48 E0.14652 F2400
G1 X55.191674 Y50.0 Z0.48 E0.14652 F2400
G0 X54.625988 Y50.0 Z0.48 F4800
G1 X50.0 Y54.625988 Z0.48 E0.130555 F2400
G1 X45.374012 Y50.0 Z0.48 E0.130555 F2400
G1 X50.0 Y45.374012 Z0.48 E0.130555 F2400
G1 X54.625988 Y50.0 Z0.48 E0.130555 F2400
G0 X54.060303 Y50.0 Z0.48 F4800
G1 X50.0 Y54.060303 Z0.48 E0.114591 F2400
G1 X45.939697 Y50.0 Z0.48 E0.114591 F2400
G1 X50.0 Y45.939697 Z0.48 E0.114591 F2400
G1 X54.060303 Y50.0 Z0.48 E0.114591 F2400
G0 X53.494618 Y50.0 Z0.48 F4800
G1 X50.0 Y53.494618 Z0.48 E0.098626 F2400
G1 X46.505382 Y50.0 Z0.48 E0.098626 F2400
G1 X50.0 Y46.505382 Z0.48 E0.098626 F2400
G1 X53.494618 Y50.0 Z0.48 E0.098626 F2400
G0 X52.928932 Y50.0 Z0.48 F4800
G1 X50.0 Y52.928932 Z0.48 E0.082661 F2400
G1 X47.071068 Y50.0 Z0.48 E0.082661 F2400
G1 X50.0 Y47.071068 Z0.48 E0.082661 F2400
G1 X52.928932 Y50.0 Z0.48 E0.082661 F2400
G0 X52.363247 Y50.0 Z0.48 F4800
G1 X50.0 Y52.363247 Z0.48 E0.066696 F2400
G1 X47.636753 Y50.0 Z0.48 E0.066696 F2400
G1 X50.0 Y47.636753 Z0.48 E0.066696 F2400
G1 X52.363247 Y50.0 Z0.48 E0.066696 F2400
G0 X51.797561 Y50.0 Z0.48 F4800
G1 X50.0 Y51.797561 Z0.48 E0.050731 F2400
G1 X48.202439 Y50.0 Z0.48 E0.050731 F2400
G1 X50.0 Y48.202439 Z0.48 E0.050731 F2400
G1 X51.797561 Y50.0 Z0.48 E0.050731 F2400
G0 X51.231876 Y50.0 Z0.48 F4800
G1 X50.0 Y51.231876 Z0.48 E0.034766 F2400
G1 X48.768124 Y50.0 Z0.48 E0.034766 F2400
G1 X50.0 Y48.768124 Z0.48 E0.034766 F2400
G1 X51.231876 Y50.0 Z0.48 E0.034766 F2400
G0 X50.66619 Y50.0 Z0.48 F4800
G1 X50.0 Y50.66619 Z0.48 E0.018801 F2400
G1 X49.33381 Y50.0 Z0.48 E0.018801 F2400
G1 X50.0 Y49.33381 Z0.48 E0.018801 F2400
G1 X50.66619 Y50.0 Z0.48 E0.018801 F2400
G1 X50.0 Y59.717157 Z0.6 E0.274239 F2400
G1 X40.282843 Y50.0 Z0.6 E0.274239 F2400
G1 X50.0 Y40.282843 Z0.6 E0.274239 F2400
G1 X59.717157 Y50.0 Z0.6 E0.274239 F2400
G0 X59.151472 Y50.0 Z0.6 F4800
G1 X50.0 Y59.151472 Z0.6 E0.258274 F2400
G1 X40.848528 Y50.0 Z0.6 E0.258274 F2400
G1 X50.0 Y40.848528 Z0.6 E0.258274 F2400
G1 X59.151472 Y50.0 Z0.6 E0.258274 F2400
G0 X58.585786 Y50.0 Z0.6 F4800
G1 X50.0 Y58.585786 Z0.6 E0.242309 F2400
G1 X41.414214 Y50.0 Z0.6 E0.242309 F2400
G1 X50.0 Y41.414214 Z0.6 E0.242309 F2400
G1 X58.585786 Y50.0 Z0.6 E0.242309 F2400
G0 X58.020101 Y50.0 Z0.6 F4800
G1 X50.0 Y58.020101 Z0.6 E0.226345 F2400
G1 X41.979899 Y50.0 Z0.6 E0.226345 F2400
G1 X50.0 Y41.979899 Z0.6 E0.226345 F2400
G1 X58.020101 Y50.0 Z0.6 E0.226345 F2400
G0 X57.454416 Y50.0 Z0.6 F4800
G1 X50.0 Y57.454416 Z0.6 E0.21038 F2400
G1 X42.545584 Y50.0 Z0.6 E0.21038 F2400
G1 X50.0 Y42.545584 Z0.6 E0.21038 F2400
G1 X57.454416 Y50.0 Z0.6 E0.21038 F2400
G0 X56.88873 Y50.0 Z0.6 F4800
G1 X50.0 Y56.88873 Z0.6 E0.194415 F2400
G1 X43.11127 Y50.0 Z0.6 E0.194415 F2400
G1 X50.0 Y43.11127 Z0.6 E0.194415 F2400
G1 X56.88873 Y50.0 Z0.6 E0.194415 F2400
G0 X56.323045 Y50.0 Z0.6 F4800
G1 X50.0 Y56.323045 Z0.6 E0.17845 F2400
G1 X43.676955 Y50.0 Z0.6 E0.17845 F2400
G1 X50.0 Y43.676955 Z0.6 E0.17845 F2400
G1 X56.323045 Y50.0 Z0.6 E0.17845 F2400
G0 X55.757359 Y50.0 Z0.6 F4800
G1 X50.0 Y55.757359 Z0.6 E0.162485 F2400
G1 X44.242641 Y50.0 Z0.6 E0.162485 F2400
G1 X50.0 Y44.242641 Z0.6 E0.162485 F2400
G1 X55.757359 Y50.0 Z0.6 E0.162485 F2400
G0 X55.191674 Y50.0 Z0.6 F4800
G1 X50.0 Y55.191674 Z0.6 E0.14652 F2400
G1 X44.808326 Y50.0 Z0.6 E0.14652 F2400
G1 X50.0 Y44.808326 Z0.6 E0.14652 F2400
G1 X55.191674 Y50.0 Z0.6 E0.14652 F2400
G0 X54.625988 Y50.0 Z0.6 F4800
G1 X50.0 Y54.625988 Z0.6 E0.130555 F2400
G1 X45.374012 Y50.0 Z0.6 E0.130555 F2400
G1 X50.0 Y45.374012 Z0.6 E0.130555 F2400
G1 X54.625988 Y50.0 Z0.6 E0.130555 F2400
G0 X54.060303 Y50.0 Z0.6 F4800
G1 X50.0 Y54.060303 Z0.6 E0.114591 F2400
G1 X45.939697 Y50.0 Z0.6 E0.114591 F2400
G1 X50.0 Y45.939697 Z0.6 E0.114591 F2400
G1 X54.060303 Y50.0 Z0.6 E0.114591 F2400
G0 X53.494618 Y50.0 Z0.6 F4800
G1 X50.0 Y53.494618 Z0.6 E0.098626 F2400
G1 X46.505382 Y50.0 Z0.6 E0.098626 F2400
G1 X50.0 Y46.505382 Z0.6 E0.098626 F2400
G1 X53.494618 Y50.0 Z0.6 E0.098626 F2400
G0 X52.928932 Y50.0 Z0.6 F4800
G1 X50.0 Y52.928932 Z0.6 E0.082661 F2400
G1 X47.071068 Y50.0 Z0.6 E0.082661 F2400
G1 X50.0 Y47.071068 Z0.6 E0.082661 F2400
G1 X52.928932 Y50.0 Z0.6 E0.082661 F2400
G0 X52.363247 Y50.0 Z0.6 F4800
G1 X50.0 Y52.363247 Z0.6 E0.066696 F2400
G1 X47.636753 Y50.0 Z0.6 E0.066696 F2400
G1 X50.0 Y47.636753 Z0.6 E0.066696 F2400
G1 X52.363247 Y50.0 Z0.6 E0.066696 F2400
G0 X51.797561 Y50.0 Z0.6 F4800
G1 X50.0 Y51.797561 Z0.6 E0.050731 F2400
G1 X48.202439 Y50.0 Z0.6 E0.050731 F2400
G1 X50.0 Y48.202439 Z0.6 E0.050731 F2400
G1 X51.797561 Y50.0 Z0.6 E0.050731 F2400
G0 X51.231876 Y50.0 Z0.6 F4800
G1 X50.0 Y51.231876 Z0.6 E0.034766 F2400
G1 X48.768124 Y50.0 Z0.6 E0.034766 F2400
G1 X50.0 Y48.768124 Z0.6 E0.034766 F2400
G1 X51.231876 Y50.0 Z0.6 E0.034766 F2400
G0 X50.66619 Y50.0 Z0.6 F4800
G1 X50.0 Y50.66619 Z0.6 E0.018801 F2400
G1 X49.33381 Y50.0 Z0.6 E0.018801 F2400
G1 X50.0 Y49.33381 Z0.6 E0.018801 F2400
G1 X50.66619 Y50.0 Z0.6 E0.018801 F2400
G1 X50.0 Y59.717157 Z0.72 E0.274239 F2400
G1 X40.282843 Y50.0 Z0.72 E0.274239 F2400
G1 X50.0 Y40.282843 Z0.72 E0.274239 F2400
G1 X59.717157 Y50.0 Z0.72 E0.274239 F2400
G0 X59.151472 Y50.0 Z0.72 F4800
G1 X50.0 Y59.151472 Z0.72 E0.258274 F2400
G1 X40.848528 Y50.0 Z0.72 E0.258274 F2400
G1 X50.0 Y40.848528 Z0.72 E0.258274 F2400
G1 X59.151472 Y50.0 Z0.72 E0.258274 F2400
G0 X58.585786 Y50.0 Z0.72 F4800
G1 X50.0 Y58.585786 Z0.72 E0.242309 F2400
G1 X41.414214 Y50.0 Z0.72 E0.242309 F2400
G1 X50.0 Y41.414214 Z0.72 E0.242309 F2400
G1 X58.585786 Y50.0 Z0.72 E0.242309 F2400
G0 X58.020101 Y50.0 Z0.72 F4800
G1 X50.0 Y58.020101 Z0.72 E0.226345 F2400
G1 X41.979899 Y50.0 Z0.72 E0.226345 F2400
G1 X50.0 Y41.979899 Z0.72 E0.226345 F2400
G1 X58.020101 Y50.0 Z0.72 E0.226345 F2400
G0 X57.454416 Y50.0 Z0.72 F4800
G1 X50.0 Y57.454416 Z0.72 E0.21038 F2400
G1 X42.545584 Y50.0 Z0.72 E0.21038 F2400
G1 X50.0 Y42.545584 Z0.72 E0.21038 F2400
G1 X57.454416 Y50.0 Z0.72 E0.21038 F2400
G0 X56.88873 Y50.0 Z0.72 F4800
G1 X50.0 Y56.88873 Z0.72 E0.194415 F2400
G1 X43.11127 Y50.0 Z0.72 E0.194415 F2400
G1 X50.0 Y43.11127 Z0.72 E0.194415 F2400
G1 X56.88873 Y50.0 Z0.72 E0.194415 F2400
G0 X56.323045 Y50.0 Z0.72 F4800
G1 X50.0 Y56.323045 Z0.72 E0.17845 F2400
G1 X43.676955 Y50.0 Z0.72 E0.17845 F2400
G1 X50.0 Y43.676955 Z0.72 E0.17845 F2400
G1 X56.323045 Y50.0 Z0.72 E0.17845 F2400
G0 X55.757359 Y50.0 Z0.72 F4800
G1 X50.0 Y55.757359 Z0.72 E0.162485 F2400
G1 X44.242641 Y50.0 Z0.72 E0.162485 F2400
G1 X50.0 Y44.242641 Z0.72 E0.162485 F2400
G1 X55.757359 Y50.0 Z0.72 E0.162485 F2400
G0 X55.191674 Y50.0 Z0.72 F4800
G1 X50.0 Y55.191674 Z0.72 E0.14652 F2400
G1 X44.808326 Y50.0 Z0.72 E0.14652 F2400
G1 X50.0 Y44.808326 Z0.72 E0.14652 F2400
G1 X55.191674 Y50.0 Z0.72 E0.14652 F2400
G0 X54.625988 Y50.0 Z0.72 F4800
G1 X50.0 Y54.625988 Z0.72 E0.130555 F2400
G1 X45.374012 Y50.0 Z0.72 E0.130555 F2400
G1 X50.0 Y45.374012 Z0.72 E0.130555 F2400
G1 X54.625988 Y50.0 Z0.72 E0.130555 F2400
G0 X54.060303 Y50.0 Z0.72 F4800
G1 X50.0 Y54.060303 Z0.72 E0.114591 F2400
G1 X45.939697 Y50.0 Z0.72 E0.114591 F2400
G1 X50.0 Y45.939697 Z0.72 E0.114591 F2400
G1 X54.060303 Y50.0 Z0.72 E0.114591 F2400
G0 X53.494618 Y50.0 Z0.72 F4800
G1 X50.0 Y53.494618 Z0.72 E0.098626 F2400
G1 X46.505382 Y50.0 Z0.72 E0.098626 F2400
G1 X50.0 Y46.505382 Z0.72 E0.098626 F2400
G1 X53.494618 Y50.0 Z0.72 E0.098626 F2400
G0 X52.928932 Y50.0 Z0.72 F4800
G1 X50.0 Y52.928932 Z0.72 E0.082661 F2400
G1 X47.071068 Y50.0 Z0.72 E0.082661 F2400
G1 X50.0 Y47.071068 Z0.72 E0.082661 F2400
