;FLAVOR:Marlin 
;Layer height: 0.12 
;Generated with Cura_SteamEngine 4.9.0 
M140 S50.0
M105 
M190 S50.0
M140 S65.0
M104 S205.0
M105 
M109 S205.0
M190 S65.0
M82 ;absolute extrusion mode 
; Ender 3 Custom Start G-code 
G92 E0 ; Reset Extruder 
G1 X0 Y0 Z10 F3000
G1 Z2.0 F3000 ; Move Z Axis up little to prevent scratching of Heat Bed 
G1 X0.1 Y20 Z0.3 F5000.0 ; Move to start position 
G1 X0.1 Y200.0 Z0.3 F1500.0 E15 ; Draw the first line 
G1 X0.4 Y200.0 Z0.3 F5000.0 ; Move to side a little 
G1 X0.4 Y20 Z0.3 F1500.0 E30 ; Draw the second line 
G92 E0 ; Reset Extruder 
G1 Z2.0 F3000 ; Move Z Axis up little to prevent scratching of Heat Bed 
G1 X5 Y20 Z0.3 F5000.0 ; Move over to prevent blob squish 
G92 E0 
G92 E0 
G1 F3000 E-8 
G0 X148.429978 Y110.0 Z0.12 F2400.0
G1 E0.0
G1 X143.281337 Y129.214989 Z0.12 E0.396983 F1200.0
G1 X129.214989 Y143.281337 Z0.12 E0.793966 F1200.0
G1 X110.0 Y148.429978 Z0.12 E1.190949 F1200.0
G1 X90.785011 Y143.281337 Z0.12 E1.587932 F1200.0
G1 X76.718663 Y129.214989 Z0.12 E1.984915 F1200.0
G1 X71.570022 Y110.0 Z0.12 E2.381898 F1200.0
G1 X76.718663 Y90.785011 Z0.12 E2.778881 F1200.0
G1 X90.785011 Y76.718663 Z0.12 E3.175864 F1200.0
G1 X110.0 Y71.570022 Z0.12 E3.572847 F1200.0
G1 X129.214989 Y76.718663 Z0.12 E3.96983 F1200.0
G1 X143.281337 Y90.785011 Z0.12 E4.366813 F1200.0
G1 X148.429978 Y110.0 Z0.12 E4.763796 F1200.0
G0 X148.015867 Y110.0 Z0.12 F2400.0
G1 X142.922707 Y129.007934 Z0.12 E5.156501 F1200.0
G1 X129.007934 Y142.922707 Z0.12 E5.549206 F1200.0
G1 X110.0 Y148.015867 Z0.12 E5.941911 F1200.0
G1 X90.992066 Y142.922707 Z0.12 E6.334616 F1200.0
G1 X77.077293 Y129.007934 Z0.12 E6.727321 F1200.0
G1 X71.984133 Y110.0 Z0.12 E7.120026 F1200.0
G1 X77.077293 Y90.992066 Z0.12 E7.512731 F1200.0
G1 X90.992066 Y77.077293 Z0.12 E7.905436 F1200.0
G1 X110.0 Y71.984133 Z0.12 E8.298141 F1200.0
G1 X129.007934 Y77.077293 Z0.12 E8.690846 F1200.0
G1 X142.922707 Y90.992066 Z0.12 E9.083551 F1200.0
G1 X148.015867 Y110.0 Z0.12 E9.476256 F1200.0
G0 X147.601757 Y110.0 Z0.12 F2400.0
G1 X142.564077 Y128.800878 Z0.12 E9.864683 F1200.0
G1 X128.800878 Y142.564077 Z0.12 E10.25311 F1200.0
G1 X110.0 Y147.601757 Z0.12 E10.641537 F1200.0
G1 X91.199122 Y142.564077 Z0.12 E11.029964 F1200.0
G1 X77.435923 Y128.800878 Z0.12 E11.418391 F1200.0
G1 X72.398243 Y110.0 Z0.12 E11.806818 F1200.0
G1 X77.435923 Y91.199122 Z0.12 E12.195245 F1200.0
G1 X91.199122 Y77.435923 Z0.12 E12.583672 F1200.0
G1 X110.0 Y72.398243 Z0.12 E12.972099 F1200.0
G1 X128.800878 Y77.435923 Z0.12 E13.360526 F1200.0
G1 X142.564077 Y91.199122 Z0.12 E13.748953 F1200.0
G1 X147.601757 Y110.0 Z0.12 E14.13738 F1200.0
G0 X147.187646 Y110.0 Z0.12 F2400.0
G1 X142.205446 Y128.593823 Z0.12 E14.521529 F1200.0
G1 X128.593823 Y142.205446 Z0.12 E14.905678 F1200.0
G1 X110.0 Y147.187646 Z0.12 E15.289827 F1200.0
G1 X91.406177 Y142.205446 Z0.12 E15.673976 F1200.0
G1 X77.794554 Y128.593823 Z0.12 E16.058125 F1200.0
G1 X72.812354 Y110.0 Z0.12 E16.442274 F1200.0
G1 X77.794554 Y91.406177 Z0.12 E16.826423 F1200.0
G1 X91.406177 Y77.794554 Z0.12 E17.210572 F1200.0
G1 X110.0 Y72.812354 Z0.12 E17.594721 F1200.0
G1 X128.593823 Y77.794554 Z0.12 E17.97887 F1200.0
G1 X142.205446 Y91.406177 Z0.12 E18.363019 F1200.0
G1 X147.187646 Y110.0 Z0.12 E18.747168 F1200.0
G0 X146.773536 Y110.0 Z0.12 F2400.0
G1 X141.846816 Y128.386768 Z0.12 E19.12704 F1200.0
G1 X128.386768 Y141.846816 Z0.12 E19.506912 F1200.0
G1 X110.0 Y146.773536 Z0.12 E19.886784 F1200.0
G1 X91.613232 Y141.846816 Z0.12 E20.266656 F1200.0
G1 X78.153184 Y128.386768 Z0.12 E20.646528 F1200.0
G1 X73.226464 Y110.0 Z0.12 E21.0264 F1200.0
G1 X78.153184 Y91.613232 Z0.12 E21.406272 F1200.0
G1 X91.613232 Y78.153184 Z0.12 E21.786144 F1200.0
G1 X110.0 Y73.226464 Z0.12 E22.166016 F1200.0
G1 X128.386768 Y78.153184 Z0.12 E22.545888 F1200.0
G1 X141.846816 Y91.613232 Z0.12 E22.92576 F1200.0
G1 X146.773536 Y110.0 Z0.12 E23.305632 F1200.0
G0 X146.359425 Y110.0 Z0.12 F2400.0
G1 X141.488186 Y128.179713 Z0.12 E23.681226 F1200.0
G1 X128.179713 Y141.488186 Z0.12 E24.05682 F1200.0
G1 X110.0 Y146.359425 Z0.12 E24.432414 F1200.0
G1 X91.820287 Y141.488186 Z0.12 E24.808008 F1200.0
G1 X78.511814 Y128.179713 Z0.12 E25.183602 F1200.0
G1 X73.640575 Y110.0 Z0.12 E25.559196 F1200.0
G1 X78.511814 Y91.820287 Z0.12 E25.93479 F1200.0
G1 X91.820287 Y78.511814 Z0.12 E26.310384 F1200.0
G1 X110.0 Y73.640575 Z0.12 E26.685978 F1200.0
G1 X128.179713 Y78.511814 Z0.12 E27.061572 F1200.0
G1 X141.488186 Y91.820287 Z0.12 E27.437166 F1200.0
G1 X146.359425 Y110.0 Z0.12 E27.81276 F1200.0
G0 X145.945315 Y110.0 Z0.12 F2400.0
G1 X141.129556 Y127.972657 Z0.12 E28.184076 F1200.0
G1 X127.972657 Y141.129556 Z0.12 E28.555392 F1200.0
G1 X110.0 Y145.945315 Z0.12 E28.926708 F1200.0
G1 X92.027343 Y141.129556 Z0.12 E29.298024 F1200.0
G1 X78.870444 Y127.972657 Z0.12 E29.66934 F1200.0
G1 X74.054685 Y110.0 Z0.12 E30.040656 F1200.0
G1 X78.870444 Y92.027343 Z0.12 E30.411972 F1200.0
G1 X92.027343 Y78.870444 Z0.12 E30.783288 F1200.0
G1 X110.0 Y74.054685 Z0.12 E31.154604 F1200.0
G1 X127.972657 Y78.870444 Z0.12 E31.52592 F1200.0
G1 X141.129556 Y92.027343 Z0.12 E31.897236 F1200.0
G1 X145.945315 Y110.0 Z0.12 E32.268552 F1200.0
G0 X145.531205 Y110.0 Z0.12 F2400.0
G1 X140.770926 Y127.765602 Z0.12 E32.63559 F1200.0
G1 X127.765602 Y140.770926 Z0.12 E33.002628 F1200.0
G1 X110.0 Y145.531205 Z0.12 E33.369666 F1200.0
G1 X92.234398 Y140.770926 Z0.12 E33.736704 F1200.0
G1 X79.229074 Y127.765602 Z0.12 E34.103742 F1200.0
G1 X74.468795 Y110.0 Z0.12 E34.47078 F1200.0
G1 X79.229074 Y92.234398 Z0.12 E34.837818 F1200.0
G1 X92.234398 Y79.229074 Z0.12 E35.204856 F1200.0
G1 X110.0 Y74.468795 Z0.12 E35.571894 F1200.0
G1 X127.765602 Y79.229074 Z0.12 E35.938932 F1200.0
G1 X140.770926 Y92.234398 Z0.12 E36.30597 F1200.0
G1 X145.531205 Y110.0 Z0.12 E36.673008 F1200.0
G0 X145.117094 Y110.0 Z0.12 F2400.0
G1 X140.412296 Y127.558547 Z0.12 E37.035769 F1200.0
G1 X127.558547 Y140.412296 Z0.12 E37.39853 F1200.0
G1 X110.0 Y145.117094 Z0.12 E37.761291 F1200.0
G1 X92.441453 Y140.412296 Z0.12 E38.124052 F1200.0
G1 X79.587704 Y127.558547 Z0.12 E38.486813 F1200.0
G1 X74.882906 Y110.0 Z0.12 E38.849574 F1200.0
G1 X79.587704 Y92.441453 Z0.12 E39.212335 F1200.0
G1 X92.441453 Y79.587704 Z0.12 E39.575096 F1200.0
G1 X110.0 Y74.882906 Z0.12 E39.937857 F1200.0
G1 X127.558547 Y79.587704 Z0.12 E40.300618 F1200.0
G1 X140.412296 Y92.441453 Z0.12 E40.663379 F1200.0
G1 X145.117094 Y110.0 Z0.12 E41.02614 F1200.0
G0 X144.702984 Y110.0 Z0.12 F2400.0
G1 X140.053665 Y127.351492 Z0.12 E41.384623 F1200.0
G1 X127.351492 Y140.053665 Z0.12 E41.743106 F1200.0
G1 X110.0 Y144.702984 Z0.12 E42.101589 F1200.0
G1 X92.648508 Y140.053665 Z0.12 E42.460072 F1200.0
G1 X79.946335 Y127.351492 Z0.12 E42.818555 F1200.0
G1 X75.297016 Y110.0 Z0.12 E43.177038 F1200.0
G1 X79.946335 Y92.648508 Z0.12 E43.535521 F1200.0
G1 X92.648508 Y79.946335 Z0.12 E43.894004 F1200.0
G1 X110.0 Y75.297016 Z0.12 E44.252487 F1200.0
G1 X127.351492 Y79.946335 Z0.12 E44.61097 F1200.0
G1 X140.053665 Y92.648508 Z0.12 E44.969453 F1200.0
G1 X144.702984 Y110.0 Z0.12 E45.327936 F1200.0
G0 X144.288873 Y110.0 Z0.12 F2400.0
G1 X139.695035 Y127.144437 Z0.12 E45.682141 F1200.0
G1 X127.144437 Y139.695035 Z0.12 E46.036346 F1200.0
G1 X110.0 Y144.288873 Z0.12 E46.390551 F1200.0
G1 X92.855563 Y139.695035 Z0.12 E46.744756 F1200.0
G1 X80.304965 Y127.144437 Z0.12 E47.098961 F1200.0
G1 X75.711127 Y110.0 Z0.12 E47.453166 F1200.0
G1 X80.304965 Y92.855563 Z0.12 E47.807371 F1200.0
G1 X92.855563 Y80.304965 Z0.12 E48.161576 F1200.0
G1 X110.0 Y75.711127 Z0.12 E48.515781 F1200.0
G1 X127.144437 Y80.304965 Z0.12 E48.869986 F1200.0
G1 X139.695035 Y92.855563 Z0.12 E49.224191 F1200.0
G1 X144.288873 Y110.0 Z0.12 E49.578396 F1200.0
G0 X143.874763 Y110.0 Z0.12 F2400.0
G1 X139.336405 Y126.937381 Z0.12 E49.928323 F1200.0
G1 X126.937381 Y139.336405 Z0.12 E50.27825 F1200.0
G1 X110.0 Y143.874763 Z0.12 E50.628177 F1200.0
G1 X93.062619 Y139.336405 Z0.12 E50.978104 F1200.0
G1 X80.663595 Y126.937381 Z0.12 E51.328031 F1200.0
G1 X76.125237 Y110.0 Z0.12 E51.677958 F1200.0
G1 X80.663595 Y93.062619 Z0.12 E52.027885 F1200.0
G1 X93.062619 Y80.663595 Z0.12 E52.377812 F1200.0
G1 X110.0 Y76.125237 Z0.12 E52.727739 F1200.0
G1 X126.937381 Y80.663595 Z0.12 E53.077666 F1200.0
G1 X139.336405 Y93.062619 Z0.12 E53.427593 F1200.0
G1 X143.874763 Y110.0 Z0.12 E53.77752 F1200.0
G0 X143.460652 Y110.0 Z0.12 F2400.0
G1 X138.977775 Y126.730326 Z0.12 E54.123169 F1200.0
G1 X126.730326 Y138.977775 Z0.12 E54.468818 F1200.0
G1 X110.0 Y143.460652 Z0.12 E54.814467 F1200.0
G1 X93.269674 Y138.977775 Z0.12 E55.160116 F1200.0
G1 X81.022225 Y126.730326 Z0.12 E55.505765 F1200.0
G1 X76.539348 Y110.0 Z0.12 E55.851414 F1200.0
G1 X81.022225 Y93.269674 Z0.12 E56.197063 F1200.0
G1 X93.269674 Y81.022225 Z0.12 E56.542712 F1200.0
G1 X110.0 Y76.539348 Z0.12 E56.888361 F1200.0
G1 X126.730326 Y81.022225 Z0.12 E57.23401 F1200.0
G1 X138.977775 Y93.269674 Z0.12 E57.579659 F1200.0
G1 X143.460652 Y110.0 Z0.12 E57.925308 F1200.0
G0 X143.046542 Y110.0 Z0.12 F2400.0
G1 X138.619145 Y126.523271 Z0.12 E58.26668 F1200.0
G1 X126.523271 Y138.619145 Z0.12 E58.608052 F1200.0
G1 X110.0 Y143.046542 Z0.12 E58.949424 F1200.0
G1 X93.476729 Y138.619145 Z0.12 E59.290796 F1200.0
G1 X81.380855 Y126.523271 Z0.12 E59.632168 F1200.0
G1 X76.953458 Y110.0 Z0.12 E59.97354 F1200.0
G1 X81.380855 Y93.476729 Z0.12 E60.314912 F1200.0
G1 X93.476729 Y81.380855 Z0.12 E60.656284 F1200.0
G1 X110.0 Y76.953458 Z0.12 E60.997656 F1200.0
G1 X126.523271 Y81.380855 Z0.12 E61.339028 F1200.0
G1 X138.619145 Y93.476729 Z0.12 E61.6804 F1200.0
G1 X143.046542 Y110.0 Z0.12 E62.021772 F1200.0
G0 X142.632431 Y110.0 Z0.12 F2400.0
G1 X138.260514 Y126.316216 Z0.12 E62.358866 F1200.0
G1 X126.316216 Y138.260514 Z0.12 E62.69596 F1200.0
G1 X110.0 Y142.632431 Z0.12 E63.033054 F1200.0
G1 X93.683784 Y138.260514 Z0.12 E63.370148 F1200.0
G1 X81.739486 Y126.316216 Z0.12 E63.707242 F1200.0
G1 X77.367569 Y110.0 Z0.12 E64.044336 F1200.0
G1 X81.739486 Y93.683784 Z0.12 E64.38143 F1200.0
G1 X93.683784 Y81.739486 Z0.12 E64.718524 F1200.0
G1 X110.0 Y77.367569 Z0.12 E65.055618 F1200.0
G1 X126.316216 Y81.739486 Z0.12 E65.392712 F1200.0
G1 X138.260514 Y93.683784 Z0.12 E65.729806 F1200.0
G1 X142.632431 Y110.0 Z0.12 E66.0669 F1200.0
G0 X142.218321 Y110.0 Z0.12 F2400.0
G1 X137.901884 Y126.10916 Z0.12 E66.399716 F1200.0
G1 X126.10916 Y137.901884 Z0.12 E66.732532 F1200.0
G1 X110.0 Y142.218321 Z0.12 E67.065348 F1200.0
G1 X93.89084 Y137.901884 Z0.12 E67.398164 F1200.0
G1 X82.098116 Y126.10916 Z0.12 E67.73098 F1200.0
G1 X77.781679 Y110.0 Z0.12 E68.063796 F1200.0
G1 X82.098116 Y93.89084 Z0.12 E68.396612 F1200.0
G1 X93.89084 Y82.098116 Z0.12 E68.729428 F1200.0
G1 X110.0 Y77.781679 Z0.12 E69.062244 F1200.0
G1 X126.10916 Y82.098116 Z0.12 E69.39506 F1200.0
G1 X137.901884 Y93.89084 Z0.12 E69.727876 F1200.0
G1 X142.218321 Y110.0 Z0.12 E70.060692 F1200.0
G0 X141.80421 Y110.0 Z0.12 F2400.0
G1 X137.543254 Y125.902105 Z0.12 E70.38923 F1200.0
G1 X125.902105 Y137.543254 Z0.12 E70.717768 F1200.0
G1 X110.0 Y141.80421 Z0.12 E71.046306 F1200.0
G1 X94.097895 Y137.543254 Z0.12 E71.374844 F1200.0
G1 X82.456746 Y125.902105 Z0.12 E71.703382 F1200.0
G1 X78.19579 Y110.0 Z0.12 E72.03192 F1200.0
G1 X82.456746 Y94.097895 Z0.12 E72.360458 F1200.0
G1 X94.097895 Y82.456746 Z0.12 E72.688996 F1200.0
G1 X110.0 Y78.19579 Z0.12 E73.017534 F1200.0
G1 X125.902105 Y82.456746 Z0.12 E73.346072 F1200.0
G1 X137.543254 Y94.097895 Z0.12 E73.67461 F1200.0
G1 X141.80421 Y110.0 Z0.12 E74.003148 F1200.0
G0 X141.3901 Y110.0 Z0.12 F2400.0
G1 X137.184624 Y125.69505 Z0.12 E74.327409 F1200.0
G1 X125.69505 Y137.184624 Z0.12 E74.65167 F1200.0
G1 X110.0 Y141.3901 Z0.12 E74.975931 F1200.0
G1 X94.30495 Y137.184624 Z0.12 E75.300192 F1200.0
G1 X82.815376 Y125.69505 Z0.12 E75.624453 F1200.0
G1 X78.6099 Y110.0 Z0.12 E75.948714 F1200.0
G1 X82.815376 Y94.30495 Z0.12 E76.272975 F1200.0
G1 X94.30495 Y82.815376 Z0.12 E76.597236 F1200.0
G1 X110.0 Y78.6099 Z0.12 E76.921497 F1200.0
G1 X125.69505 Y82.815376 Z0.12 E77.245758 F1200.0
G1 X137.184624 Y94.30495 Z0.12 E77.570019 F1200.0
G1 X141.3901 Y110.0 Z0.12 E77.89428 F1200.0
G0 X140.975989 Y110.0 Z0.12 F2400.0
G1 X136.825994 Y125.487995 Z0.12 E78.214263 F1200.0
G1 X125.487995 Y136.825994 Z0.12 E78.534246 F1200.0
G1 X110.0 Y140.975989 Z0.12 E78.854229 F1200.0
G1 X94.512005 Y136.825994 Z0.12 E79.174212 F1200.0
G1 X83.174006 Y125.487995 Z0.12 E79.494195 F1200.0
G1 X79.024011 Y110.0 Z0.12 E79.814178 F1200.0
G1 X83.174006 Y94.512005 Z0.12 E80.134161 F1200.0
G1 X94.512005 Y83.174006 Z0.12 E80.454144 F1200.0
G1 X110.0 Y79.024011 Z0.12 E80.774127 F1200.0
G1 X125.487995 Y83.174006 Z0.12 E81.09411 F1200.0
G1 X136.825994 Y94.512005 Z0.12 E81.414093 F1200.0
G1 X140.975989 Y110.0 Z0.12 E81.734076 F1200.0
G0 X140.561879 Y110.0 Z0.12 F2400.0
G1 X136.467363 Y125.280939 Z0.12 E82.049781 F1200.0
G1 X125.280939 Y136.467363 Z0.12 E82.365486 F1200.0
G1 X110.0 Y140.561879 Z0.12 E82.681191 F1200.0
G1 X94.719061 Y136.467363 Z0.12 E82.996896 F1200.0
G1 X83.532637 Y125.280939 Z0.12 E83.312601 F1200.0
G1 X79.438121 Y110.0 Z0.12 E83.628306 F1200.0
G1 X83.532637 Y94.719061 Z0.12 E83.944011 F1200.0
G1 X94.719061 Y83.532637 Z0.12 E84.259716 F1200.0
G1 X110.0 Y79.438121 Z0.12 E84.575421 F1200.0
G1 X125.280939 Y83.532637 Z0.12 E84.891126 F1200.0
G1 X136.467363 Y94.719061 Z0.12 E85.206831 F1200.0
G1 X140.561879 Y110.0 Z0.12 E85.522536 F1200.0
G0 X140.147768 Y110.0 Z0.12 F2400.0
G1 X136.108733 Y125.073884 Z0.12 E85.833963 F1200.0
G1 X125.073884 Y136.108733 Z0.12 E86.14539 F1200.0
G1 X110.0 Y140.147768 Z0.12 E86.456817 F1200.0
G1 X94.926116 Y136.108733 Z0.12 E86.768244 F1200.0
G1 X83.891267 Y125.073884 Z0.12 E87.079671 F1200.0
G1 X79.852232 Y110.0 Z0.12 E87.391098 F1200.0
G1 X83.891267 Y94.926116 Z0.12 E87.702525 F1200.0
G1 X94.926116 Y83.891267 Z0.12 E88.013952 F1200.0
G1 X110.0 Y79.852232 Z0.12 E88.325379 F1200.0
G1 X125.073884 Y83.891267 Z0.12 E88.636806 F1200.0
G1 X136.108733 Y94.926116 Z0.12 E88.948233 F1200.0
G1 X140.147768 Y110.0 Z0.12 E89.25966 F1200.0
G0 X139.733658 Y110.0 Z0.12 F2400.0
G1 X135.750103 Y124.866829 Z0.12 E89.56681 F1200.0
G1 X124.866829 Y135.750103 Z0.12 E89.87396 F1200.0
G1 X110.0 Y139.733658 Z0.12 E90.18111 F1200.0
G1 X95.133171 Y135.750103 Z0.12 E90.48826 F1200.0
G1 X84.249897 Y124.866829 Z0.12 E90.79541 F1200.0
G1 X80.266342 Y110.0 Z0.12 E91.10256 F1200.0
G1 X84.249897 Y95.133171 Z0.12 E91.40971 F1200.0
G1 X95.133171 Y84.249897 Z0.12 E91.71686 F1200.0
G1 X110.0 Y80.266342 Z0.12 E92.02401 F1200.0
G1 X124.866829 Y84.249897 Z0.12 E92.33116 F1200.0
G1 X135.750103 Y95.133171 Z0.12 E92.63831 F1200.0
G1 X139.733658 Y110.0 Z0.12 E92.94546 F1200.0
G0 X139.319547 Y110.0 Z0.12 F2400.0
G1 X135.391473 Y124.659774 Z0.12 E93.248332 F1200.0
G1 X124.659774 Y135.391473 Z0.12 E93.551204 F1200.0
G1 X110.0 Y139.319547 Z0.12 E93.854076 F1200.0
G1 X95.340226 Y135.391473 Z0.12 E94.156948 F1200.0
G1 X84.608527 Y124.659774 Z0.12 E94.45982 F1200.0
G1 X80.680453 Y110.0 Z0.12 E94.762692 F1200.0
G1 X84.608527 Y95.340226 Z0.12 E95.065564 F1200.0
G1 X95.340226 Y84.608527 Z0.12 E95.368436 F1200.0
G1 X110.0 Y80.680453 Z0.12 E95.671308 F1200.0
G1 X124.659774 Y84.608527 Z0.12 E95.97418 F1200.0
G1 X135.391473 Y95.340226 Z0.12 E96.277052 F1200.0
G1 X139.319547 Y110.0 Z0.12 E96.579924 F1200.0
G0 X138.905437 Y110.0 Z0.12 F2400.0
G1 X135.032843 Y124.452718 Z0.12 E96.878518 F1200.0
G1 X124.452718 Y135.032843 Z0.12 E97.177112 F1200.0
G1 X110.0 Y138.905437 Z0.12 E97.475706 F1200.0
G1 X95.547282 Y135.032843 Z0.12 E97.7743 F1200.0
G1 X84.967157 Y124.452718 Z0.12 E98.072894 F1200.0
G1 X81.094563 Y110.0 Z0.12 E98.371488 F1200.0
G1 X84.967157 Y95.547282 Z0.12 E98.670082 F1200.0
G1 X95.547282 Y84.967157 Z0.12 E98.968676 F1200.0
G1 X110.0 Y81.094563 Z0.12 E99.26727 F1200.0
G1 X124.452718 Y84.967157 Z0.12 E99.565864 F1200.0
G1 X135.032843 Y95.547282 Z0.12 E99.864458 F1200.0
G1 X138.905437 Y110.0 Z0.12 E100.163052 F1200.0
G0 X138.491326 Y110.0 Z0.12 F2400.0
G1 X134.674213 Y124.245663 Z0.12 E100.457368 F1200.0
G1 X124.245663 Y134.674213 Z0.12 E100.751684 F1200.0
G1 X110.0 Y138.491326 Z0.12 E101.046 F1200.0
G1 X95.754337 Y134.674213 Z0.12 E101.340316 F1200.0
