;FLAVOR:Marlin 
;Layer height: 0.12 
;Generated with Cura_SteamEngine 4.9.0 
M140 S50
M105 
M190 S50
M140 S65
M104 S205
M105 
M109 S205
M190 S65
M82 ;absolute extrusion mode 
; Ender 3 Custom Start G-code 
G92 E0 ; Reset Extruder 
G1 X0 Y0 Z10 F3000
G1 Z2.0 F3000 ; Move Z Axis up little to prevent scratching of Heat Bed 
G1 X0.1 Y20 Z0.3 F5000.0 ; Move to start position 
G1 X0.1 Y200.0 Z0.3 F1500.0 E15 ; Draw the first line 
G1 X0.4 Y200.0 Z0.3 F5000.0 ; Move to side a little 
G1 X0.4 Y20 Z0.3 F1500.0 E30 ; Draw the second line 
G92 E0 ; Reset Extruder 
G1 Z2.0 F3000 ; Move Z Axis up little to prevent scratching of Heat Bed 
G1 X5 Y20 Z0.3 F5000.0 ; Move over to prevent blob squish 
G92 E0 
G92 E0 
G1 F3000 E-8 
G0 X119.711325 Y110.0 Z0.24 F2400
G1 E0.0
G1 X114.855662 Y118.410254 Z0.24 E0.4845 F1200
G1 X105.144338 Y118.410254 Z0.24 E0.969 F1200
G1 X100.288675 Y110.0 Z0.24 E1.4535 F1200
G1 X105.144338 Y101.589746 Z0.24 E1.938 F1200
G1 X114.855662 Y101.589746 Z0.24 E2.4225 F1200
G1 X119.711325 Y110.0 Z0.24 E2.907 F1200
G0 X119.133975 Y110.0 Z0.24 F2400
G1 X114.566987 Y117.910254 Z0.24 E3.362696 F1200
G1 X105.433013 Y117.910254 Z0.24 E3.818392 F1200
G1 X100.866025 Y110.0 Z0.24 E4.274088 F1200
G1 X105.433013 Y102.089746 Z0.24 E4.729784 F1200
G1 X114.566987 Y102.089746 Z0.24 E5.18548 F1200
G1 X119.133975 Y110.0 Z0.24 E5.641176 F1200
G0 X118.556624 Y110.0 Z0.24 F2400
G1 X114.278312 Y117.410254 Z0.24 E6.068068 F1200
G1 X105.721688 Y117.410254 Z0.24 E6.49496 F1200
G1 X101.443376 Y110.0 Z0.24 E6.921852 F1200
G1 X105.721688 Y102.589746 Z0.24 E7.348744 F1200
G1 X114.278312 Y102.589746 Z0.24 E7.775636 F1200
G1 X118.556624 Y110.0 Z0.24 E8.202528 F1200
G0 X117.979274 Y110.0 Z0.24 F2400
G1 X113.989637 Y116.910254 Z0.24 E8.600616 F1200
G1 X106.010363 Y116.910254 Z0.24 E8.998704 F1200
G1 X102.020726 Y110.0 Z0.24 E9.396792 F1200
G1 X106.010363 Y103.089746 Z0.24 E9.79488 F1200
G1 X113.989637 Y103.089746 Z0.24 E10.192968 F1200
G1 X117.979274 Y110.0 Z0.24 E10.591056 F1200
G0 X117.401924 Y110.0 Z0.24 F2400
G1 X113.700962 Y116.410254 Z0.24 E10.960339 F1200
G1 X106.299038 Y116.410254 Z0.24 E11.329622 F1200
G1 X102.598076 Y110.0 Z0.24 E11.698905 F1200
G1 X106.299038 Y103.589746 Z0.24 E12.068188 F1200
G1 X113.700962 Y103.589746 Z0.24 E12.437471 F1200
G1 X117.401924 Y110.0 Z0.24 E12.806754 F1200
G0 X116.824574 Y110.0 Z0.24 F2400
G1 X113.412287 Y115.910254 Z0.24 E13.147233 F1200
G1 X106.587713 Y115.910254 Z0.24 E13.487712 F1200
G1 X103.175426 Y110.0 Z0.24 E13.828191 F1200
G1 X106.587713 Y104.089746 Z0.24 E14.16867 F1200
G1 X113.412287 Y104.089746 Z0.24 E14.509149 F1200
G1 X116.824574 Y110.0 Z0.24 E14.849628 F1200
G0 X116.247223 Y110.0 Z0.24 F2400
G1 X113.123612 Y115.410254 Z0.24 E15.161303 F1200
G1 X106.876388 Y115.410254 Z0.24 E15.472978 F1200
G1 X103.752777 Y110.0 Z0.24 E15.784653 F1200
G1 X106.876388 Y104.589746 Z0.24 E16.096328 F1200
G1 X113.123612 Y104.589746 Z0.24 E16.408003 F1200
G1 X116.247223 Y110.0 Z0.24 E16.719678 F1200
G0 X115.669873 Y110.0 Z0.24 F2400
G1 X112.834936 Y114.910254 Z0.24 E17.002549 F1200
G1 X107.165064 Y114.910254 Z0.24 E17.28542 F1200
G1 X104.330127 Y110.0 Z0.24 E17.568291 F1200
G1 X107.165064 Y105.089746 Z0.24 E17.851162 F1200
G1 X112.834936 Y105.089746 Z0.24 E18.134033 F1200
G1 X115.669873 Y110.0 Z0.24 E18.416904 F1200
G0 X115.092523 Y110.0 Z0.24 F2400
G1 X112.546261 Y114.410254 Z0.24 E18.670971 F1200
G1 X107.453739 Y114.410254 Z0.24 E18.925038 F1200
G1 X104.907477 Y110.0 Z0.24 E19.179105 F1200
G1 X107.453739 Y105.589746 Z0.24 E19.433172 F1200
G1 X112.546261 Y105.589746 Z0.24 E19.687239 F1200
G1 X115.092523 Y110.0 Z0.24 E19.941306 F1200
G0 X114.515172 Y110.0 Z0.24 F2400
G1 X112.257586 Y113.910254 Z0.24 E20.166569 F1200
G1 X107.742414 Y113.910254 Z0.24 E20.391832 F1200
G1 X105.484828 Y110.0 Z0.24 E20.617095 F1200
G1 X107.742414 Y106.089746 Z0.24 E20.842358 F1200
G1 X112.257586 Y106.089746 Z0.24 E21.067621 F1200
G1 X114.515172 Y110.0 Z0.24 E21.292884 F1200
G0 X113.937822 Y110.0 Z0.24 F2400
G1 X111.968911 Y113.410254 Z0.24 E21.489343 F1200
G1 X108.031089 Y113.410254 Z0.24 E21.685802 F1200
G1 X106.062178 Y110.0 Z0.24 E21.882261 F1200
G1 X108.031089 Y106.589746 Z0.24 E22.07872 F1200
G1 X111.968911 Y106.589746 Z0.24 E22.275179 F1200
G1 X113.937822 Y110.0 Z0.24 E22.471638 F1200
G0 X113.360472 Y110.0 Z0.24 F2400
G1 X111.680236 Y112.910254 Z0.24 E22.639293 F1200
G1 X108.319764 Y112.910254 Z0.24 E22.806948 F1200
G1 X106.639528 Y110.0 Z0.24 E22.974603 F1200
G1 X108.319764 Y107.089746 Z0.24 E23.142258 F1200
G1 X111.680236 Y107.089746 Z0.24 E23.309913 F1200
G1 X113.360472 Y110.0 Z0.24 E23.477568 F1200
G0 X112.783122 Y110.0 Z0.24 F2400
G1 X111.391561 Y112.410254 Z0.24 E23.616419 F1200
G1 X108.608439 Y112.410254 Z0.24 E23.75527 F1200
G1 X107.216878 Y110.0 Z0.24 E23.894121 F1200
G1 X108.608439 Y107.589746 Z0.24 E24.032972 F1200
G1 X111.391561 Y107.589746 Z0.24 E24.171823 F1200
G1 X112.783122 Y110.0 Z0.24 E24.310674 F1200
G0 X112.205771 Y110.0 Z0.24 F2400
G1 X111.102886 Y111.910254 Z0.24 E24.42072 F1200
G1 X108.897114 Y111.910254 Z0.24 E24.530766 F1200
G1 X107.794229 Y110.0 Z0.24 E24.640812 F1200
G1 X108.897114 Y108.089746 Z0.24 E24.750858 F1200
G1 X111.102886 Y108.089746 Z0.24 E24.860904 F1200
G1 X112.205771 Y110.0 Z0.24 E24.97095 F1200
G0 X111.628421 Y110.0 Z0.24 F2400
G1 X110.814211 Y111.410254 Z0.24 E25.052192 F1200
G1 X109.185789 Y111.410254 Z0.24 E25.133434 F1200
G1 X108.371579 Y110.0 Z0.24 E25.214676 F1200
G1 X109.185789 Y108.589746 Z0.24 E25.295918 F1200
G1 X110.814211 Y108.589746 Z0.24 E25.37716 F1200
G1 X111.628421 Y110.0 Z0.24 E25.458402 F1200
G0 X111.051071 Y110.0 Z0.24 F2400
G1 X110.525535 Y110.910254 Z0.24 E25.51084 F1200
G1 X109.474465 Y110.910254 Z0.24 E25.563278 F1200
G1 X108.948929 Y110.0 Z0.24 E25.615716 F1200
G1 X109.474465 Y109.089746 Z0.24 E25.668154 F1200
G1 X110.525535 Y109.089746 Z0.24 E25.720592 F1200
G1 X111.051071 Y110.0 Z0.24 E25.77303 F1200
G0 X110.473721 Y110.0 Z0.24 F2400
G1 X110.23686 Y110.410254 Z0.24 E25.796664 F1200
G1 X109.76314 Y110.410254 Z0.24 E25.820298 F1200
G1 X109.526279 Y110.0 Z0.24 E25.843932 F1200
G1 X109.76314 Y109.589746 Z0.24 E25.867566 F1200
G1 X110.23686 Y109.589746 Z0.24 E25.8912 F1200
G1 X110.473721 Y110.0 Z0.24 E25.914834 F1200
G1 E17.914834
M104 S200
M140 S60
G0 X119.76906 Y110.0 Z0.24 F4800
G0 X119.76906 Y110.0 Z0.36 F4800
G1 E25.914834
G1 X114.88453 Y118.460254 Z0.36 E26.109786 F2400
G1 X105.11547 Y118.460254 Z0.36 E26.304738 F2400
G1 X100.23094 Y110.0 Z0.36 E26.49969 F2400
G1 X105.11547 Y101.539746 Z0.36 E26.694642 F2400
G1 X114.88453 Y101.539746 Z0.36 E26.889594 F2400
G1 X119.76906 Y110.0 Z0.36 E27.084546 F2400
G0 X119.30718 Y110.0 Z0.36 F4800
G1 X114.65359 Y118.060254 Z0.36 E27.270281 F2400
G1 X105.34641 Y118.060254 Z0.36 E27.456016 F2400
G1 X100.69282 Y110.0 Z0.36 E27.641751 F2400
G1 X105.34641 Y101.939746 Z0.36 E27.827486 F2400
G1 X114.65359 Y101.939746 Z0.36 E28.013221 F2400
G1 X119.30718 Y110.0 Z0.36 E28.198956 F2400
G0 X118.845299 Y110.0 Z0.36 F4800
G1 X114.42265 Y117.660254 Z0.36 E28.375474 F2400
G1 X105.57735 Y117.660254 Z0.36 E28.551992 F2400
G1 X101.154701 Y110.0 Z0.36 E28.72851 F2400
G1 X105.57735 Y102.339746 Z0.36 E28.905028 F2400
G1 X114.42265 Y102.339746 Z0.36 E29.081546 F2400
G1 X118.845299 Y110.0 Z0.36 E29.258064 F2400
G0 X118.383419 Y110.0 Z0.36 F4800
G1 X114.19171 Y117.260254 Z0.36 E29.425364 F2400
G1 X105.80829 Y117.260254 Z0.36 E29.592664 F2400
G1 X101.616581 Y110.0 Z0.36 E29.759964 F2400
G1 X105.80829 Y102.739746 Z0.36 E29.927264 F2400
G1 X114.19171 Y102.739746 Z0.36 E30.094564 F2400
G1 X118.383419 Y110.0 Z0.36 E30.261864 F2400
G0 X117.921539 Y110.0 Z0.36 F4800
G1 X113.96077 Y116.860254 Z0.36 E30.419947 F2400
G1 X106.03923 Y116.860254 Z0.36 E30.57803 F2400
G1 X102.078461 Y110.0 Z0.36 E30.736113 F2400
G1 X106.03923 Y103.139746 Z0.36 E30.894196 F2400
G1 X113.96077 Y103.139746 Z0.36 E31.052279 F2400
G1 X117.921539 Y110.0 Z0.36 E31.210362 F2400
G0 X117.459659 Y110.0 Z0.36 F4800
G1 X113.729829 Y116.460254 Z0.36 E31.359228 F2400
G1 X106.270171 Y116.460254 Z0.36 E31.508094 F2400
G1 X102.540341 Y110.0 Z0.36 E31.65696 F2400
G1 X106.270171 Y103.539746 Z0.36 E31.805826 F2400
G1 X113.729829 Y103.539746 Z0.36 E31.954692 F2400
G1 X117.459659 Y110.0 Z0.36 E32.103558 F2400
G0 X116.997779 Y110.0 Z0.36 F4800
G1 X113.498889 Y116.060254 Z0.36 E32.243206 F2400
G1 X106.501111 Y116.060254 Z0.36 E32.382854 F2400
G1 X103.002221 Y110.0 Z0.36 E32.522502 F2400
G1 X106.501111 Y103.939746 Z0.36 E32.66215 F2400
G1 X113.498889 Y103.939746 Z0.36 E32.801798 F2400
G1 X116.997779 Y110.0 Z0.36 E32.941446 F2400
G0 X116.535898 Y110.0 Z0.36 F4800
G1 X113.267949 Y115.660254 Z0.36 E33.071877 F2400
G1 X106.732051 Y115.660254 Z0.36 E33.202308 F2400
G1 X103.464102 Y110.0 Z0.36 E33.332739 F2400
G1 X106.732051 Y104.339746 Z0.36 E33.46317 F2400
G1 X113.267949 Y104.339746 Z0.36 E33.593601 F2400
G1 X116.535898 Y110.0 Z0.36 E33.724032 F2400
G0 X116.074018 Y110.0 Z0.36 F4800
G1 X113.037009 Y115.260254 Z0.36 E33.845246 F2400
G1 X106.962991 Y115.260254 Z0.36 E33.96646 F2400
G1 X103.925982 Y110.0 Z0.36 E34.087674 F2400
G1 X106.962991 Y104.739746 Z0.36 E34.208888 F2400
G1 X113.037009 Y104.739746 Z0.36 E34.330102 F2400
G1 X116.074018 Y110.0 Z0.36 E34.451316 F2400
G0 X115.612138 Y110.0 Z0.36 F4800
G1 X112.806069 Y114.860254 Z0.36 E34.563312 F2400
G1 X107.193931 Y114.860254 Z0.36 E34.675308 F2400
G1 X104.387862 Y110.0 Z0.36 E34.787304 F2400
G1 X107.193931 Y105.139746 Z0.36 E34.8993 F2400
G1 X112.806069 Y105.139746 Z0.36 E35.011296 F2400
G1 X115.612138 Y110.0 Z0.36 E35.123292 F2400
G0 X115.150258 Y110.0 Z0.36 F4800
G1 X112.575129 Y114.460254 Z0.36 E35.226071 F2400
G1 X107.424871 Y114.460254 Z0.36 E35.32885 F2400
G1 X104.849742 Y110.0 Z0.36 E35.431629 F2400
G1 X107.424871 Y105.539746 Z0.36 E35.534408 F2400
G1 X112.575129 Y105.539746 Z0.36 E35.637187 F2400
G1 X115.150258 Y110.0 Z0.36 E35.739966 F2400
G0 X114.688378 Y110.0 Z0.36 F4800
G1 X112.344189 Y114.060254 Z0.36 E35.833528 F2400
G1 X107.655811 Y114.060254 Z0.36 E35.92709 F2400
G1 X105.311622 Y110.0 Z0.36 E36.020652 F2400
G1 X107.655811 Y105.939746 Z0.36 E36.114214 F2400
G1 X112.344189 Y105.939746 Z0.36 E36.207776 F2400
G1 X114.688378 Y110.0 Z0.36 E36.301338 F2400
G0 X114.226497 Y110.0 Z0.36 F4800
G1 X112.113249 Y113.660254 Z0.36 E36.385682 F2400
G1 X107.886751 Y113.660254 Z0.36 E36.470026 F2400
G1 X105.773503 Y110.0 Z0.36 E36.55437 F2400
G1 X107.886751 Y106.339746 Z0.36 E36.638714 F2400
G1 X112.113249 Y106.339746 Z0.36 E36.723058 F2400
G1 X114.226497 Y110.0 Z0.36 E36.807402 F2400
G0 X113.764617 Y110.0 Z0.36 F4800
G1 X111.882309 Y113.260254 Z0.36 E36.882529 F2400
G1 X108.117691 Y113.260254 Z0.36 E36.957656 F2400
G1 X106.235383 Y110.0 Z0.36 E37.032783 F2400
G1 X108.117691 Y106.739746 Z0.36 E37.10791 F2400
G1 X111.882309 Y106.739746 Z0.36 E37.183037 F2400
G1 X113.764617 Y110.0 Z0.36 E37.258164 F2400
G0 X113.302737 Y110.0 Z0.36 F4800
G1 X111.651368 Y112.860254 Z0.36 E37.324074 F2400
G1 X108.348632 Y112.860254 Z0.36 E37.389984 F2400
G1 X106.697263 Y110.0 Z0.36 E37.455894 F2400
G1 X108.348632 Y107.139746 Z0.36 E37.521804 F2400
G1 X111.651368 Y107.139746 Z0.36 E37.587714 F2400
G1 X113.302737 Y110.0 Z0.36 E37.653624 F2400
G0 X112.840857 Y110.0 Z0.36 F4800
G1 X111.420428 Y112.460254 Z0.36 E37.710316 F2400
G1 X108.579572 Y112.460254 Z0.36 E37.767008 F2400
G1 X107.159143 Y110.0 Z0.36 E37.8237 F2400
G1 X108.579572 Y107.539746 Z0.36 E37.880392 F2400
G1 X111.420428 Y107.539746 Z0.36 E37.937084 F2400
G1 X112.840857 Y110.0 Z0.36 E37.993776 F2400
G0 X112.378976 Y110.0 Z0.36 F4800
G1 X111.189488 Y112.060254 Z0.36 E38.041251 F2400
G1 X108.810512 Y112.060254 Z0.36 E38.088726 F2400
G1 X107.621024 Y110.0 Z0.36 E38.136201 F2400
G1 X108.810512 Y107.939746 Z0.36 E38.183676 F2400
G1 X111.189488 Y107.939746 Z0.36 E38.231151 F2400
G1 X112.378976 Y110.0 Z0.36 E38.278626 F2400
G0 X111.917096 Y110.0 Z0.36 F4800
G1 X110.958548 Y111.660254 Z0.36 E38.316884 F2400
G1 X109.041452 Y111.660254 Z0.36 E38.355142 F2400
G1 X108.082904 Y110.0 Z0.36 E38.3934 F2400
G1 X109.041452 Y108.339746 Z0.36 E38.431658 F2400
G1 X110.958548 Y108.339746 Z0.36 E38.469916 F2400
G1 X111.917096 Y110.0 Z0.36 E38.508174 F2400
G0 X111.455216 Y110.0 Z0.36 F4800
G1 X110.727608 Y111.260254 Z0.36 E38.537214 F2400
G1 X109.272392 Y111.260254 Z0.36 E38.566254 F2400
G1 X108.544784 Y110.0 Z0.36 E38.595294 F2400
G1 X109.272392 Y108.739746 Z0.36 E38.624334 F2400
G1 X110.727608 Y108.739746 Z0.36 E38.653374 F2400
G1 X111.455216 Y110.0 Z0.36 E38.682414 F2400
G0 X110.993336 Y110.0 Z0.36 F4800
G1 X110.496668 Y110.860254 Z0.36 E38.702237 F2400
G1 X109.503332 Y110.860254 Z0.36 E38.72206 F2400
G1 X109.006664 Y110.0 Z0.36 E38.741883 F2400
G1 X109.503332 Y109.139746 Z0.36 E38.761706 F2400
G1 X110.496668 Y109.139746 Z0.36 E38.781529 F2400
G1 X110.993336 Y110.0 Z0.36 E38.801352 F2400
G0 X110.531456 Y110.0 Z0.36 F4800
G1 X110.265728 Y110.460254 Z0.36 E38.811958 F2400
G1 X109.734272 Y110.460254 Z0.36 E38.822564 F2400
G1 X109.468544 Y110.0 Z0.36 E38.83317 F2400
G1 X109.734272 Y109.539746 Z0.36 E38.843776 F2400
G1 X110.265728 Y109.539746 Z0.36 E38.854382 F2400
G1 X110.531456 Y110.0 Z0.36 E38.864988 F2400
G1 E30.864987999999997
G0 X119.76906 Y110.0 Z0.36 F4800
G0 X119.76906 Y110.0 Z0.48 F4800
G1 E38.864988
G1 X114.88453 Y118.460254 Z0.48 E39.05994 F2400
G1 X105.11547 Y118.460254 Z0.48 E39.254892 F2400
G1 X100.23094 Y110.0 Z0.48 E39.449844 F2400
G1 X105.11547 Y101.539746 Z0.48 E39.644796 F2400
G1 X114.88453 Y101.539746 Z0.48 E39.839748 F2400
G1 X119.76906 Y110.0 Z0.48 E40.0347 F2400
G0 X119.30718 Y110.0 Z0.48 F4800
G1 X114.65359 Y118.060254 Z0.48 E40.220435 F2400
G1 X105.34641 Y118.060254 Z0.48 E40.40617 F2400
G1 X100.69282 Y110.0 Z0.48 E40.591905 F2400
G1 X105.34641 Y101.939746 Z0.48 E40.77764 F2400
G1 X114.65359 Y101.939746 Z0.48 E40.963375 F2400
G1 X119.30718 Y110.0 Z0.48 E41.14911 F2400
G0 X118.845299 Y110.0 Z0.48 F4800
G1 X114.42265 Y117.660254 Z0.48 E41.325628 F2400
G1 X105.57735 Y117.660254 Z0.48 E41.502146 F2400
G1 X101.154701 Y110.0 Z0.48 E41.678664 F2400
G1 X105.57735 Y102.339746 Z0.48 E41.855182 F2400
G1 X114.42265 Y102.339746 Z0.48 E42.0317 F2400
G1 X118.845299 Y110.0 Z0.48 E42.208218 F2400
G0 X118.383419 Y110.0 Z0.48 F4800
G1 X114.19171 Y117.260254 Z0.48 E42.375518 F2400
G1 X105.80829 Y117.260254 Z0.48 E42.542818 F2400
G1 X101.616581 Y110.0 Z0.48 E42.710118 F2400
G1 X105.80829 Y102.739746 Z0.48 E42.877418 F2400
G1 X114.19171 Y102.739746 Z0.48 E43.044718 F2400
G1 X118.383419 Y110.0 Z0.48 E43.212018 F2400
G0 X117.921539 Y110.0 Z0.48 F4800
G1 X113.96077 Y116.860254 Z0.48 E43.370101 F2400
G1 X106.03923 Y116.860254 Z0.48 E43.528184 F2400
G1 X102.078461 Y110.0 Z0.48 E43.686267 F2400
G1 X106.03923 Y103.139746 Z0.48 E43.84435 F2400
G1 X113.96077 Y103.139746 Z0.48 E44.002433 F2400
G1 X117.921539 Y110.0 Z0.48 E44.160516 F2400
G0 X117.459659 Y110.0 Z0.48 F4800
G1 X113.729829 Y116.460254 Z0.48 E44.309382 F2400
G1 X106.270171 Y116.460254 Z0.48 E44.458248 F2400
G1 X102.540341 Y110.0 Z0.48 E44.607114 F2400
G1 X106.270171 Y103.539746 Z0.48 E44.75598 F2400
G1 X113.729829 Y103.539746 Z0.48 E44.904846 F2400
G1 X117.459659 Y110.0 Z0.48 E45.053712 F2400
G0 X116.997779 Y110.0 Z0.48 F4800
G1 X113.498889 Y116.060254 Z0.48 E45.19336 F2400
G1 X106.501111 Y116.060254 Z0.48 E45.333008 F2400
G1 X103.002221 Y110.0 Z0.48 E45.472656 F2400
G1 X106.501111 Y103.939746 Z0.48 E45.612304 F2400
G1 X113.498889 Y103.939746 Z0.48 E45.751952 F2400
G1 X116.997779 Y110.0 Z0.48 E45.8916 F2400
G0 X116.535898 Y110.0 Z0.48 F4800
G1 X113.267949 Y115.660254 Z0.48 E46.022031 F2400
G1 X106.732051 Y115.660254 Z0.48 E46.152462 F2400
G1 X103.464102 Y110.0 Z0.48 E46.282893 F2400
G1 X106.732051 Y104.339746 Z0.48 E46.413324 F2400
G1 X113.267949 Y104.339746 Z0.48 E46.543755 F2400
G1 X116.535898 Y110.0 Z0.48 E46.674186 F2400
G0 X116.074018 Y110.0 Z0.48 F4800
G1 X113.037009 Y115.260254 Z0.48 E46.7954 F2400
G1 X106.962991 Y115.260254 Z0.48 E46.916614 F2400
G1 X103.925982 Y110.0 Z0.48 E47.037828 F2400
G1 X106.962991 Y104.739746 Z0.48 E47.159042 F2400
G1 X113.037009 Y104.739746 Z0.48 E47.280256 F2400
G1 X116.074018 Y110.0 Z0.48 E47.40147 F2400
G0 X115.612138 Y110.0 Z0.48 F4800
