;FLAVOR:Marlin 
;Layer height: 0.12 
;Generated with Cura_SteamEngine 4.9.0 
M140 S70.0
M105 
M190 S70.0
M104 S210.0
M105 
M109 S210.0
M83 ;relative extrusion mode 
; Ender 3 Custom Start G-code 
G92 E0 ; Reset Extruder 
G28 ; Home all axes 
G1 Z2.0 F3000 ; Move Z Axis up little to prevent scratching of Heat Bed 
G1 X0.1 Y20 Z0.3 F5000.0 ; Move to start position 
G1 X0.1 Y200.0 Z0.3 F1500.0 E15 ; Draw the first line 
G1 X0.4 Y200.0 Z0.3 F5000.0 ; Move to side a little 
G1 X0.4 Y20 Z0.3 F1500.0 E15 ; Draw the second line 
G92 E0 ; Reset Extruder 
G1 Z2.0 F3000 ; Move Z Axis up little to prevent scratching of Heat Bed 
G1 X5 Y20 Z0.3 F5000.0 ; Move over to prevent blob squish 
G92 E0 
G92 E0 
G1 F3000 E-8 
M104 S210.0
G0 X59.8 Y54.8 Z0.24 F1200.0
G1 E8
G1 X40.2 Y54.8 Z0.24 E0.7822783762852838 F1200.0
G1 X40.2 Y45.2 Z0.24 E0.3831567557315675 F1200.0
G1 X59.8 Y45.2 Z0.24 E0.7822783762852838 F1200.0
G1 X59.8 Y54.8 Z0.24 E0.3831567557315675 F1200.0
G1 X59.4 Y54.4 Z0.24 E0.022577728352935676 F1200.0
G1 X40.6 Y54.4 Z0.24 E0.7503486466409867 F1200.0
G1 X40.6 Y45.6 Z0.24 E0.3512270260872703 F1200.0
G1 X59.4 Y45.6 Z0.24 E0.7503486466409867 F1200.0
G1 X59.4 Y54.4 Z0.24 E0.3512270260872703 F1200.0
G1 X59.0 Y54.0 Z0.24 E0.022577728352935676 F1200.0
G1 X41.0 Y54.0 Z0.24 E0.7184189169966894 F1200.0
G1 X41.0 Y46.0 Z0.24 E0.3192972964429731 F1200.0
G1 X59.0 Y46.0 Z0.24 E0.7184189169966894 F1200.0
G1 X59.0 Y54.0 Z0.24 E0.3192972964429731 F1200.0
G1 X58.6 Y53.6 Z0.24 E0.022577728352935676 F1200.0
G1 X41.4 Y53.6 Z0.24 E0.6864891873523923 F1200.0
G1 X41.4 Y46.4 Z0.24 E0.28736756679867587 F1200.0
G1 X58.6 Y46.4 Z0.24 E0.6864891873523923 F1200.0
G1 X58.6 Y53.6 Z0.24 E0.28736756679867587 F1200.0
G1 X58.2 Y53.2 Z0.24 E0.022577728352935676 F1200.0
G1 X41.8 Y53.2 Z0.24 E0.654559457708095 F1200.0
G1 X41.8 Y46.8 Z0.24 E0.2554378371543787 F1200.0
G1 X58.2 Y46.8 Z0.24 E0.654559457708095 F1200.0
G1 X58.2 Y53.2 Z0.24 E0.2554378371543787 F1200.0
G1 X57.8 Y52.8 Z0.24 E0.022577728352936078 F1200.0
G1 X42.2 Y52.8 Z0.24 E0.6226297280637973 F1200.0
G1 X42.2 Y47.2 Z0.24 E0.22350810751008096 F1200.0
G1 X57.8 Y47.2 Z0.24 E0.6226297280637973 F1200.0
G1 X57.8 Y52.8 Z0.24 E0.22350810751008096 F1200.0
G1 X57.4 Y52.4 Z0.24 E0.022577728352935676 F1200.0
G1 X42.6 Y52.4 Z0.24 E0.5906999984195 F1200.0
G1 X42.6 Y47.6 Z0.24 E0.19157837786578374 F1200.0
G1 X57.4 Y47.6 Z0.24 E0.5906999984195 F1200.0
G1 X57.4 Y52.4 Z0.24 E0.19157837786578374 F1200.0
G1 X57.0 Y52.0 Z0.24 E0.022577728352935676 F1200.0
G1 X43.0 Y52.0 Z0.24 E0.558770268775203 F1200.0
G1 X43.0 Y48.0 Z0.24 E0.15964864822148656 F1200.0
G1 X57.0 Y48.0 Z0.24 E0.558770268775203 F1200.0
G1 X57.0 Y52.0 Z0.24 E0.15964864822148656 F1200.0
G1 X56.599999999999994 Y51.6 Z0.24 E0.022577728352935873 F1200.0
G1 X43.400000000000006 Y51.6 Z0.24 E0.5268405391309051 F1200.0
G1 X43.400000000000006 Y48.4 Z0.24 E0.12771891857718934 F1200.0
G1 X56.599999999999994 Y48.4 Z0.24 E0.5268405391309051 F1200.0
G1 X56.599999999999994 Y51.6 Z0.24 E0.12771891857718934 F1200.0
G1 X56.199999999999996 Y51.2 Z0.24 E0.022577728352935676 F1200.0
G1 X43.800000000000004 Y51.2 Z0.24 E0.4949108094866079 F1200.0
G1 X43.800000000000004 Y48.8 Z0.24 E0.09578918893289215 F1200.0
G1 X56.199999999999996 Y48.8 Z0.24 E0.4949108094866079 F1200.0
G1 X56.199999999999996 Y51.2 Z0.24 E0.09578918893289215 F1200.0
G1 X55.8 Y50.8 Z0.24 E0.022577728352935873 F1200.0
G1 X44.2 Y50.8 Z0.24 E0.46298107984231074 F1200.0
G1 X44.2 Y49.2 Z0.24 E0.06385945928859439 F1200.0
G1 X55.8 Y49.2 Z0.24 E0.46298107984231074 F1200.0
G1 X55.8 Y50.8 Z0.24 E0.06385945928859439 F1200.0
G1 X55.4 Y50.4 Z0.24 E0.022577728352935676 F1200.0
G1 X44.6 Y50.4 Z0.24 E0.43105135019801355 F1200.0
G1 X44.6 Y49.6 Z0.24 E0.031929729644297196 F1200.0
G1 X55.4 Y49.6 Z0.24 E0.43105135019801355 F1200.0
G1 X55.4 Y50.4 Z0.24 E0.031929729644297196 F1200.0
G1 X40.2 Y54.8 Z0.36 E0.3911391881426419 F1200.0
G1 X40.2 Y45.2 Z0.48 E0.19157837786578374 F1200.0
G1 X59.8 Y45.2 Z0.6 E0.3911391881426419 F1200.0
G1 X59.8 Y54.8 Z0.72 E0.19157837786578374 F1200.0
G1 X59.4 Y54.4 Z0.84 E0.011288864176467838 F1200.0
G1 X40.6 Y54.4 Z0.96 E0.37517432332049333 F1200.0
G1 X40.6 Y45.6 Z1.08 E0.17561351304363515 F1200.0
G1 X59.4 Y45.6 Z1.2000000000000002 E0.37517432332049333 F1200.0
G1 X59.4 Y54.4 Z1.3200000000000003 E0.17561351304363515 F1200.0
G1 X59.0 Y54.0 Z1.4400000000000004 E0.011288864176467838 F1200.0
G1 X41.0 Y54.0 Z1.5600000000000005 E0.3592094584983447 F1200.0
G1 X41.0 Y46.0 Z1.6800000000000006 E0.15964864822148656 F1200.0
G1 X59.0 Y46.0 Z1.8000000000000007 E0.3592094584983447 F1200.0
G1 X59.0 Y54.0 Z1.9200000000000008 E0.15964864822148656 F1200.0
G1 X58.6 Y53.6 Z2.040000000000001 E0.011288864176467838 F1200.0
G1 X41.4 Y53.6 Z2.160000000000001 E0.34324459367619614 F1200.0
G1 X41.4 Y46.4 Z2.280000000000001 E0.14368378339933793 F1200.0
G1 X58.6 Y46.4 Z2.4000000000000012 E0.34324459367619614 F1200.0
G1 X58.6 Y53.6 Z2.5200000000000014 E0.14368378339933793 F1200.0
G1 X58.2 Y53.2 Z2.6400000000000015 E0.011288864176467838 F1200.0
G1 X41.8 Y53.2 Z2.7600000000000016 E0.3272797288540475 F1200.0
G1 X41.8 Y46.8 Z2.8800000000000017 E0.12771891857718934 F1200.0
G1 X58.2 Y46.8 Z3.0000000000000018 E0.3272797288540475 F1200.0
G1 X58.2 Y53.2 Z3.120000000000002 E0.12771891857718934 F1200.0
G1 X57.8 Y52.8 Z3.240000000000002 E0.011288864176468039 F1200.0
G1 X42.2 Y52.8 Z3.360000000000002 E0.3113148640318987 F1200.0
G1 X42.2 Y47.2 Z3.480000000000002 E0.11175405375504048 F1200.0
G1 X57.8 Y47.2 Z3.6000000000000023 E0.3113148640318987 F1200.0
G1 X57.8 Y52.8 Z3.7200000000000024 E0.11175405375504048 F1200.0
G1 X57.4 Y52.4 Z3.8400000000000025 E0.011288864176467838 F1200.0
G1 X42.6 Y52.4 Z3.9600000000000026 E0.29534999920975 F1200.0
G1 X42.6 Y47.6 Z4.080000000000003 E0.09578918893289187 F1200.0
G1 X57.4 Y47.6 Z4.200000000000003 E0.29534999920975 F1200.0
G1 X57.4 Y52.4 Z4.320000000000003 E0.09578918893289187 F1200.0
G1 X57.0 Y52.0 Z4.440000000000003 E0.011288864176467838 F1200.0
G1 X43.0 Y52.0 Z4.560000000000003 E0.2793851343876015 F1200.0
G1 X43.0 Y48.0 Z4.680000000000003 E0.07982432411074328 F1200.0
G1 X57.0 Y48.0 Z4.800000000000003 E0.2793851343876015 F1200.0
G1 X57.0 Y52.0 Z4.9200000000000035 E0.07982432411074328 F1200.0
G1 X56.599999999999994 Y51.6 Z5.040000000000004 E0.011288864176467937 F1200.0
G1 X43.400000000000006 Y51.6 Z5.160000000000004 E0.26342026956545256 F1200.0
G1 X43.400000000000006 Y48.4 Z5.280000000000004 E0.06385945928859467 F1200.0
G1 X56.599999999999994 Y48.4 Z5.400000000000004 E0.26342026956545256 F1200.0
G1 X56.599999999999994 Y51.6 Z5.520000000000004 E0.06385945928859467 F1200.0
G1 X56.199999999999996 Y51.2 Z5.640000000000004 E0.011288864176467838 F1200.0
G1 X43.800000000000004 Y51.2 Z5.760000000000004 E0.24745540474330396 F1200.0
G1 X43.800000000000004 Y48.8 Z5.880000000000004 E0.047894594466446075 F1200.0
G1 X56.199999999999996 Y48.8 Z6.000000000000004 E0.24745540474330396 F1200.0
G1 X56.199999999999996 Y51.2 Z6.1200000000000045 E0.047894594466446075 F1200.0
G1 X55.8 Y50.8 Z6.240000000000005 E0.011288864176467937 F1200.0
G1 X44.2 Y50.8 Z6.360000000000005 E0.23149053992115537 F1200.0
G1 X44.2 Y49.2 Z6.480000000000005 E0.031929729644297196 F1200.0
G1 X55.8 Y49.2 Z6.600000000000005 E0.23149053992115537 F1200.0
G1 X55.8 Y50.8 Z6.720000000000005 E0.031929729644297196 F1200.0
G1 X55.4 Y50.4 Z6.840000000000005 E0.011288864176467838 F1200.0
G1 X44.6 Y50.4 Z6.960000000000005 E0.21552567509900677 F1200.0
G1 X44.6 Y49.6 Z7.080000000000005 E0.015964864822148598 F1200.0
G1 X55.4 Y49.6 Z7.2000000000000055 E0.21552567509900677 F1200.0
G1 X55.4 Y50.4 Z7.320000000000006 E0.015964864822148598 F1200.0
G1 X40.2 Y54.8 Z7.440000000000006 E0.3911391881426419 F1200.0
G1 X40.2 Y45.2 Z7.560000000000006 E0.19157837786578374 F1200.0
G1 X59.8 Y45.2 Z7.680000000000006 E0.3911391881426419 F1200.0
G1 X59.8 Y54.8 Z7.800000000000006 E0.19157837786578374 F1200.0
G1 X59.4 Y54.4 Z7.920000000000006 E0.011288864176467838 F1200.0
G1 X40.6 Y54.4 Z8.040000000000006 E0.37517432332049333 F1200.0
G1 X40.6 Y45.6 Z8.160000000000005 E0.17561351304363515 F1200.0
G1 X59.4 Y45.6 Z8.280000000000005 E0.37517432332049333 F1200.0
G1 X59.4 Y54.4 Z8.400000000000004 E0.17561351304363515 F1200.0
G1 X59.0 Y54.0 Z8.520000000000003 E0.011288864176467838 F1200.0
G1 X41.0 Y54.0 Z8.640000000000002 E0.3592094584983447 F1200.0
G1 X41.0 Y46.0 Z8.760000000000002 E0.15964864822148656 F1200.0
G1 X59.0 Y46.0 Z8.88 E0.3592094584983447 F1200.0
G1 X59.0 Y54.0 Z9.0 E0.15964864822148656 F1200.0
G1 X58.6 Y53.6 Z9.12 E0.011288864176467838 F1200.0
G1 X41.4 Y53.6 Z9.239999999999998 E0.34324459367619614 F1200.0
G1 X41.4 Y46.4 Z9.359999999999998 E0.14368378339933793 F1200.0
G1 X58.6 Y46.4 Z9.479999999999997 E0.34324459367619614 F1200.0
G1 X58.6 Y53.6 Z9.599999999999996 E0.14368378339933793 F1200.0
G1 X58.2 Y53.2 Z9.719999999999995 E0.011288864176467838 F1200.0
G1 X41.8 Y53.2 Z9.839999999999995 E0.3272797288540475 F1200.0
G1 X41.8 Y46.8 Z9.959999999999994 E0.12771891857718934 F1200.0
G1 X58.2 Y46.8 Z10.079999999999993 E0.3272797288540475 F1200.0
G1 X58.2 Y53.2 Z10.199999999999992 E0.12771891857718934 F1200.0
G1 X57.8 Y52.8 Z10.319999999999991 E0.011288864176468039 F1200.0
G1 X42.2 Y52.8 Z10.43999999999999 E0.3113148640318987 F1200.0
G1 X42.2 Y47.2 Z10.55999999999999 E0.11175405375504048 F1200.0
G1 X57.8 Y47.2 Z10.679999999999989 E0.3113148640318987 F1200.0
G1 X57.8 Y52.8 Z10.799999999999988 E0.11175405375504048 F1200.0
G1 X57.4 Y52.4 Z10.919999999999987 E0.011288864176467838 F1200.0
G1 X42.6 Y52.4 Z11.039999999999987 E0.29534999920975 F1200.0
G1 X42.6 Y47.6 Z11.159999999999986 E0.09578918893289187 F1200.0
G1 X57.4 Y47.6 Z11.279999999999985 E0.29534999920975 F1200.0
G1 X57.4 Y52.4 Z11.399999999999984 E0.09578918893289187 F1200.0
G1 X57.0 Y52.0 Z11.519999999999984 E0.011288864176467838 F1200.0
G1 X43.0 Y52.0 Z11.639999999999983 E0.2793851343876015 F1200.0
G1 X43.0 Y48.0 Z11.759999999999982 E0.07982432411074328 F1200.0
G1 X57.0 Y48.0 Z11.879999999999981 E0.2793851343876015 F1200.0
G1 X57.0 Y52.0 Z11.99999999999998 E0.07982432411074328 F1200.0
G1 X56.599999999999994 Y51.6 Z12.11999999999998 E0.011288864176467937 F1200.0
G1 X43.400000000000006 Y51.6 Z12.239999999999979 E0.26342026956545256 F1200.0
G1 X43.400000000000006 Y48.4 Z12.359999999999978 E0.06385945928859467 F1200.0
G1 X56.599999999999994 Y48.4 Z12.479999999999977 E0.26342026956545256 F1200.0
G1 X56.599999999999994 Y51.6 Z12.599999999999977 E0.06385945928859467 F1200.0
G1 X56.199999999999996 Y51.2 Z12.719999999999976 E0.011288864176467838 F1200.0
G1 X43.800000000000004 Y51.2 Z12.839999999999975 E0.24745540474330396 F1200.0
G1 X43.800000000000004 Y48.8 Z12.959999999999974 E0.047894594466446075 F1200.0
G1 X56.199999999999996 Y48.8 Z13.079999999999973 E0.24745540474330396 F1200.0
G1 X56.199999999999996 Y51.2 Z13.199999999999973 E0.047894594466446075 F1200.0
G1 X55.8 Y50.8 Z13.319999999999972 E0.011288864176467937 F1200.0
G1 X44.2 Y50.8 Z13.439999999999971 E0.23149053992115537 F1200.0
G1 X44.2 Y49.2 Z13.55999999999997 E0.031929729644297196 F1200.0
G1 X55.8 Y49.2 Z13.67999999999997 E0.23149053992115537 F1200.0
G1 X55.8 Y50.8 Z13.799999999999969 E0.031929729644297196 F1200.0
G1 X55.4 Y50.4 Z13.919999999999968 E0.011288864176467838 F1200.0
G1 X44.6 Y50.4 Z14.039999999999967 E0.21552567509900677 F1200.0
G1 X44.6 Y49.6 Z14.159999999999966 E0.015964864822148598 F1200.0
G1 X55.4 Y49.6 Z14.279999999999966 E0.21552567509900677 F1200.0
G1 X55.4 Y50.4 Z14.399999999999965 E0.015964864822148598 F1200.0
G1 X40.2 Y54.8 Z14.519999999999964 E0.3911391881426419 F1200.0
G1 X40.2 Y45.2 Z14.639999999999963 E0.19157837786578374 F1200.0
G1 X59.8 Y45.2 Z14.759999999999962 E0.3911391881426419 F1200.0
G1 X59.8 Y54.8 Z14.879999999999962 E0.19157837786578374 F1200.0
G1 X59.4 Y54.4 Z14.999999999999961 E0.011288864176467838 F1200.0
G1 X40.6 Y54.4 Z15.11999999999996 E0.37517432332049333 F1200.0
G1 X40.6 Y45.6 Z15.23999999999996 E0.17561351304363515 F1200.0
G1 X59.4 Y45.6 Z15.359999999999959 E0.37517432332049333 F1200.0
G1 X59.4 Y54.4 Z15.479999999999958 E0.17561351304363515 F1200.0
G1 X59.0 Y54.0 Z15.599999999999957 E0.011288864176467838 F1200.0
G1 X41.0 Y54.0 Z15.719999999999956 E0.3592094584983447 F1200.0
G1 X41.0 Y46.0 Z15.839999999999955 E0.15964864822148656 F1200.0
G1 X59.0 Y46.0 Z15.959999999999955 E0.3592094584983447 F1200.0
G1 X59.0 Y54.0 Z16.079999999999956 E0.15964864822148656 F1200.0
G1 X58.6 Y53.6 Z16.199999999999957 E0.011288864176467838 F1200.0
G1 X41.4 Y53.6 Z16.319999999999958 E0.34324459367619614 F1200.0
G1 X41.4 Y46.4 Z16.43999999999996 E0.14368378339933793 F1200.0
G1 X58.6 Y46.4 Z16.55999999999996 E0.34324459367619614 F1200.0
G1 X58.6 Y53.6 Z16.67999999999996 E0.14368378339933793 F1200.0
G1 X58.2 Y53.2 Z16.79999999999996 E0.011288864176467838 F1200.0
G1 X41.8 Y53.2 Z16.919999999999963 E0.3272797288540475 F1200.0
G1 X41.8 Y46.8 Z17.039999999999964 E0.12771891857718934 F1200.0
G1 X58.2 Y46.8 Z17.159999999999965 E0.3272797288540475 F1200.0
G1 X58.2 Y53.2 Z17.279999999999966 E0.12771891857718934 F1200.0
G1 X57.8 Y52.8 Z17.399999999999967 E0.011288864176468039 F1200.0
G1 X42.2 Y52.8 Z17.519999999999968 E0.3113148640318987 F1200.0
G1 X42.2 Y47.2 Z17.63999999999997 E0.11175405375504048 F1200.0
G1 X57.8 Y47.2 Z17.75999999999997 E0.3113148640318987 F1200.0
G1 X57.8 Y52.8 Z17.87999999999997 E0.11175405375504048 F1200.0
G1 X57.4 Y52.4 Z17.99999999999997 E0.011288864176467838 F1200.0
G1 X42.6 Y52.4 Z18.119999999999973 E0.29534999920975 F1200.0
G1 X42.6 Y47.6 Z18.239999999999974 E0.09578918893289187 F1200.0
G1 X57.4 Y47.6 Z18.359999999999975 E0.29534999920975 F1200.0
G1 X57.4 Y52.4 Z18.479999999999976 E0.09578918893289187 F1200.0
G1 X57.0 Y52.0 Z18.599999999999977 E0.011288864176467838 F1200.0
G1 X43.0 Y52.0 Z18.719999999999978 E0.2793851343876015 F1200.0
G1 X43.0 Y48.0 Z18.83999999999998 E0.07982432411074328 F1200.0
G1 X57.0 Y48.0 Z18.95999999999998 E0.2793851343876015 F1200.0
G1 X57.0 Y52.0 Z19.07999999999998 E0.07982432411074328 F1200.0
G1 X56.599999999999994 Y51.6 Z19.19999999999998 E0.011288864176467937 F1200.0
G1 X43.400000000000006 Y51.6 Z19.319999999999983 E0.26342026956545256 F1200.0
G1 X43.400000000000006 Y48.4 Z19.439999999999984 E0.06385945928859467 F1200.0
G1 X56.599999999999994 Y48.4 Z19.559999999999985 E0.26342026956545256 F1200.0
G1 X56.599999999999994 Y51.6 Z19.679999999999986 E0.06385945928859467 F1200.0
G1 X56.199999999999996 Y51.2 Z19.799999999999986 E0.011288864176467838 F1200.0
G1 X43.800000000000004 Y51.2 Z19.919999999999987 E0.24745540474330396 F1200.0
G1 X43.800000000000004 Y48.8 Z20.03999999999999 E0.047894594466446075 F1200.0
G1 X56.199999999999996 Y48.8 Z20.15999999999999 E0.24745540474330396 F1200.0
G1 X56.199999999999996 Y51.2 Z20.27999999999999 E0.047894594466446075 F1200.0
G1 X55.8 Y50.8 Z20.39999999999999 E0.011288864176467937 F1200.0
G1 X44.2 Y50.8 Z20.519999999999992 E0.23149053992115537 F1200.0
G1 X44.2 Y49.2 Z20.639999999999993 E0.031929729644297196 F1200.0
G1 X55.8 Y49.2 Z20.759999999999994 E0.23149053992115537 F1200.0
G1 X55.8 Y50.8 Z20.879999999999995 E0.031929729644297196 F1200.0
G1 X55.4 Y50.4 Z20.999999999999996 E0.011288864176467838 F1200.0
G1 X44.6 Y50.4 Z21.119999999999997 E0.21552567509900677 F1200.0
G1 X44.6 Y49.6 Z21.24 E0.015964864822148598 F1200.0
G1 X55.4 Y49.6 Z21.36 E0.21552567509900677 F1200.0
G1 X55.4 Y50.4 Z21.48 E0.015964864822148598 F1200.0
G1 X40.2 Y54.8 Z21.6 E0.3911391881426419 F1200.0
G1 X40.2 Y45.2 Z21.720000000000002 E0.19157837786578374 F1200.0
G1 X59.8 Y45.2 Z21.840000000000003 E0.3911391881426419 F1200.0
G1 X59.8 Y54.8 Z21.960000000000004 E0.19157837786578374 F1200.0
G1 X59.4 Y54.4 Z22.080000000000005 E0.011288864176467838 F1200.0
G1 X40.6 Y54.4 Z22.200000000000006 E0.37517432332049333 F1200.0
G1 X40.6 Y45.6 Z22.320000000000007 E0.17561351304363515 F1200.0
G1 X59.4 Y45.6 Z22.44000000000001 E0.37517432332049333 F1200.0
G1 X59.4 Y54.4 Z22.56000000000001 E0.17561351304363515 F1200.0
G1 X59.0 Y54.0 Z22.68000000000001 E0.011288864176467838 F1200.0
