;FLAVOR:Marlin 
;Layer height: 0.12 
;Generated with Cura_SteamEngine 4.9.0 
M140 S65
M105 
M190 S65
M104 S205
M105 
M109 S205
M83 ;relative extrusion mode 
; Ender 3 Custom Start G-code 
G92 E0 ; Reset Extruder 
G1 X0 Y0 Z10 F3000
G1 Z2.0 F3000 ; Move Z Axis up little to prevent scratching of Heat Bed 
G1 X0.1 Y20 Z0.3 F5000.0 ; Move to start position 
G1 X0.1 Y200.0 Z0.3 F1500.0 E15 ; Draw the first line 
G1 X0.4 Y200.0 Z0.3 F5000.0 ; Move to side a little 
G1 X0.4 Y20 Z0.3 F1500.0 E15 ; Draw the second line 
G92 E0 ; Reset Extruder 
G1 Z2.0 F3000 ; Move Z Axis up little to prevent scratching of Heat Bed 
G1 X5 Y20 Z0.3 F5000.0 ; Move over to prevent blob squish 
G92 E0 
G92 E0 
G1 F3000 E-8 
M104 S205
G0 X59.711325 Y50.0 Z0.24 F2400
G1 E8
G1 X54.855662 Y58.410254 Z0.24 E0.4845 F1200
G1 X45.144338 Y58.410254 Z0.24 E0.4845 F1200
G1 X40.288675 Y50.0 Z0.24 E0.4845 F1200
G1 X45.144338 Y41.589746 Z0.24 E0.4845 F1200
G1 X54.855662 Y41.589746 Z0.24 E0.4845 F1200
G1 X59.711325 Y50.0 Z0.24 E0.4845 F1200
G0 X59.133975 Y50.0 Z0.24 F2400
G1 X54.566987 Y57.910254 Z0.24 E0.455696 F1200
G1 X45.433013 Y57.910254 Z0.24 E0.455696 F1200
G1 X40.866025 Y50.0 Z0.24 E0.455696 F1200
G1 X45.433013 Y42.089746 Z0.24 E0.455696 F1200
G1 X54.566987 Y42.089746 Z0.24 E0.455696 F1200
G1 X59.133975 Y50.0 Z0.24 E0.455696 F1200
G0 X58.556624 Y50.0 Z0.24 F2400
G1 X54.278312 Y57.410254 Z0.24 E0.426892 F1200
G1 X45.721688 Y57.410254 Z0.24 E0.426892 F1200
G1 X41.443376 Y50.0 Z0.24 E0.426892 F1200
G1 X45.721688 Y42.589746 Z0.24 E0.426892 F1200
G1 X54.278312 Y42.589746 Z0.24 E0.426892 F1200
G1 X58.556624 Y50.0 Z0.24 E0.426892 F1200
G0 X57.979274 Y50.0 Z0.24 F2400
G1 X53.989637 Y56.910254 Z0.24 E0.398088 F1200
G1 X46.010363 Y56.910254 Z0.24 E0.398088 F1200
G1 X42.020726 Y50.0 Z0.24 E0.398088 F1200
G1 X46.010363 Y43.089746 Z0.24 E0.398088 F1200
G1 X53.989637 Y43.089746 Z0.24 E0.398088 F1200
G1 X57.979274 Y50.0 Z0.24 E0.398088 F1200
G0 X57.401924 Y50.0 Z0.24 F2400
G1 X53.700962 Y56.410254 Z0.24 E0.369283 F1200
G1 X46.299038 Y56.410254 Z0.24 E0.369283 F1200
G1 X42.598076 Y50.0 Z0.24 E0.369283 F1200
G1 X46.299038 Y43.589746 Z0.24 E0.369283 F1200
G1 X53.700962 Y43.589746 Z0.24 E0.369283 F1200
G1 X57.401924 Y50.0 Z0.24 E0.369283 F1200
G0 X56.824574 Y50.0 Z0.24 F2400
G1 X53.412287 Y55.910254 Z0.24 E0.340479 F1200
G1 X46.587713 Y55.910254 Z0.24 E0.340479 F1200
G1 X43.175426 Y50.0 Z0.24 E0.340479 F1200
G1 X46.587713 Y44.089746 Z0.24 E0.340479 F1200
G1 X53.412287 Y44.089746 Z0.24 E0.340479 F1200
G1 X56.824574 Y50.0 Z0.24 E0.340479 F1200
G0 X56.247223 Y50.0 Z0.24 F2400
G1 X53.123612 Y55.410254 Z0.24 E0.311675 F1200
G1 X46.876388 Y55.410254 Z0.24 E0.311675 F1200
G1 X43.752777 Y50.0 Z0.24 E0.311675 F1200
G1 X46.876388 Y44.589746 Z0.24 E0.311675 F1200
G1 X53.123612 Y44.589746 Z0.24 E0.311675 F1200
G1 X56.247223 Y50.0 Z0.24 E0.311675 F1200
G0 X55.669873 Y50.0 Z0.24 F2400
G1 X52.834936 Y54.910254 Z0.24 E0.282871 F1200
G1 X47.165064 Y54.910254 Z0.24 E0.282871 F1200
G1 X44.330127 Y50.0 Z0.24 E0.282871 F1200
G1 X47.165064 Y45.089746 Z0.24 E0.282871 F1200
G1 X52.834936 Y45.089746 Z0.24 E0.282871 F1200
G1 X55.669873 Y50.0 Z0.24 E0.282871 F1200
G0 X55.092523 Y50.0 Z0.24 F2400
G1 X52.546261 Y54.410254 Z0.24 E0.254067 F1200
G1 X47.453739 Y54.410254 Z0.24 E0.254067 F1200
G1 X44.907477 Y50.0 Z0.24 E0.254067 F1200
G1 X47.453739 Y45.589746 Z0.24 E0.254067 F1200
G1 X52.546261 Y45.589746 Z0.24 E0.254067 F1200
G1 X55.092523 Y50.0 Z0.24 E0.254067 F1200
G0 X54.515172 Y50.0 Z0.24 F2400
G1 X52.257586 Y53.910254 Z0.24 E0.225263 F1200
G1 X47.742414 Y53.910254 Z0.24 E0.225263 F1200
G1 X45.484828 Y50.0 Z0.24 E0.225263 F1200
G1 X47.742414 Y46.089746 Z0.24 E0.225263 F1200
G1 X52.257586 Y46.089746 Z0.24 E0.225263 F1200
G1 X54.515172 Y50.0 Z0.24 E0.225263 F1200
G0 X53.937822 Y50.0 Z0.24 F2400
G1 X51.968911 Y53.410254 Z0.24 E0.196459 F1200
G1 X48.031089 Y53.410254 Z0.24 E0.196459 F1200
G1 X46.062178 Y50.0 Z0.24 E0.196459 F1200
G1 X48.031089 Y46.589746 Z0.24 E0.196459 F1200
G1 X51.968911 Y46.589746 Z0.24 E0.196459 F1200
G1 X53.937822 Y50.0 Z0.24 E0.196459 F1200
G0 X53.360472 Y50.0 Z0.24 F2400
G1 X51.680236 Y52.910254 Z0.24 E0.167655 F1200
G1 X48.319764 Y52.910254 Z0.24 E0.167655 F1200
G1 X46.639528 Y50.0 Z0.24 E0.167655 F1200
G1 X48.319764 Y47.089746 Z0.24 E0.167655 F1200
G1 X51.680236 Y47.089746 Z0.24 E0.167655 F1200
G1 X53.360472 Y50.0 Z0.24 E0.167655 F1200
G0 X52.783122 Y50.0 Z0.24 F2400
G1 X51.391561 Y52.410254 Z0.24 E0.138851 F1200
G1 X48.608439 Y52.410254 Z0.24 E0.138851 F1200
G1 X47.216878 Y50.0 Z0.24 E0.138851 F1200
G1 X48.608439 Y47.589746 Z0.24 E0.138851 F1200
G1 X51.391561 Y47.589746 Z0.24 E0.138851 F1200
G1 X52.783122 Y50.0 Z0.24 E0.138851 F1200
G0 X52.205771 Y50.0 Z0.24 F2400
G1 X51.102886 Y51.910254 Z0.24 E0.110046 F1200
G1 X48.897114 Y51.910254 Z0.24 E0.110046 F1200
G1 X47.794229 Y50.0 Z0.24 E0.110046 F1200
G1 X48.897114 Y48.089746 Z0.24 E0.110046 F1200
G1 X51.102886 Y48.089746 Z0.24 E0.110046 F1200
G1 X52.205771 Y50.0 Z0.24 E0.110046 F1200
G0 X51.628421 Y50.0 Z0.24 F2400
G1 X50.814211 Y51.410254 Z0.24 E0.081242 F1200
G1 X49.185789 Y51.410254 Z0.24 E0.081242 F1200
G1 X48.371579 Y50.0 Z0.24 E0.081242 F1200
G1 X49.185789 Y48.589746 Z0.24 E0.081242 F1200
G1 X50.814211 Y48.589746 Z0.24 E0.081242 F1200
G1 X51.628421 Y50.0 Z0.24 E0.081242 F1200
G0 X51.051071 Y50.0 Z0.24 F2400
G1 X50.525535 Y50.910254 Z0.24 E0.052438 F1200
G1 X49.474465 Y50.910254 Z0.24 E0.052438 F1200
G1 X48.948929 Y50.0 Z0.24 E0.052438 F1200
G1 X49.474465 Y49.089746 Z0.24 E0.052438 F1200
G1 X50.525535 Y49.089746 Z0.24 E0.052438 F1200
G1 X51.051071 Y50.0 Z0.24 E0.052438 F1200
G0 X50.473721 Y50.0 Z0.24 F2400
G1 X50.23686 Y50.410254 Z0.24 E0.023634 F1200
G1 X49.76314 Y50.410254 Z0.24 E0.023634 F1200
G1 X49.526279 Y50.0 Z0.24 E0.023634 F1200
G1 X49.76314 Y49.589746 Z0.24 E0.023634 F1200
G1 X50.23686 Y49.589746 Z0.24 E0.023634 F1200
G1 X50.473721 Y50.0 Z0.24 E0.023634 F1200
G1 E-8
G1 X54.88453 Y58.460254 Z0.36 E0.194952 F2400
G1 X45.11547 Y58.460254 Z0.36 E0.194952 F2400
G1 X40.23094 Y50.0 Z0.36 E0.194952 F2400
G1 X45.11547 Y41.539746 Z0.36 E0.194952 F2400
G1 X54.88453 Y41.539746 Z0.36 E0.194952 F2400
G0 X59.76906 Y50.0 Z0.36 F4800
G1 X59.30718 Y50.0 Z0.36 E0.009217 F2400
G1 X54.65359 Y58.060254 Z0.36 E0.185735 F2400
G1 X45.34641 Y58.060254 Z0.36 E0.185735 F2400
G1 X40.69282 Y50.0 Z0.36 E0.185735 F2400
G1 X45.34641 Y41.939746 Z0.36 E0.185735 F2400
G1 X54.65359 Y41.939746 Z0.36 E0.185735 F2400
G0 X59.30718 Y50.0 Z0.36 F4800
G1 X58.845299 Y50.0 Z0.36 E0.009217 F2400
G1 X54.42265 Y57.660254 Z0.36 E0.176518 F2400
G1 X45.57735 Y57.660254 Z0.36 E0.176518 F2400
G1 X41.154701 Y50.0 Z0.36 E0.176518 F2400
G1 X45.57735 Y42.339746 Z0.36 E0.176518 F2400
G1 X54.42265 Y42.339746 Z0.36 E0.176518 F2400
G0 X58.845299 Y50.0 Z0.36 F4800
G1 X58.383419 Y50.0 Z0.36 E0.009217 F2400
G1 X54.19171 Y57.260254 Z0.36 E0.1673 F2400
G1 X45.80829 Y57.260254 Z0.36 E0.1673 F2400
G1 X41.616581 Y50.0 Z0.36 E0.1673 F2400
G1 X45.80829 Y42.739746 Z0.36 E0.1673 F2400
G1 X54.19171 Y42.739746 Z0.36 E0.1673 F2400
G0 X58.383419 Y50.0 Z0.36 F4800
G1 X57.921539 Y50.0 Z0.36 E0.009217 F2400
G1 X53.96077 Y56.860254 Z0.36 E0.158083 F2400
G1 X46.03923 Y56.860254 Z0.36 E0.158083 F2400
G1 X42.078461 Y50.0 Z0.36 E0.158083 F2400
G1 X46.03923 Y43.139746 Z0.36 E0.158083 F2400
G1 X53.96077 Y43.139746 Z0.36 E0.158083 F2400
G0 X57.921539 Y50.0 Z0.36 F4800
G1 X57.459659 Y50.0 Z0.36 E0.009217 F2400
G1 X53.729829 Y56.460254 Z0.36 E0.148866 F2400
G1 X46.270171 Y56.460254 Z0.36 E0.148866 F2400
G1 X42.540341 Y50.0 Z0.36 E0.148866 F2400
G1 X46.270171 Y43.539746 Z0.36 E0.148866 F2400
G1 X53.729829 Y43.539746 Z0.36 E0.148866 F2400
G0 X57.459659 Y50.0 Z0.36 F4800
G1 X56.997779 Y50.0 Z0.36 E0.009217 F2400
G1 X53.498889 Y56.060254 Z0.36 E0.139648 F2400
G1 X46.501111 Y56.060254 Z0.36 E0.139648 F2400
G1 X43.002221 Y50.0 Z0.36 E0.139648 F2400
G1 X46.501111 Y43.939746 Z0.36 E0.139648 F2400
G1 X53.498889 Y43.939746 Z0.36 E0.139648 F2400
G0 X56.997779 Y50.0 Z0.36 F4800
G1 X56.535898 Y50.0 Z0.36 E0.009217 F2400
G1 X53.267949 Y55.660254 Z0.36 E0.130431 F2400
G1 X46.732051 Y55.660254 Z0.36 E0.130431 F2400
G1 X43.464102 Y50.0 Z0.36 E0.130431 F2400
G1 X46.732051 Y44.339746 Z0.36 E0.130431 F2400
G1 X53.267949 Y44.339746 Z0.36 E0.130431 F2400
G0 X56.535898 Y50.0 Z0.36 F4800
G1 X56.074018 Y50.0 Z0.36 E0.009217 F2400
G1 X53.037009 Y55.260254 Z0.36 E0.121214 F2400
G1 X46.962991 Y55.260254 Z0.36 E0.121214 F2400
G1 X43.925982 Y50.0 Z0.36 E0.121214 F2400
G1 X46.962991 Y44.739746 Z0.36 E0.121214 F2400
G1 X53.037009 Y44.739746 Z0.36 E0.121214 F2400
G0 X56.074018 Y50.0 Z0.36 F4800
G1 X55.612138 Y50.0 Z0.36 E0.009217 F2400
G1 X52.806069 Y54.860254 Z0.36 E0.111996 F2400
G1 X47.193931 Y54.860254 Z0.36 E0.111996 F2400
G1 X44.387862 Y50.0 Z0.36 E0.111996 F2400
G1 X47.193931 Y45.139746 Z0.36 E0.111996 F2400
G1 X52.806069 Y45.139746 Z0.36 E0.111996 F2400
G0 X55.612138 Y50.0 Z0.36 F4800
G1 X55.150258 Y50.0 Z0.36 E0.009217 F2400
G1 X52.575129 Y54.460254 Z0.36 E0.102779 F2400
G1 X47.424871 Y54.460254 Z0.36 E0.102779 F2400
G1 X44.849742 Y50.0 Z0.36 E0.102779 F2400
G1 X47.424871 Y45.539746 Z0.36 E0.102779 F2400
G1 X52.575129 Y45.539746 Z0.36 E0.102779 F2400
G0 X55.150258 Y50.0 Z0.36 F4800
G1 X54.688378 Y50.0 Z0.36 E0.009217 F2400
G1 X52.344189 Y54.060254 Z0.36 E0.093562 F2400
G1 X47.655811 Y54.060254 Z0.36 E0.093562 F2400
G1 X45.311622 Y50.0 Z0.36 E0.093562 F2400
G1 X47.655811 Y45.939746 Z0.36 E0.093562 F2400
G1 X52.344189 Y45.939746 Z0.36 E0.093562 F2400
G0 X54.688378 Y50.0 Z0.36 F4800
G1 X54.226497 Y50.0 Z0.36 E0.009217 F2400
G1 X52.113249 Y53.660254 Z0.36 E0.084344 F2400
G1 X47.886751 Y53.660254 Z0.36 E0.084344 F2400
G1 X45.773503 Y50.0 Z0.36 E0.084344 F2400
G1 X47.886751 Y46.339746 Z0.36 E0.084344 F2400
G1 X52.113249 Y46.339746 Z0.36 E0.084344 F2400
G0 X54.226497 Y50.0 Z0.36 F4800
G1 X53.764617 Y50.0 Z0.36 E0.009217 F2400
G1 X51.882309 Y53.260254 Z0.36 E0.075127 F2400
G1 X48.117691 Y53.260254 Z0.36 E0.075127 F2400
G1 X46.235383 Y50.0 Z0.36 E0.075127 F2400
G1 X48.117691 Y46.739746 Z0.36 E0.075127 F2400
G1 X51.882309 Y46.739746 Z0.36 E0.075127 F2400
G0 X53.764617 Y50.0 Z0.36 F4800
G1 X53.302737 Y50.0 Z0.36 E0.009217 F2400
G1 X51.651368 Y52.860254 Z0.36 E0.06591 F2400
G1 X48.348632 Y52.860254 Z0.36 E0.06591 F2400
G1 X46.697263 Y50.0 Z0.36 E0.06591 F2400
G1 X48.348632 Y47.139746 Z0.36 E0.06591 F2400
G1 X51.651368 Y47.139746 Z0.36 E0.06591 F2400
G0 X53.302737 Y50.0 Z0.36 F4800
G1 X52.840857 Y50.0 Z0.36 E0.009217 F2400
G1 X51.420428 Y52.460254 Z0.36 E0.056692 F2400
G1 X48.579572 Y52.460254 Z0.36 E0.056692 F2400
G1 X47.159143 Y50.0 Z0.36 E0.056692 F2400
G1 X48.579572 Y47.539746 Z0.36 E0.056692 F2400
G1 X51.420428 Y47.539746 Z0.36 E0.056692 F2400
G0 X52.840857 Y50.0 Z0.36 F4800
G1 X52.378976 Y50.0 Z0.36 E0.009217 F2400
G1 X51.189488 Y52.060254 Z0.36 E0.047475 F2400
G1 X48.810512 Y52.060254 Z0.36 E0.047475 F2400
G1 X47.621024 Y50.0 Z0.36 E0.047475 F2400
G1 X48.810512 Y47.939746 Z0.36 E0.047475 F2400
G1 X51.189488 Y47.939746 Z0.36 E0.047475 F2400
G0 X52.378976 Y50.0 Z0.36 F4800
G1 X51.917096 Y50.0 Z0.36 E0.009217 F2400
G1 X50.958548 Y51.660254 Z0.36 E0.038258 F2400
G1 X49.041452 Y51.660254 Z0.36 E0.038258 F2400
G1 X48.082904 Y50.0 Z0.36 E0.038258 F2400
G1 X49.041452 Y48.339746 Z0.36 E0.038258 F2400
G1 X50.958548 Y48.339746 Z0.36 E0.038258 F2400
G0 X51.917096 Y50.0 Z0.36 F4800
G1 X51.455216 Y50.0 Z0.36 E0.009217 F2400
G1 X50.727608 Y51.260254 Z0.36 E0.02904 F2400
G1 X49.272392 Y51.260254 Z0.36 E0.02904 F2400
G1 X48.544784 Y50.0 Z0.36 E0.02904 F2400
G1 X49.272392 Y48.739746 Z0.36 E0.02904 F2400
G1 X50.727608 Y48.739746 Z0.36 E0.02904 F2400
G0 X51.455216 Y50.0 Z0.36 F4800
G1 X50.993336 Y50.0 Z0.36 E0.009217 F2400
G1 X50.496668 Y50.860254 Z0.36 E0.019823 F2400
G1 X49.503332 Y50.860254 Z0.36 E0.019823 F2400
G1 X49.006664 Y50.0 Z0.36 E0.019823 F2400
G1 X49.503332 Y49.139746 Z0.36 E0.019823 F2400
G1 X50.496668 Y49.139746 Z0.36 E0.019823 F2400
G0 X50.993336 Y50.0 Z0.36 F4800
G1 X50.531456 Y50.0 Z0.36 E0.009217 F2400
G1 X50.265728 Y50.460254 Z0.36 E0.010606 F2400
G1 X49.734272 Y50.460254 Z0.36 E0.010606 F2400
G1 X49.468544 Y50.0 Z0.36 E0.010606 F2400
G1 X49.734272 Y49.539746 Z0.36 E0.010606 F2400
G1 X50.265728 Y49.539746 Z0.36 E0.010606 F2400
G0 X50.531456 Y50.0 Z0.36 F4800
G1 X54.88453 Y58.460254 Z0.48 E0.194952 F2400
G1 X45.11547 Y58.460254 Z0.48 E0.194952 F2400
G1 X40.23094 Y50.0 Z0.48 E0.194952 F2400
G1 X45.11547 Y41.539746 Z0.48 E0.194952 F2400
G1 X54.88453 Y41.539746 Z0.48 E0.194952 F2400
G0 X59.76906 Y50.0 Z0.48 F4800
G1 X59.30718 Y50.0 Z0.48 E0.009217 F2400
G1 X54.65359 Y58.060254 Z0.48 E0.185735 F2400
G1 X45.34641 Y58.060254 Z0.48 E0.185735 F2400
G1 X40.69282 Y50.0 Z0.48 E0.185735 F2400
G1 X45.34641 Y41.939746 Z0.48 E0.185735 F2400
G1 X54.65359 Y41.939746 Z0.48 E0.185735 F2400
G0 X59.30718 Y50.0 Z0.48 F4800
G1 X58.845299 Y50.0 Z0.48 E0.009217 F2400
G1 X54.42265 Y57.660254 Z0.48 E0.176518 F2400
G1 X45.57735 Y57.660254 Z0.48 E0.176518 F2400
G1 X41.154701 Y50.0 Z0.48 E0.176518 F2400
G1 X45.57735 Y42.339746 Z0.48 E0.176518 F2400
G1 X54.42265 Y42.339746 Z0.48 E0.176518 F2400
G0 X58.845299 Y50.0 Z0.48 F4800
G1 X58.383419 Y50.0 Z0.48 E0.009217 F2400
G1 X54.19171 Y57.260254 Z0.48 E0.1673 F2400
G1 X45.80829 Y57.260254 Z0.48 E0.1673 F2400
G1 X41.616581 Y50.0 Z0.48 E0.1673 F2400
G1 X45.80829 Y42.739746 Z0.48 E0.1673 F2400
G1 X54.19171 Y42.739746 Z0.48 E0.1673 F2400
G0 X58.383419 Y50.0 Z0.48 F4800
G1 X57.921539 Y50.0 Z0.48 E0.009217 F2400
G1 X53.96077 Y56.860254 Z0.48 E0.158083 F2400
G1 X46.03923 Y56.860254 Z0.48 E0.158083 F2400
G1 X42.078461 Y50.0 Z0.48 E0.158083 F2400
G1 X46.03923 Y43.139746 Z0.48 E0.158083 F2400
G1 X53.96077 Y43.139746 Z0.48 E0.158083 F2400
G0 X57.921539 Y50.0 Z0.48 F4800
G1 X57.459659 Y50.0 Z0.48 E0.009217 F2400
G1 X53.729829 Y56.460254 Z0.48 E0.148866 F2400
G1 X46.270171 Y56.460254 Z0.48 E0.148866 F2400
G1 X42.540341 Y50.0 Z0.48 E0.148866 F2400
G1 X46.270171 Y43.539746 Z0.48 E0.148866 F2400
G1 X53.729829 Y43.539746 Z0.48 E0.148866 F2400
G0 X57.459659 Y50.0 Z0.48 F4800
G1 X56.997779 Y50.0 Z0.48 E0.009217 F2400
G1 X53.498889 Y56.060254 Z0.48 E0.139648 F2400
G1 X46.501111 Y56.060254 Z0.48 E0.139648 F2400
G1 X43.002221 Y50.0 Z0.48 E0.139648 F2400
G1 X46.501111 Y43.939746 Z0.48 E0.139648 F2400
G1 X53.498889 Y43.939746 Z0.48 E0.139648 F2400
G0 X56.997779 Y50.0 Z0.48 F4800
G1 X56.535898 Y50.0 Z0.48 E0.009217 F2400
G1 X53.267949 Y55.660254 Z0.48 E0.130431 F2400
G1 X46.732051 Y55.660254 Z0.48 E0.130431 F2400
G1 X43.464102 Y50.0 Z0.48 E0.130431 F2400
G1 X46.732051 Y44.339746 Z0.48 E0.130431 F2400
G1 X53.267949 Y44.339746 Z0.48 E0.130431 F2400
G0 X56.535898 Y50.0 Z0.48 F4800
G1 X56.074018 Y50.0 Z0.48 E0.009217 F2400
G1 X53.037009 Y55.260254 Z0.48 E0.121214 F2400
G1 X46.962991 Y55.260254 Z0.48 E0.121214 F2400
G1 X43.925982 Y50.0 Z0.48 E0.121214 F2400
G1 X46.962991 Y44.739746 Z0.48 E0.121214 F2400
G1 X53.037009 Y44.739746 Z0.48 E0.121214 F2400
G0 X56.074018 Y50.0 Z0.48 F4800
G1 X55.612138 Y50.0 Z0.48 E0.009217 F2400
G1 X52.806069 Y54.860254 Z0.48 E0.111996 F2400
G1 X47.193931 Y54.860254 Z0.48 E0.111996 F2400
G1 X44.387862 Y50.0 Z0.48 E0.111996 F2400
G1 X47.193931 Y45.139746 Z0.48 E0.111996 F2400
G1 X52.806069 Y45.139746 Z0.48 E0.111996 F2400
G0 X55.612138 Y50.0 Z0.48 F4800
G1 X55.150258 Y50.0 Z0.48 E0.009217 F2400
G1 X52.575129 Y54.460254 Z0.48 E0.102779 F2400
G1 X47.424871 Y54.460254 Z0.48 E0.102779 F2400
G1 X44.849742 Y50.0 Z0.48 E0.102779 F2400
G1 X47.424871 Y45.539746 Z0.48 E0.102779 F2400
G1 X52.575129 Y45.539746 Z0.48 E0.102779 F2400
G0 X55.150258 Y50.0 Z0.48 F4800
G1 X54.688378 Y50.0 Z0.48 E0.009217 F2400
G1 X52.344189 Y54.060254 Z0.48 E0.093562 F2400
G1 X47.655811 Y54.060254 Z0.48 E0.093562 F2400
G1 X45.311622 Y50.0 Z0.48 E0.093562 F2400
G1 X47.655811 Y45.939746 Z0.48 E0.093562 F2400
G1 X52.344189 Y45.939746 Z0.48 E0.093562 F2400
G0 X54.688378 Y50.0 Z0.48 F4800
G1 X54.226497 Y50.0 Z0.48 E0.009217 F2400
G1 X52.113249 Y53.660254 Z0.48 E0.084344 F2400
G1 X47.886751 Y53.660254 Z0.48 E0.084344 F2400
G1 X45.773503 Y50.0 Z0.48 E0.084344 F2400
G1 X47.886751 Y46.339746 Z0.48 E0.084344 F2400
