;FLAVOR:Marlin 
;Layer height: 0.12 
;Generated with Cura_SteamEngine 4.9.0 
M140 S65
M105 
M190 S65
M104 S205
M105 
M109 S205
M83 ;relative extrusion mode 
; Ender 3 Custom Start G-code 
G92 E0 ; Reset Extruder 
G1 X0 Y0 Z10 F3000
G1 Z2.0 F3000 ; Move Z Axis up little to prevent scratching of Heat Bed 
G1 X0.1 Y20 Z0.3 F5000.0 ; Move to start position 
G1 X0.1 Y200.0 Z0.3 F1500.0 E15 ; Draw the first line 
G1 X0.4 Y200.0 Z0.3 F5000.0 ; Move to side a little 
G1 X0.4 Y20 Z0.3 F1500.0 E15 ; Draw the second line 
G92 E0 ; Reset Extruder 
G1 Z2.0 F3000 ; Move Z Axis up little to prevent scratching of Heat Bed 
G1 X5 Y20 Z0.3 F5000.0 ; Move over to prevent blob squish 
G92 E0 
G92 E0 
G1 F3000 E-8 
M104 S205
G0 X125.374257 Y100.0 Z0.24 F2400
G1 E8
G1 X123.442756 Y109.710308 Z0.24 E0.49394 F1200
G1 X117.942309 Y117.942309 Z0.24 E0.49394 F1200
G1 X109.710308 Y123.442756 Z0.24 E0.49394 F1200
G1 X100.0 Y125.374257 Z0.24 E0.49394 F1200
G1 X90.289692 Y123.442756 Z0.24 E0.49394 F1200
G1 X82.057691 Y117.942309 Z0.24 E0.49394 F1200
G1 X76.557244 Y109.710308 Z0.24 E0.49394 F1200
G1 X74.625743 Y100.0 Z0.24 E0.49394 F1200
G1 X76.557244 Y90.289692 Z0.24 E0.49394 F1200
G1 X82.057691 Y82.057691 Z0.24 E0.49394 F1200
G1 X90.289692 Y76.557244 Z0.24 E0.49394 F1200
G1 X100.0 Y74.625743 Z0.24 E0.49394 F1200
G1 X109.710308 Y76.557244 Z0.24 E0.49394 F1200
G1 X117.942309 Y82.057691 Z0.24 E0.49394 F1200
G1 X123.442756 Y90.289692 Z0.24 E0.49394 F1200
G1 X125.374257 Y100.0 Z0.24 E0.49394 F1200
G0 X124.864461 Y100.0 Z0.24 F2400
G1 X122.971767 Y109.515217 Z0.24 E0.484016 F1200
G1 X117.581829 Y117.581829 Z0.24 E0.484016 F1200
G1 X109.515217 Y122.971767 Z0.24 E0.484016 F1200
G1 X100.0 Y124.864461 Z0.24 E0.484016 F1200
G1 X90.484783 Y122.971767 Z0.24 E0.484016 F1200
G1 X82.418171 Y117.581829 Z0.24 E0.484016 F1200
G1 X77.028233 Y109.515217 Z0.24 E0.484016 F1200
G1 X75.135539 Y100.0 Z0.24 E0.484016 F1200
G1 X77.028233 Y90.484783 Z0.24 E0.484016 F1200
G1 X82.418171 Y82.418171 Z0.24 E0.484016 F1200
G1 X90.484783 Y77.028233 Z0.24 E0.484016 F1200
G1 X100.0 Y75.135539 Z0.24 E0.484016 F1200
G1 X109.515217 Y77.028233 Z0.24 E0.484016 F1200
G1 X117.581829 Y82.418171 Z0.24 E0.484016 F1200
G1 X122.971767 Y90.484783 Z0.24 E0.484016 F1200
G1 X124.864461 Y100.0 Z0.24 E0.484016 F1200
G0 X124.354666 Y100.0 Z0.24 F2400
G1 X122.500777 Y109.320127 Z0.24 E0.474093 F1200
G1 X117.221349 Y117.221349 Z0.24 E0.474093 F1200
G1 X109.320127 Y122.500777 Z0.24 E0.474093 F1200
G1 X100.0 Y124.354666 Z0.24 E0.474093 F1200
G1 X90.679873 Y122.500777 Z0.24 E0.474093 F1200
G1 X82.778651 Y117.221349 Z0.24 E0.474093 F1200
G1 X77.499223 Y109.320127 Z0.24 E0.474093 F1200
G1 X75.645334 Y100.0 Z0.24 E0.474093 F1200
G1 X77.499223 Y90.679873 Z0.24 E0.474093 F1200
G1 X82.778651 Y82.778651 Z0.24 E0.474093 F1200
G1 X90.679873 Y77.499223 Z0.24 E0.474093 F1200
G1 X100.0 Y75.645334 Z0.24 E0.474093 F1200
G1 X109.320127 Y77.499223 Z0.24 E0.474093 F1200
G1 X117.221349 Y82.778651 Z0.24 E0.474093 F1200
G1 X122.500777 Y90.679873 Z0.24 E0.474093 F1200
G1 X124.354666 Y100.0 Z0.24 E0.474093 F1200
G0 X123.84487 Y100.0 Z0.24 F2400
G1 X122.029787 Y109.125037 Z0.24 E0.464169 F1200
G1 X116.860869 Y116.860869 Z0.24 E0.464169 F1200
G1 X109.125037 Y122.029787 Z0.24 E0.464169 F1200
G1 X100.0 Y123.84487 Z0.24 E0.464169 F1200
G1 X90.874963 Y122.029787 Z0.24 E0.464169 F1200
G1 X83.139131 Y116.860869 Z0.24 E0.464169 F1200
G1 X77.970213 Y109.125037 Z0.24 E0.464169 F1200
G1 X76.15513 Y100.0 Z0.24 E0.464169 F1200
G1 X77.970213 Y90.874963 Z0.24 E0.464169 F1200
G1 X83.139131 Y83.139131 Z0.24 E0.464169 F1200
G1 X90.874963 Y77.970213 Z0.24 E0.464169 F1200
G1 X100.0 Y76.15513 Z0.24 E0.464169 F1200
G1 X109.125037 Y77.970213 Z0.24 E0.464169 F1200
G1 X116.860869 Y83.139131 Z0.24 E0.464169 F1200
G1 X122.029787 Y90.874963 Z0.24 E0.464169 F1200
G1 X123.84487 Y100.0 Z0.24 E0.464169 F1200
G0 X123.335074 Y100.0 Z0.24 F2400
G1 X121.558798 Y108.929946 Z0.24 E0.454245 F1200
G1 X116.500389 Y116.500389 Z0.24 E0.454245 F1200
G1 X108.929946 Y121.558798 Z0.24 E0.454245 F1200
G1 X100.0 Y123.335074 Z0.24 E0.454245 F1200
G1 X91.070054 Y121.558798 Z0.24 E0.454245 F1200
G1 X83.499611 Y116.500389 Z0.24 E0.454245 F1200
G1 X78.441202 Y108.929946 Z0.24 E0.454245 F1200
G1 X76.664926 Y100.0 Z0.24 E0.454245 F1200
G1 X78.441202 Y91.070054 Z0.24 E0.454245 F1200
G1 X83.499611 Y83.499611 Z0.24 E0.454245 F1200
G1 X91.070054 Y78.441202 Z0.24 E0.454245 F1200
G1 X100.0 Y76.664926 Z0.24 E0.454245 F1200
G1 X108.929946 Y78.441202 Z0.24 E0.454245 F1200
G1 X116.500389 Y83.499611 Z0.24 E0.454245 F1200
G1 X121.558798 Y91.070054 Z0.24 E0.454245 F1200
G1 X123.335074 Y100.0 Z0.24 E0.454245 F1200
G0 X122.825279 Y100.0 Z0.24 F2400
G1 X121.087808 Y108.734856 Z0.24 E0.444321 F1200
G1 X116.139909 Y116.139909 Z0.24 E0.444321 F1200
G1 X108.734856 Y121.087808 Z0.24 E0.444321 F1200
G1 X100.0 Y122.825279 Z0.24 E0.444321 F1200
G1 X91.265144 Y121.087808 Z0.24 E0.444321 F1200
G1 X83.860091 Y116.139909 Z0.24 E0.444321 F1200
G1 X78.912192 Y108.734856 Z0.24 E0.444321 F1200
G1 X77.174721 Y100.0 Z0.24 E0.444321 F1200
G1 X78.912192 Y91.265144 Z0.24 E0.444321 F1200
G1 X83.860091 Y83.860091 Z0.24 E0.444321 F1200
G1 X91.265144 Y78.912192 Z0.24 E0.444321 F1200
G1 X100.0 Y77.174721 Z0.24 E0.444321 F1200
G1 X108.734856 Y78.912192 Z0.24 E0.444321 F1200
G1 X116.139909 Y83.860091 Z0.24 E0.444321 F1200
G1 X121.087808 Y91.265144 Z0.24 E0.444321 F1200
G1 X122.825279 Y100.0 Z0.24 E0.444321 F1200
G0 X122.315483 Y100.0 Z0.24 F2400
G1 X120.616818 Y108.539766 Z0.24 E0.434397 F1200
G1 X115.77943 Y115.77943 Z0.24 E0.434397 F1200
G1 X108.539766 Y120.616818 Z0.24 E0.434397 F1200
G1 X100.0 Y122.315483 Z0.24 E0.434397 F1200
G1 X91.460234 Y120.616818 Z0.24 E0.434397 F1200
G1 X84.22057 Y115.77943 Z0.24 E0.434397 F1200
G1 X79.383182 Y108.539766 Z0.24 E0.434397 F1200
G1 X77.684517 Y100.0 Z0.24 E0.434397 F1200
G1 X79.383182 Y91.460234 Z0.24 E0.434397 F1200
G1 X84.22057 Y84.22057 Z0.24 E0.434397 F1200
G1 X91.460234 Y79.383182 Z0.24 E0.434397 F1200
G1 X100.0 Y77.684517 Z0.24 E0.434397 F1200
G1 X108.539766 Y79.383182 Z0.24 E0.434397 F1200
G1 X115.77943 Y84.22057 Z0.24 E0.434397 F1200
G1 X120.616818 Y91.460234 Z0.24 E0.434397 F1200
G1 X122.315483 Y100.0 Z0.24 E0.434397 F1200
G0 X121.805688 Y100.0 Z0.24 F2400
G1 X120.145828 Y108.344675 Z0.24 E0.424474 F1200
G1 X115.41895 Y115.41895 Z0.24 E0.424474 F1200
G1 X108.344675 Y120.145828 Z0.24 E0.424474 F1200
G1 X100.0 Y121.805688 Z0.24 E0.424474 F1200
G1 X91.655325 Y120.145828 Z0.24 E0.424474 F1200
G1 X84.58105 Y115.41895 Z0.24 E0.424474 F1200
G1 X79.854172 Y108.344675 Z0.24 E0.424474 F1200
G1 X78.194312 Y100.0 Z0.24 E0.424474 F1200
G1 X79.854172 Y91.655325 Z0.24 E0.424474 F1200
G1 X84.58105 Y84.58105 Z0.24 E0.424474 F1200
G1 X91.655325 Y79.854172 Z0.24 E0.424474 F1200
G1 X100.0 Y78.194312 Z0.24 E0.424474 F1200
G1 X108.344675 Y79.854172 Z0.24 E0.424474 F1200
G1 X115.41895 Y84.58105 Z0.24 E0.424474 F1200
G1 X120.145828 Y91.655325 Z0.24 E0.424474 F1200
G1 X121.805688 Y100.0 Z0.24 E0.424474 F1200
G0 X121.295892 Y100.0 Z0.24 F2400
G1 X119.674839 Y108.149585 Z0.24 E0.41455 F1200
G1 X115.05847 Y115.05847 Z0.24 E0.41455 F1200
G1 X108.149585 Y119.674839 Z0.24 E0.41455 F1200
G1 X100.0 Y121.295892 Z0.24 E0.41455 F1200
G1 X91.850415 Y119.674839 Z0.24 E0.41455 F1200
G1 X84.94153 Y115.05847 Z0.24 E0.41455 F1200
G1 X80.325161 Y108.149585 Z0.24 E0.41455 F1200
G1 X78.704108 Y100.0 Z0.24 E0.41455 F1200
G1 X80.325161 Y91.850415 Z0.24 E0.41455 F1200
G1 X84.94153 Y84.94153 Z0.24 E0.41455 F1200
G1 X91.850415 Y80.325161 Z0.24 E0.41455 F1200
G1 X100.0 Y78.704108 Z0.24 E0.41455 F1200
G1 X108.149585 Y80.325161 Z0.24 E0.41455 F1200
G1 X115.05847 Y84.94153 Z0.24 E0.41455 F1200
G1 X119.674839 Y91.850415 Z0.24 E0.41455 F1200
G1 X121.295892 Y100.0 Z0.24 E0.41455 F1200
G0 X120.786096 Y100.0 Z0.24 F2400
G1 X119.203849 Y107.954495 Z0.24 E0.404626 F1200
G1 X114.69799 Y114.69799 Z0.24 E0.404626 F1200
G1 X107.954495 Y119.203849 Z0.24 E0.404626 F1200
G1 X100.0 Y120.786096 Z0.24 E0.404626 F1200
G1 X92.045505 Y119.203849 Z0.24 E0.404626 F1200
G1 X85.30201 Y114.69799 Z0.24 E0.404626 F1200
G1 X80.796151 Y107.954495 Z0.24 E0.404626 F1200
G1 X79.213904 Y100.0 Z0.24 E0.404626 F1200
G1 X80.796151 Y92.045505 Z0.24 E0.404626 F1200
G1 X85.30201 Y85.30201 Z0.24 E0.404626 F1200
G1 X92.045505 Y80.796151 Z0.24 E0.404626 F1200
G1 X100.0 Y79.213904 Z0.24 E0.404626 F1200
G1 X107.954495 Y80.796151 Z0.24 E0.404626 F1200
G1 X114.69799 Y85.30201 Z0.24 E0.404626 F1200
G1 X119.203849 Y92.045505 Z0.24 E0.404626 F1200
G1 X120.786096 Y100.0 Z0.24 E0.404626 F1200
G0 X120.276301 Y100.0 Z0.24 F2400
G1 X118.732859 Y107.759404 Z0.24 E0.394702 F1200
G1 X114.33751 Y114.33751 Z0.24 E0.394702 F1200
G1 X107.759404 Y118.732859 Z0.24 E0.394702 F1200
G1 X100.0 Y120.276301 Z0.24 E0.394702 F1200
G1 X92.240596 Y118.732859 Z0.24 E0.394702 F1200
G1 X85.66249 Y114.33751 Z0.24 E0.394702 F1200
G1 X81.267141 Y107.759404 Z0.24 E0.394702 F1200
G1 X79.723699 Y100.0 Z0.24 E0.394702 F1200
G1 X81.267141 Y92.240596 Z0.24 E0.394702 F1200
G1 X85.66249 Y85.66249 Z0.24 E0.394702 F1200
G1 X92.240596 Y81.267141 Z0.24 E0.394702 F1200
G1 X100.0 Y79.723699 Z0.24 E0.394702 F1200
G1 X107.759404 Y81.267141 Z0.24 E0.394702 F1200
G1 X114.33751 Y85.66249 Z0.24 E0.394702 F1200
G1 X118.732859 Y92.240596 Z0.24 E0.394702 F1200
G1 X120.276301 Y100.0 Z0.24 E0.394702 F1200
G0 X119.766505 Y100.0 Z0.24 F2400
G1 X118.26187 Y107.564314 Z0.24 E0.384779 F1200
G1 X113.97703 Y113.97703 Z0.24 E0.384779 F1200
G1 X107.564314 Y118.26187 Z0.24 E0.384779 F1200
G1 X100.0 Y119.766505 Z0.24 E0.384779 F1200
G1 X92.435686 Y118.26187 Z0.24 E0.384779 F1200
G1 X86.02297 Y113.97703 Z0.24 E0.384779 F1200
G1 X81.73813 Y107.564314 Z0.24 E0.384779 F1200
G1 X80.233495 Y100.0 Z0.24 E0.384779 F1200
G1 X81.73813 Y92.435686 Z0.24 E0.384779 F1200
G1 X86.02297 Y86.02297 Z0.24 E0.384779 F1200
G1 X92.435686 Y81.73813 Z0.24 E0.384779 F1200
G1 X100.0 Y80.233495 Z0.24 E0.384779 F1200
G1 X107.564314 Y81.73813 Z0.24 E0.384779 F1200
G1 X113.97703 Y86.02297 Z0.24 E0.384779 F1200
G1 X118.26187 Y92.435686 Z0.24 E0.384779 F1200
G1 X119.766505 Y100.0 Z0.24 E0.384779 F1200
G0 X119.25671 Y100.0 Z0.24 F2400
G1 X117.79088 Y107.369224 Z0.24 E0.374855 F1200
G1 X113.61655 Y113.61655 Z0.24 E0.374855 F1200
G1 X107.369224 Y117.79088 Z0.24 E0.374855 F1200
G1 X100.0 Y119.25671 Z0.24 E0.374855 F1200
G1 X92.630776 Y117.79088 Z0.24 E0.374855 F1200
G1 X86.38345 Y113.61655 Z0.24 E0.374855 F1200
G1 X82.20912 Y107.369224 Z0.24 E0.374855 F1200
G1 X80.74329 Y100.0 Z0.24 E0.374855 F1200
G1 X82.20912 Y92.630776 Z0.24 E0.374855 F1200
G1 X86.38345 Y86.38345 Z0.24 E0.374855 F1200
G1 X92.630776 Y82.20912 Z0.24 E0.374855 F1200
G1 X100.0 Y80.74329 Z0.24 E0.374855 F1200
G1 X107.369224 Y82.20912 Z0.24 E0.374855 F1200
G1 X113.61655 Y86.38345 Z0.24 E0.374855 F1200
G1 X117.79088 Y92.630776 Z0.24 E0.374855 F1200
G1 X119.25671 Y100.0 Z0.24 E0.374855 F1200
G0 X118.746914 Y100.0 Z0.24 F2400
G1 X117.31989 Y107.174133 Z0.24 E0.364931 F1200
G1 X113.25607 Y113.25607 Z0.24 E0.364931 F1200
G1 X107.174133 Y117.31989 Z0.24 E0.364931 F1200
G1 X100.0 Y118.746914 Z0.24 E0.364931 F1200
G1 X92.825867 Y117.31989 Z0.24 E0.364931 F1200
G1 X86.74393 Y113.25607 Z0.24 E0.364931 F1200
G1 X82.68011 Y107.174133 Z0.24 E0.364931 F1200
G1 X81.253086 Y100.0 Z0.24 E0.364931 F1200
G1 X82.68011 Y92.825867 Z0.24 E0.364931 F1200
G1 X86.74393 Y86.74393 Z0.24 E0.364931 F1200
G1 X92.825867 Y82.68011 Z0.24 E0.364931 F1200
G1 X100.0 Y81.253086 Z0.24 E0.364931 F1200
G1 X107.174133 Y82.68011 Z0.24 E0.364931 F1200
G1 X113.25607 Y86.74393 Z0.24 E0.364931 F1200
G1 X117.31989 Y92.825867 Z0.24 E0.364931 F1200
G1 X118.746914 Y100.0 Z0.24 E0.364931 F1200
G0 X118.237119 Y100.0 Z0.24 F2400
G1 X116.848901 Y106.979043 Z0.24 E0.355007 F1200
G1 X112.89559 Y112.89559 Z0.24 E0.355007 F1200
G1 X106.979043 Y116.848901 Z0.24 E0.355007 F1200
G1 X100.0 Y118.237119 Z0.24 E0.355007 F1200
G1 X93.020957 Y116.848901 Z0.24 E0.355007 F1200
G1 X87.10441 Y112.89559 Z0.24 E0.355007 F1200
G1 X83.151099 Y106.979043 Z0.24 E0.355007 F1200
G1 X81.762881 Y100.0 Z0.24 E0.355007 F1200
G1 X83.151099 Y93.020957 Z0.24 E0.355007 F1200
G1 X87.10441 Y87.10441 Z0.24 E0.355007 F1200
G1 X93.020957 Y83.151099 Z0.24 E0.355007 F1200
G1 X100.0 Y81.762881 Z0.24 E0.355007 F1200
G1 X106.979043 Y83.151099 Z0.24 E0.355007 F1200
G1 X112.89559 Y87.10441 Z0.24 E0.355007 F1200
G1 X116.848901 Y93.020957 Z0.24 E0.355007 F1200
G1 X118.237119 Y100.0 Z0.24 E0.355007 F1200
G0 X117.727323 Y100.0 Z0.24 F2400
G1 X116.377911 Y106.783953 Z0.24 E0.345083 F1200
G1 X112.53511 Y112.53511 Z0.24 E0.345083 F1200
G1 X106.783953 Y116.377911 Z0.24 E0.345083 F1200
G1 X100.0 Y117.727323 Z0.24 E0.345083 F1200
G1 X93.216047 Y116.377911 Z0.24 E0.345083 F1200
G1 X87.46489 Y112.53511 Z0.24 E0.345083 F1200
G1 X83.622089 Y106.783953 Z0.24 E0.345083 F1200
G1 X82.272677 Y100.0 Z0.24 E0.345083 F1200
G1 X83.622089 Y93.216047 Z0.24 E0.345083 F1200
G1 X87.46489 Y87.46489 Z0.24 E0.345083 F1200
G1 X93.216047 Y83.622089 Z0.24 E0.345083 F1200
G1 X100.0 Y82.272677 Z0.24 E0.345083 F1200
G1 X106.783953 Y83.622089 Z0.24 E0.345083 F1200
G1 X112.53511 Y87.46489 Z0.24 E0.345083 F1200
G1 X116.377911 Y93.216047 Z0.24 E0.345083 F1200
G1 X117.727323 Y100.0 Z0.24 E0.345083 F1200
G0 X117.217527 Y100.0 Z0.24 F2400
G1 X115.906921 Y106.588862 Z0.24 E0.33516 F1200
G1 X112.17463 Y112.17463 Z0.24 E0.33516 F1200
G1 X106.588862 Y115.906921 Z0.24 E0.33516 F1200
G1 X100.0 Y117.217527 Z0.24 E0.33516 F1200
G1 X93.411138 Y115.906921 Z0.24 E0.33516 F1200
G1 X87.82537 Y112.17463 Z0.24 E0.33516 F1200
G1 X84.093079 Y106.588862 Z0.24 E0.33516 F1200
G1 X82.782473 Y100.0 Z0.24 E0.33516 F1200
G1 X84.093079 Y93.411138 Z0.24 E0.33516 F1200
G1 X87.82537 Y87.82537 Z0.24 E0.33516 F1200
G1 X93.411138 Y84.093079 Z0.24 E0.33516 F1200
G1 X100.0 Y82.782473 Z0.24 E0.33516 F1200
G1 X106.588862 Y84.093079 Z0.24 E0.33516 F1200
G1 X112.17463 Y87.82537 Z0.24 E0.33516 F1200
G1 X115.906921 Y93.411138 Z0.24 E0.33516 F1200
G1 X117.217527 Y100.0 Z0.24 E0.33516 F1200
G0 X116.707732 Y100.0 Z0.24 F2400
G1 X115.435931 Y106.393772 Z0.24 E0.325236 F1200
G1 X111.81415 Y111.81415 Z0.24 E0.325236 F1200
G1 X106.393772 Y115.435931 Z0.24 E0.325236 F1200
G1 X100.0 Y116.707732 Z0.24 E0.325236 F1200
G1 X93.606228 Y115.435931 Z0.24 E0.325236 F1200
G1 X88.18585 Y111.81415 Z0.24 E0.325236 F1200
G1 X84.564069 Y106.393772 Z0.24 E0.325236 F1200
G1 X83.292268 Y100.0 Z0.24 E0.325236 F1200
G1 X84.564069 Y93.606228 Z0.24 E0.325236 F1200
G1 X88.18585 Y88.18585 Z0.24 E0.325236 F1200
G1 X93.606228 Y84.564069 Z0.24 E0.325236 F1200
G1 X100.0 Y83.292268 Z0.24 E0.325236 F1200
G1 X106.393772 Y84.564069 Z0.24 E0.325236 F1200
G1 X111.81415 Y88.18585 Z0.24 E0.325236 F1200
G1 X115.435931 Y93.606228 Z0.24 E0.325236 F1200
G1 X116.707732 Y100.0 Z0.24 E0.325236 F1200
G0 X116.197936 Y100.0 Z0.24 F2400
G1 X114.964942 Y106.198682 Z0.24 E0.315312 F1200
G1 X111.453671 Y111.453671 Z0.24 E0.315312 F1200
G1 X106.198682 Y114.964942 Z0.24 E0.315312 F1200
G1 X100.0 Y116.197936 Z0.24 E0.315312 F1200
G1 X93.801318 Y114.964942 Z0.24 E0.315312 F1200
G1 X88.546329 Y111.453671 Z0.24 E0.315312 F1200
G1 X85.035058 Y106.198682 Z0.24 E0.315312 F1200
G1 X83.802064 Y100.0 Z0.24 E0.315312 F1200
G1 X85.035058 Y93.801318 Z0.24 E0.315312 F1200
G1 X88.546329 Y88.546329 Z0.24 E0.315312 F1200
G1 X93.801318 Y85.035058 Z0.24 E0.315312 F1200
G1 X100.0 Y83.802064 Z0.24 E0.315312 F1200
G1 X106.198682 Y85.035058 Z0.24 E0.315312 F1200
G1 X111.453671 Y88.546329 Z0.24 E0.315312 F1200
G1 X114.964942 Y93.801318 Z0.24 E0.315312 F1200
G1 X116.197936 Y100.0 Z0.24 E0.315312 F1200
G0 X115.688141 Y100.0 Z0.24 F2400
G1 X114.493952 Y106.003592 Z0.24 E0.305388 F1200
G1 X111.093191 Y111.093191 Z0.24 E0.305388 F1200
G1 X106.003592 Y114.493952 Z0.24 E0.305388 F1200
G1 X100.0 Y115.688141 Z0.24 E0.305388 F1200
G1 X93.996408 Y114.493952 Z0.24 E0.305388 F1200
G1 X88.906809 Y111.093191 Z0.24 E0.305388 F1200
G1 X85.506048 Y106.003592 Z0.24 E0.305388 F1200
G1 X84.311859 Y100.0 Z0.24 E0.305388 F1200
G1 X85.506048 Y93.996408 Z0.24 E0.305388 F1200
G1 X88.906809 Y88.906809 Z0.24 E0.305388 F1200
G1 X93.996408 Y85.506048 Z0.24 E0.305388 F1200
