;FLAVOR:Marlin 
;Layer height: 0.12 
;Generated with Cura_SteamEngine 4.9.0 
M140 S70
M105 
M190 S70
M104 S210
M105 
M109 S210
M83 ;relative extrusion mode 
; Ender 3 Custom Start G-code 
G92 E0 ; Reset Extruder 
G1 X0 Y0 Z10 F3000
G1 Z2.0 F3000 ; Move Z Axis up little to prevent scratching of Heat Bed 
G1 X0.1 Y20 Z0.3 F5000.0 ; Move to start position 
G1 X0.1 Y200.0 Z0.3 F1500.0 E15 ; Draw the first line 
G1 X0.4 Y200.0 Z0.3 F5000.0 ; Move to side a little 
G1 X0.4 Y20 Z0.3 F1500.0 E15 ; Draw the second line 
G92 E0 ; Reset Extruder 
G1 Z2.0 F3000 ; Move Z Axis up little to prevent scratching of Heat Bed 
G1 X5 Y20 Z0.3 F5000.0 ; Move over to prevent blob squish 
G92 E0 
G92 E0 
G1 F3000 E-8 
M104 S210
G0 X75.86066124745443 Y50.0 Z0.24 F1200
G1 E8
G1 X68.28624893404319 Y68.28624893404319 Z0.24 E0.9874714521174358 F1200
G1 X50.0 Y75.86066124745443 Z0.24 E0.9874714521174358 F1200
G1 X31.71375106595681 Y68.28624893404319 Z0.24 E0.987471452117436 F1200
G1 X24.139338752545566 Y50.0 Z0.24 E0.9874714521174358 F1200
G1 X31.713751065956803 Y31.71375106595681 Z0.24 E0.9874714521174358 F1200
G1 X49.99999999999999 Y24.139338752545566 Z0.24 E0.987471452117436 F1200
G1 X68.28624893404319 Y31.713751065956803 Z0.24 E0.987471452117436 F1200
G1 X75.86066124745443 Y49.99999999999999 Z0.24 E0.987471452117436 F1200
G1 X75.31946514730824 Y50.0 Z0.24 E0.02700038306596257 F1200
G1 X67.9035655016781 Y67.9035655016781 Z0.24 E0.9668062535837263 F1200
G1 X50.0 Y75.31946514730824 Z0.24 E0.9668062535837263 F1200
G1 X32.0964344983219 Y67.9035655016781 Z0.24 E0.9668062535837263 F1200
G1 X24.680534852691764 Y50.0 Z0.24 E0.9668062535837263 F1200
G1 X32.0964344983219 Y32.0964344983219 Z0.24 E0.9668062535837263 F1200
G1 X49.99999999999999 Y24.680534852691764 Z0.24 E0.9668062535837261 F1200
G1 X67.90356550167809 Y32.0964344983219 Z0.24 E0.9668062535837261 F1200
G1 X75.31946514730824 Y49.99999999999999 Z0.24 E0.9668062535837263 F1200
G1 X74.77826904716204 Y50.0 Z0.24 E0.02700038306596257 F1200
G1 X67.52088206931302 Y67.52088206931302 Z0.24 E0.9461410550500167 F1200
G1 X50.0 Y74.77826904716204 Z0.24 E0.9461410550500167 F1200
G1 X32.479117930686996 Y67.52088206931302 Z0.24 E0.9461410550500163 F1200
G1 X25.221730952837962 Y50.0 Z0.24 E0.946141055050017 F1200
G1 X32.47911793068698 Y32.479117930686996 Z0.24 E0.9461410550500161 F1200
G1 X49.99999999999999 Y25.221730952837962 Z0.24 E0.9461410550500167 F1200
G1 X67.520882069313 Y32.47911793068698 Z0.24 E0.9461410550500164 F1200
G1 X74.77826904716204 Y49.99999999999999 Z0.24 E0.9461410550500167 F1200
G1 X74.23707294701583 Y50.0 Z0.24 E0.02700038306596328 F1200
G1 X67.13819863694792 Y67.13819863694792 Z0.24 E0.9254758565163067 F1200
G1 X50.0 Y74.23707294701583 Z0.24 E0.9254758565163067 F1200
G1 X32.86180136305208 Y67.13819863694792 Z0.24 E0.9254758565163067 F1200
G1 X25.76292705298416 Y50.0 Z0.24 E0.9254758565163069 F1200
G1 X32.86180136305208 Y32.86180136305208 Z0.24 E0.9254758565163069 F1200
G1 X49.99999999999999 Y25.76292705298416 Z0.24 E0.9254758565163066 F1200
G1 X67.13819863694792 Y32.86180136305208 Z0.24 E0.9254758565163073 F1200
G1 X74.23707294701583 Y49.99999999999999 Z0.24 E0.9254758565163064 F1200
G1 X73.69587684686964 Y50.0 Z0.24 E0.02700038306596257 F1200
G1 X66.75551520458284 Y66.75551520458284 Z0.24 E0.9048106579825972 F1200
G1 X50.0 Y73.69587684686964 Z0.24 E0.9048106579825972 F1200
G1 X33.24448479541717 Y66.75551520458284 Z0.24 E0.904810657982597 F1200
G1 X26.30412315313036 Y50.0 Z0.24 E0.9048106579825975 F1200
G1 X33.244484795417165 Y33.24448479541717 Z0.24 E0.904810657982597 F1200
G1 X49.99999999999999 Y26.30412315313036 Z0.24 E0.904810657982597 F1200
G1 X66.75551520458282 Y33.244484795417165 Z0.24 E0.904810657982597 F1200
G1 X73.69587684686964 Y49.99999999999999 Z0.24 E0.9048106579825972 F1200
G1 X73.15468074672344 Y50.0 Z0.24 E0.02700038306596257 F1200
G1 X66.37283177221774 Y66.37283177221774 Z0.24 E0.8841454594488873 F1200
G1 X50.0 Y73.15468074672344 Z0.24 E0.8841454594488873 F1200
G1 X33.62716822778226 Y66.37283177221774 Z0.24 E0.8841454594488873 F1200
G1 X26.845319253276557 Y50.0 Z0.24 E0.8841454594488873 F1200
G1 X33.627168227782256 Y33.62716822778226 Z0.24 E0.8841454594488872 F1200
G1 X49.99999999999999 Y26.845319253276557 Z0.24 E0.8841454594488873 F1200
G1 X66.37283177221774 Y33.627168227782256 Z0.24 E0.8841454594488876 F1200
G1 X73.15468074672344 Y49.99999999999999 Z0.24 E0.8841454594488873 F1200
G1 X72.61348464657725 Y50.0 Z0.24 E0.02700038306596257 F1200
G1 X65.99014833985265 Y65.99014833985265 Z0.24 E0.8634802609151778 F1200
G1 X50.0 Y72.61348464657725 Z0.24 E0.8634802609151778 F1200
G1 X34.009851660147355 Y65.99014833985265 Z0.24 E0.8634802609151774 F1200
G1 X27.386515353422755 Y50.0 Z0.24 E0.8634802609151778 F1200
G1 X34.00985166014735 Y34.009851660147355 Z0.24 E0.8634802609151773 F1200
G1 X49.99999999999999 Y27.386515353422755 Z0.24 E0.8634802609151774 F1200
G1 X65.99014833985264 Y34.00985166014735 Z0.24 E0.8634802609151773 F1200
G1 X72.61348464657725 Y49.99999999999999 Z0.24 E0.8634802609151776 F1200
G1 X72.07228854643105 Y50.0 Z0.24 E0.02700038306596257 F1200
G1 X65.60746490748755 Y65.60746490748755 Z0.24 E0.842815062381468 F1200
G1 X50.0 Y72.07228854643105 Z0.24 E0.842815062381468 F1200
G1 X34.392535092512446 Y65.60746490748755 Z0.24 E0.842815062381468 F1200
G1 X27.927711453568953 Y50.0 Z0.24 E0.8428150623814679 F1200
G1 X34.39253509251244 Y34.392535092512446 Z0.24 E0.8428150623814676 F1200
G1 X49.99999999999999 Y27.927711453568953 Z0.24 E0.8428150623814679 F1200
G1 X65.60746490748755 Y34.39253509251244 Z0.24 E0.842815062381468 F1200
G1 X72.07228854643105 Y49.99999999999999 Z0.24 E0.842815062381468 F1200
G1 X71.53109244628484 Y50.0 Z0.24 E0.02700038306596328 F1200
G1 X65.22478147512247 Y65.22478147512247 Z0.24 E0.8221498638477581 F1200
G1 X50.0 Y71.53109244628484 Z0.24 E0.8221498638477581 F1200
G1 X34.77521852487753 Y65.22478147512247 Z0.24 E0.8221498638477581 F1200
G1 X28.46890755371515 Y50.0 Z0.24 E0.8221498638477581 F1200
G1 X34.77521852487753 Y34.77521852487753 Z0.24 E0.8221498638477581 F1200
G1 X49.99999999999999 Y28.46890755371515 Z0.24 E0.8221498638477579 F1200
G1 X65.22478147512246 Y34.77521852487753 Z0.24 E0.8221498638477579 F1200
G1 X71.53109244628484 Y49.99999999999999 Z0.24 E0.822149863847758 F1200
G1 X70.98989634613865 Y50.0 Z0.24 E0.02700038306596257 F1200
G1 X64.84209804275737 Y64.84209804275737 Z0.24 E0.8014846653140483 F1200
G1 X50.0 Y70.98989634613865 Z0.24 E0.8014846653140483 F1200
G1 X35.15790195724263 Y64.84209804275737 Z0.24 E0.8014846653140483 F1200
G1 X29.01010365386135 Y50.0 Z0.24 E0.8014846653140483 F1200
G1 X35.15790195724262 Y35.15790195724263 Z0.24 E0.801484665314048 F1200
G1 X49.99999999999999 Y29.01010365386135 Z0.24 E0.8014846653140483 F1200
G1 X64.84209804275737 Y35.15790195724262 Z0.24 E0.8014846653140485 F1200
G1 X70.98989634613865 Y49.99999999999999 Z0.24 E0.8014846653140483 F1200
G1 X70.44870024599246 Y50.0 Z0.24 E0.02700038306596257 F1200
G1 X64.45941461039229 Y64.45941461039229 Z0.24 E0.7808194667803388 F1200
G1 X50.0 Y70.44870024599246 Z0.24 E0.7808194667803388 F1200
G1 X35.54058538960771 Y64.45941461039229 Z0.24 E0.7808194667803388 F1200
G1 X29.551299754007548 Y50.0 Z0.24 E0.7808194667803388 F1200
G1 X35.54058538960771 Y35.54058538960771 Z0.24 E0.7808194667803388 F1200
G1 X49.99999999999999 Y29.551299754007548 Z0.24 E0.7808194667803383 F1200
G1 X64.45941461039229 Y35.54058538960771 Z0.24 E0.780819466780339 F1200
G1 X70.44870024599246 Y49.99999999999999 Z0.24 E0.7808194667803383 F1200
G1 X69.90750414584625 Y50.0 Z0.24 E0.02700038306596328 F1200
G1 X64.07673117802719 Y64.07673117802719 Z0.24 E0.7601542682466286 F1200
G1 X50.0 Y69.90750414584625 Z0.24 E0.7601542682466286 F1200
G1 X35.923268821972805 Y64.07673117802719 Z0.24 E0.7601542682466289 F1200
G1 X30.092495854153746 Y50.0 Z0.24 E0.7601542682466286 F1200
G1 X35.923268821972805 Y35.923268821972805 Z0.24 E0.7601542682466289 F1200
G1 X49.99999999999999 Y30.092495854153746 Z0.24 E0.7601542682466286 F1200
G1 X64.07673117802719 Y35.923268821972805 Z0.24 E0.7601542682466289 F1200
G1 X69.90750414584625 Y49.99999999999999 Z0.24 E0.7601542682466286 F1200
G1 X69.36630804570005 Y50.0 Z0.24 E0.02700038306596257 F1200
G1 X63.694047745662104 Y63.694047745662104 Z0.24 E0.7394890697129191 F1200
G1 X50.0 Y69.36630804570005 Z0.24 E0.7394890697129191 F1200
G1 X36.305952254337896 Y63.694047745662104 Z0.24 E0.7394890697129191 F1200
G1 X30.633691954299945 Y50.0 Z0.24 E0.7394890697129192 F1200
G1 X36.305952254337896 Y36.305952254337896 Z0.24 E0.7394890697129192 F1200
G1 X49.99999999999999 Y30.633691954299945 Z0.24 E0.7394890697129188 F1200
G1 X63.694047745662104 Y36.305952254337896 Z0.24 E0.7394890697129194 F1200
G1 X69.36630804570005 Y49.99999999999999 Z0.24 E0.7394890697129187 F1200
G1 X68.82511194555386 Y50.0 Z0.24 E0.02700038306596257 F1200
G1 X63.31136431329701 Y63.31136431329701 Z0.24 E0.7188238711792094 F1200
G1 X50.0 Y68.82511194555386 Z0.24 E0.7188238711792094 F1200
G1 X36.68863568670299 Y63.31136431329701 Z0.24 E0.7188238711792094 F1200
G1 X31.174888054446143 Y50.0 Z0.24 E0.7188238711792094 F1200
G1 X36.68863568670298 Y36.68863568670299 Z0.24 E0.7188238711792093 F1200
G1 X50.0 Y31.174888054446143 Z0.24 E0.7188238711792097 F1200
G1 X63.31136431329701 Y36.68863568670298 Z0.24 E0.7188238711792093 F1200
G1 X68.82511194555386 Y49.99999999999999 Z0.24 E0.7188238711792094 F1200
G1 X68.28391584540766 Y50.0 Z0.24 E0.02700038306596257 F1200
G1 X62.92868088093192 Y62.92868088093192 Z0.24 E0.6981586726454997 F1200
G1 X50.0 Y68.28391584540766 Z0.24 E0.6981586726454997 F1200
G1 X37.07131911906808 Y62.92868088093192 Z0.24 E0.6981586726454997 F1200
G1 X31.71608415459234 Y50.0 Z0.24 E0.6981586726454996 F1200
G1 X37.07131911906808 Y37.07131911906808 Z0.24 E0.6981586726454996 F1200
G1 X50.0 Y31.71608415459234 Z0.24 E0.6981586726454996 F1200
G1 X62.92868088093192 Y37.07131911906808 Z0.24 E0.6981586726454996 F1200
G1 X68.28391584540766 Y49.99999999999999 Z0.24 E0.6981586726454994 F1200
G1 X67.74271974526147 Y50.0 Z0.24 E0.02700038306596257 F1200
G1 X62.54599744856684 Y62.54599744856684 Z0.24 E0.6774934741117902 F1200
G1 X50.0 Y67.74271974526147 Z0.24 E0.6774934741117902 F1200
G1 X37.45400255143317 Y62.54599744856684 Z0.24 E0.6774934741117897 F1200
G1 X32.25728025473854 Y50.0 Z0.24 E0.6774934741117902 F1200
G1 X37.45400255143316 Y37.45400255143317 Z0.24 E0.6774934741117896 F1200
G1 X50.0 Y32.25728025473854 Z0.24 E0.6774934741117902 F1200
G1 X62.54599744856683 Y37.45400255143316 Z0.24 E0.6774934741117896 F1200
G1 X67.74271974526147 Y49.99999999999999 Z0.24 E0.67749347411179 F1200
G1 X67.20152364511526 Y50.0 Z0.24 E0.02700038306596328 F1200
G1 X62.16331401620174 Y62.16331401620174 Z0.24 E0.6568282755780801 F1200
G1 X50.0 Y67.20152364511526 Z0.24 E0.6568282755780801 F1200
G1 X37.83668598379826 Y62.16331401620174 Z0.24 E0.6568282755780801 F1200
G1 X32.79847635488474 Y50.0 Z0.24 E0.6568282755780801 F1200
G1 X37.836685983798255 Y37.83668598379826 Z0.24 E0.6568282755780799 F1200
G1 X50.0 Y32.79847635488474 Z0.24 E0.6568282755780804 F1200
G1 X62.16331401620174 Y37.836685983798255 Z0.24 E0.6568282755780799 F1200
G1 X67.20152364511526 Y49.99999999999999 Z0.24 E0.6568282755780801 F1200
G1 X66.66032754496906 Y50.0 Z0.24 E0.02700038306596257 F1200
G1 X61.780630583836654 Y61.780630583836654 Z0.24 E0.6361630770443705 F1200
G1 X50.0 Y66.66032754496906 Z0.24 E0.6361630770443705 F1200
G1 X38.21936941616335 Y61.780630583836654 Z0.24 E0.6361630770443703 F1200
G1 X33.339672455030936 Y50.0 Z0.24 E0.6361630770443707 F1200
G1 X38.219369416163346 Y38.21936941616335 Z0.24 E0.6361630770443703 F1200
G1 X50.0 Y33.339672455030936 Z0.24 E0.6361630770443707 F1200
G1 X61.78063058383665 Y38.219369416163346 Z0.24 E0.6361630770443703 F1200
G1 X66.66032754496906 Y49.99999999999999 Z0.24 E0.6361630770443704 F1200
G1 X66.11913144482287 Y50.0 Z0.24 E0.02700038306596257 F1200
G1 X61.39794715147156 Y61.39794715147156 Z0.24 E0.615497878510661 F1200
G1 X50.0 Y66.11913144482287 Z0.24 E0.615497878510661 F1200
G1 X38.602052848528444 Y61.39794715147156 Z0.24 E0.6154978785106605 F1200
G1 X33.88086855517713 Y50.0 Z0.24 E0.615497878510661 F1200
G1 X38.60205284852844 Y38.602052848528444 Z0.24 E0.6154978785106605 F1200
G1 X50.0 Y33.88086855517713 Z0.24 E0.615497878510661 F1200
G1 X61.397947151471556 Y38.60205284852844 Z0.24 E0.6154978785106605 F1200
G1 X66.11913144482287 Y49.99999999999999 Z0.24 E0.6154978785106607 F1200
G1 X65.57793534467667 Y50.0 Z0.24 E0.02700038306596257 F1200
G1 X61.01526371910647 Y61.01526371910647 Z0.24 E0.5948326799769511 F1200
G1 X50.0 Y65.57793534467667 Z0.24 E0.5948326799769511 F1200
G1 X38.98473628089353 Y61.01526371910647 Z0.24 E0.5948326799769511 F1200
G1 X34.42206465532333 Y50.0 Z0.24 E0.5948326799769511 F1200
G1 X38.98473628089353 Y38.98473628089353 Z0.24 E0.5948326799769511 F1200
G1 X50.0 Y34.42206465532333 Z0.24 E0.5948326799769511 F1200
G1 X61.01526371910647 Y38.98473628089353 Z0.24 E0.5948326799769511 F1200
G1 X65.57793534467667 Y49.99999999999999 Z0.24 E0.5948326799769509 F1200
G1 X65.03673924453048 Y50.0 Z0.24 E0.02700038306596257 F1200
G1 X60.63258028674138 Y60.63258028674138 Z0.24 E0.5741674814432415 F1200
G1 X50.0 Y65.03673924453048 Z0.24 E0.5741674814432415 F1200
G1 X39.36741971325862 Y60.63258028674138 Z0.24 E0.5741674814432415 F1200
G1 X34.96326075546953 Y50.0 Z0.24 E0.5741674814432413 F1200
G1 X39.36741971325861 Y39.36741971325862 Z0.24 E0.5741674814432411 F1200
G1 X50.0 Y34.96326075546953 Z0.24 E0.5741674814432417 F1200
G1 X60.63258028674138 Y39.36741971325861 Z0.24 E0.5741674814432411 F1200
G1 X65.03673924453048 Y49.99999999999999 Z0.24 E0.5741674814432415 F1200
G1 X64.49554314438427 Y50.0 Z0.24 E0.02700038306596328 F1200
G1 X60.24989685437629 Y60.24989685437629 Z0.24 E0.5535022829095315 F1200
G1 X50.0 Y64.49554314438427 Z0.24 E0.5535022829095315 F1200
G1 X39.75010314562371 Y60.24989685437629 Z0.24 E0.5535022829095315 F1200
G1 X35.50445685561572 Y50.0 Z0.24 E0.5535022829095317 F1200
G1 X39.750103145623704 Y39.75010314562371 Z0.24 E0.5535022829095315 F1200
G1 X50.0 Y35.50445685561572 Z0.24 E0.553502282909532 F1200
G1 X60.24989685437629 Y39.750103145623704 Z0.24 E0.5535022829095315 F1200
G1 X64.49554314438427 Y50.0 Z0.24 E0.5535022829095319 F1200
G1 X63.95434704423808 Y50.0 Z0.24 E0.02700038306596257 F1200
G1 X59.867213422011204 Y59.867213422011204 Z0.24 E0.532837084375822 F1200
G1 X50.0 Y63.95434704423808 Z0.24 E0.532837084375822 F1200
G1 X40.132786577988796 Y59.867213422011204 Z0.24 E0.532837084375822 F1200
G1 X36.04565295576192 Y50.0 Z0.24 E0.532837084375822 F1200
G1 X40.132786577988796 Y40.132786577988796 Z0.24 E0.532837084375822 F1200
G1 X50.0 Y36.04565295576192 Z0.24 E0.532837084375822 F1200
G1 X59.867213422011204 Y40.132786577988796 Z0.24 E0.532837084375822 F1200
G1 X63.95434704423808 Y50.0 Z0.24 E0.532837084375822 F1200
G1 X63.41315094409188 Y50.0 Z0.24 E0.02700038306596257 F1200
G1 X59.48452998964611 Y59.48452998964611 Z0.24 E0.5121718858421124 F1200
G1 X50.0 Y63.41315094409188 Z0.24 E0.5121718858421124 F1200
G1 X40.51547001035389 Y59.48452998964611 Z0.24 E0.5121718858421124 F1200
G1 X36.58684905590812 Y50.0 Z0.24 E0.5121718858421124 F1200
G1 X40.51547001035389 Y40.51547001035389 Z0.24 E0.5121718858421124 F1200
G1 X50.0 Y36.58684905590812 Z0.24 E0.5121718858421124 F1200
G1 X59.48452998964611 Y40.51547001035389 Z0.24 E0.5121718858421124 F1200
G1 X63.41315094409188 Y50.0 Z0.24 E0.5121718858421124 F1200
G1 X62.87195484394569 Y50.0 Z0.24 E0.02700038306596257 F1200
G1 X59.10184655728102 Y59.10184655728102 Z0.24 E0.4915066873084027 F1200
G1 X50.0 Y62.87195484394569 Z0.24 E0.4915066873084027 F1200
G1 X40.89815344271898 Y59.10184655728102 Z0.24 E0.4915066873084027 F1200
G1 X37.12804515605431 Y50.0 Z0.24 E0.4915066873084027 F1200
G1 X40.89815344271898 Y40.89815344271898 Z0.24 E0.4915066873084027 F1200
G1 X50.0 Y37.12804515605431 Z0.24 E0.4915066873084027 F1200
G1 X59.10184655728102 Y40.89815344271898 Z0.24 E0.4915066873084027 F1200
G1 X62.87195484394569 Y50.0 Z0.24 E0.4915066873084027 F1200
