;FLAVOR:Marlin 
;Layer height: 0.12 
;Generated with Cura_SteamEngine 4.9.0 
M140 S65
M105 
M190 S65
M104 S205
M105 
M109 S205
M82 ;absolute extrusion mode 
; Ender 3 Custom Start G-code 
G92 E0 ; Reset Extruder 
G1 X0 Y0 Z10 F3000
G1 Z2.0 F3000 ; Move Z Axis up little to prevent scratching of Heat Bed 
G1 X0.1 Y20 Z0.3 F5000.0 ; Move to start position 
G1 X0.1 Y200.0 Z0.3 F1500.0 E15 ; Draw the first line 
G1 X0.4 Y200.0 Z0.3 F5000.0 ; Move to side a little 
G1 X0.4 Y20 Z0.3 F1500.0 E30 ; Draw the second line 
G92 E0 ; Reset Extruder 
G1 Z2.0 F3000 ; Move Z Axis up little to prevent scratching of Heat Bed 
G1 X5 Y20 Z0.3 F5000.0 ; Move over to prevent blob squish 
G92 E0 
G92 E0 
G1 F3000 E-8 
G0 X118.197491 Y100.0 Z0.24 F2400
G1 E0.0
G1 X112.533164 Y107.796277 Z0.24 E0.480778 F1200
G1 X103.36809 Y104.818364 Z0.24 E0.961556 F1200
G1 X103.36809 Y95.181636 Z0.24 E1.442334 F1200
G1 X112.533164 Y92.203723 Z0.24 E1.923112 F1200
G1 X118.197491 Y100.0 Z0.24 E2.40389 F1200
G0 X117.579457 Y100.0 Z0.24 F2400
G1 X112.342181 Y107.208492 Z0.24 E2.848421 F1200
G1 X103.86809 Y104.455093 Z0.24 E3.292952 F1200
G1 X103.86809 Y95.544907 Z0.24 E3.737483 F1200
G1 X112.342181 Y92.791508 Z0.24 E4.182014 F1200
G1 X117.579457 Y100.0 Z0.24 E4.626545 F1200
G0 X116.961423 Y100.0 Z0.24 F2400
G1 X112.151198 Y106.620707 Z0.24 E5.034829 F1200
G1 X104.36809 Y104.091822 Z0.24 E5.443113 F1200
G1 X104.36809 Y95.908178 Z0.24 E5.851397 F1200
G1 X112.151198 Y93.379293 Z0.24 E6.259681 F1200
G1 X116.961423 Y100.0 Z0.24 E6.667965 F1200
G0 X116.343389 Y100.0 Z0.24 F2400
G1 X111.960215 Y106.032922 Z0.24 E7.040001 F1200
G1 X104.86809 Y103.728551 Z0.24 E7.412037 F1200
G1 X104.86809 Y96.271449 Z0.24 E7.784073 F1200
G1 X111.960215 Y93.967078 Z0.24 E8.156109 F1200
G1 X116.343389 Y100.0 Z0.24 E8.528145 F1200
G0 X115.725355 Y100.0 Z0.24 F2400
G1 X111.769232 Y105.445136 Z0.24 E8.863934 F1200
G1 X105.36809 Y103.365279 Z0.24 E9.199723 F1200
G1 X105.36809 Y96.634721 Z0.24 E9.535512 F1200
G1 X111.769232 Y94.554864 Z0.24 E9.871301 F1200
G1 X115.725355 Y100.0 Z0.24 E10.20709 F1200
G0 X115.107321 Y100.0 Z0.24 F2400
G1 X111.578249 Y104.857351 Z0.24 E10.506632 F1200
G1 X105.86809 Y103.002008 Z0.24 E10.806174 F1200
G1 X105.86809 Y96.997992 Z0.24 E11.105716 F1200
G1 X111.578249 Y95.142649 Z0.24 E11.405258 F1200
G1 X115.107321 Y100.0 Z0.24 E11.7048 F1200
G0 X114.489287 Y100.0 Z0.24 F2400
G1 X111.387266 Y104.269566 Z0.24 E11.968094 F1200
G1 X106.36809 Y102.638737 Z0.24 E12.231388 F1200
G1 X106.36809 Y97.361263 Z0.24 E12.494682 F1200
G1 X111.387266 Y95.730434 Z0.24 E12.757976 F1200
G1 X114.489287 Y100.0 Z0.24 E13.02127 F1200
G0 X113.871253 Y100.0 Z0.24 F2400
G1 X111.196283 Y103.681781 Z0.24 E13.248317 F1200
G1 X106.86809 Y102.275466 Z0.24 E13.475364 F1200
G1 X106.86809 Y97.724534 Z0.24 E13.702411 F1200
G1 X111.196283 Y96.318219 Z0.24 E13.929458 F1200
G1 X113.871253 Y100.0 Z0.24 E14.156505 F1200
G0 X113.253219 Y100.0 Z0.24 F2400
G1 X111.0053 Y103.093995 Z0.24 E14.347305 F1200
G1 X107.36809 Y101.912194 Z0.24 E14.538105 F1200
G1 X107.36809 Y98.087806 Z0.24 E14.728904 F1200
G1 X111.0053 Y96.906005 Z0.24 E14.919704 F1200
G1 X113.253219 Y100.0 Z0.24 E15.110504 F1200
G0 X112.635185 Y100.0 Z0.24 F2400
G1 X110.814317 Y102.50621 Z0.24 E15.265056 F1200
G1 X107.86809 Y101.548923 Z0.24 E15.419608 F1200
G1 X107.86809 Y98.451077 Z0.24 E15.57416 F1200
G1 X110.814317 Y97.49379 Z0.24 E15.728712 F1200
G1 X112.635185 Y100.0 Z0.24 E15.883264 F1200
G0 X112.017151 Y100.0 Z0.24 F2400
G1 X110.623334 Y101.918425 Z0.24 E16.001569 F1200
G1 X108.36809 Y101.185652 Z0.24 E16.119874 F1200
G1 X108.36809 Y98.814348 Z0.24 E16.238179 F1200
G1 X110.623334 Y98.081575 Z0.24 E16.356484 F1200
G1 X112.017151 Y100.0 Z0.24 E16.474789 F1200
G0 X111.399117 Y100.0 Z0.24 F2400
G1 X110.432351 Y101.33064 Z0.24 E16.556846 F1200
G1 X108.86809 Y100.82238 Z0.24 E16.638903 F1200
G1 X108.86809 Y99.17762 Z0.24 E16.72096 F1200
G1 X110.432351 Y98.66936 Z0.24 E16.803017 F1200
G1 X111.399117 Y100.0 Z0.24 E16.885074 F1200
G0 X110.781083 Y100.0 Z0.24 F2400
G1 X110.241368 Y100.742854 Z0.24 E16.930884 F1200
G1 X109.36809 Y100.459109 Z0.24 E16.976694 F1200
G1 X109.36809 Y99.540891 Z0.24 E17.022504 F1200
G1 X110.241368 Y99.257146 Z0.24 E17.068314 F1200
G1 X110.781083 Y100.0 Z0.24 E17.114124 F1200
G1 E9.114124
M104 S200
M140 S60
G0 X118.259294 Y100.0 Z0.24 F4800
G0 X118.259294 Y100.0 Z0.36 F4800
G1 E17.114124
G1 X112.552262 Y107.855056 Z0.36 E17.307885 F2400
G1 X103.31809 Y104.854691 Z0.36 E17.501646 F2400
G1 X103.31809 Y95.145309 Z0.36 E17.695407 F2400
G1 X112.552262 Y92.144944 Z0.36 E17.889168 F2400
G1 X118.259294 Y100.0 Z0.36 E18.082929 F2400
G0 X117.764867 Y100.0 Z0.36 F4800
G1 X112.399476 Y107.384828 Z0.36 E18.265091 F2400
G1 X103.71809 Y104.564074 Z0.36 E18.447253 F2400
G1 X103.71809 Y95.435926 Z0.36 E18.629415 F2400
G1 X112.399476 Y92.615172 Z0.36 E18.811577 F2400
G1 X117.764867 Y100.0 Z0.36 E18.993739 F2400
G0 X117.27044 Y100.0 Z0.36 F4800
G1 X112.24669 Y106.914599 Z0.36 E19.164302 F2400
G1 X104.11809 Y104.273457 Z0.36 E19.334865 F2400
G1 X104.11809 Y95.726543 Z0.36 E19.505428 F2400
G1 X112.24669 Y93.085401 Z0.36 E19.675991 F2400
G1 X117.27044 Y100.0 Z0.36 E19.846554 F2400
G0 X116.776013 Y100.0 Z0.36 F4800
G1 X112.093903 Y106.444371 Z0.36 E20.005518 F2400
G1 X104.51809 Y103.98284 Z0.36 E20.164482 F2400
G1 X104.51809 Y96.01716 Z0.36 E20.323446 F2400
G1 X112.093903 Y93.555629 Z0.36 E20.48241 F2400
G1 X116.776013 Y100.0 Z0.36 E20.641374 F2400
G0 X116.281586 Y100.0 Z0.36 F4800
G1 X111.941117 Y105.974143 Z0.36 E20.788739 F2400
G1 X104.91809 Y103.692223 Z0.36 E20.936104 F2400
G1 X104.91809 Y96.307777 Z0.36 E21.083469 F2400
G1 X111.941117 Y94.025857 Z0.36 E21.230834 F2400
G1 X116.281586 Y100.0 Z0.36 E21.378199 F2400
G0 X115.787159 Y100.0 Z0.36 F4800
G1 X111.78833 Y105.503915 Z0.36 E21.513964 F2400
G1 X105.31809 Y103.401606 Z0.36 E21.649729 F2400
G1 X105.31809 Y96.598394 Z0.36 E21.785494 F2400
G1 X111.78833 Y94.496085 Z0.36 E21.921259 F2400
G1 X115.787159 Y100.0 Z0.36 E22.057024 F2400
G0 X115.292731 Y100.0 Z0.36 F4800
G1 X111.635544 Y105.033687 Z0.36 E22.18119 F2400
G1 X105.71809 Y103.110989 Z0.36 E22.305356 F2400
G1 X105.71809 Y96.889011 Z0.36 E22.429522 F2400
G1 X111.635544 Y94.966313 Z0.36 E22.553688 F2400
G1 X115.292731 Y100.0 Z0.36 E22.677854 F2400
G0 X114.798304 Y100.0 Z0.36 F4800
G1 X111.482758 Y104.563458 Z0.36 E22.790421 F2400
G1 X106.11809 Y102.820372 Z0.36 E22.902988 F2400
G1 X106.11809 Y97.179628 Z0.36 E23.015555 F2400
G1 X111.482758 Y95.436542 Z0.36 E23.128122 F2400
G1 X114.798304 Y100.0 Z0.36 E23.240689 F2400
G0 X114.303877 Y100.0 Z0.36 F4800
G1 X111.329971 Y104.09323 Z0.36 E23.341657 F2400
G1 X106.51809 Y102.529755 Z0.36 E23.442625 F2400
G1 X106.51809 Y97.470245 Z0.36 E23.543593 F2400
G1 X111.329971 Y95.90677 Z0.36 E23.644561 F2400
G1 X114.303877 Y100.0 Z0.36 E23.745529 F2400
G0 X113.80945 Y100.0 Z0.36 F4800
G1 X111.177185 Y103.623002 Z0.36 E23.834898 F2400
G1 X106.91809 Y102.239138 Z0.36 E23.924267 F2400
G1 X106.91809 Y97.760862 Z0.36 E24.013636 F2400
G1 X111.177185 Y96.376998 Z0.36 E24.103005 F2400
G1 X113.80945 Y100.0 Z0.36 E24.192374 F2400
G0 X113.315023 Y100.0 Z0.36 F4800
G1 X111.024398 Y103.152774 Z0.36 E24.270144 F2400
G1 X107.31809 Y101.948521 Z0.36 E24.347914 F2400
G1 X107.31809 Y98.051479 Z0.36 E24.425684 F2400
G1 X111.024398 Y96.847226 Z0.36 E24.503454 F2400
G1 X113.315023 Y100.0 Z0.36 E24.581224 F2400
G0 X112.820595 Y100.0 Z0.36 F4800
G1 X110.871612 Y102.682546 Z0.36 E24.647395 F2400
G1 X107.71809 Y101.657904 Z0.36 E24.713566 F2400
G1 X107.71809 Y98.342096 Z0.36 E24.779737 F2400
G1 X110.871612 Y97.317454 Z0.36 E24.845908 F2400
G1 X112.820595 Y100.0 Z0.36 E24.912079 F2400
G0 X112.326168 Y100.0 Z0.36 F4800
G1 X110.718826 Y102.212317 Z0.36 E24.96665 F2400
G1 X108.11809 Y101.367287 Z0.36 E25.021221 F2400
G1 X108.11809 Y98.632713 Z0.36 E25.075792 F2400
G1 X110.718826 Y97.787683 Z0.36 E25.130363 F2400
G1 X112.326168 Y100.0 Z0.36 E25.184934 F2400
G0 X111.831741 Y100.0 Z0.36 F4800
G1 X110.566039 Y101.742089 Z0.36 E25.227906 F2400
G1 X108.51809 Y101.07667 Z0.36 E25.270878 F2400
G1 X108.51809 Y98.92333 Z0.36 E25.31385 F2400
G1 X110.566039 Y98.257911 Z0.36 E25.356822 F2400
G1 X111.831741 Y100.0 Z0.36 E25.399794 F2400
G0 X111.337314 Y100.0 Z0.36 F4800
G1 X110.413253 Y101.271861 Z0.36 E25.431167 F2400
G1 X108.91809 Y100.786053 Z0.36 E25.46254 F2400
G1 X108.91809 Y99.213947 Z0.36 E25.493913 F2400
G1 X110.413253 Y98.728139 Z0.36 E25.525286 F2400
G1 X111.337314 Y100.0 Z0.36 E25.556659 F2400
G0 X110.842887 Y100.0 Z0.36 F4800
G1 X110.260466 Y100.801633 Z0.36 E25.576433 F2400
G1 X109.31809 Y100.495436 Z0.36 E25.596207 F2400
G1 X109.31809 Y99.504564 Z0.36 E25.615981 F2400
G1 X110.260466 Y99.198367 Z0.36 E25.635755 F2400
G1 X110.842887 Y100.0 Z0.36 E25.655529 F2400
G0 X110.348459 Y100.0 Z0.36 F4800
G1 X110.10768 Y100.331405 Z0.36 E25.663704 F2400
G1 X109.71809 Y100.204819 Z0.36 E25.671879 F2400
G1 X109.71809 Y99.795181 Z0.36 E25.680054 F2400
G1 X110.10768 Y99.668595 Z0.36 E25.688229 F2400
G1 X110.348459 Y100.0 Z0.36 E25.696404 F2400
G1 E17.696404
G0 X118.259294 Y100.0 Z0.36 F4800
G0 X118.259294 Y100.0 Z0.48 F4800
G1 E25.696404
G1 X112.552262 Y107.855056 Z0.48 E25.890165 F2400
G1 X103.31809 Y104.854691 Z0.48 E26.083926 F2400
G1 X103.31809 Y95.145309 Z0.48 E26.277687 F2400
G1 X112.552262 Y92.144944 Z0.48 E26.471448 F2400
G1 X118.259294 Y100.0 Z0.48 E26.665209 F2400
G0 X117.764867 Y100.0 Z0.48 F4800
G1 X112.399476 Y107.384828 Z0.48 E26.847371 F2400
G1 X103.71809 Y104.564074 Z0.48 E27.029533 F2400
G1 X103.71809 Y95.435926 Z0.48 E27.211695 F2400
G1 X112.399476 Y92.615172 Z0.48 E27.393857 F2400
G1 X117.764867 Y100.0 Z0.48 E27.576019 F2400
G0 X117.27044 Y100.0 Z0.48 F4800
G1 X112.24669 Y106.914599 Z0.48 E27.746582 F2400
G1 X104.11809 Y104.273457 Z0.48 E27.917145 F2400
G1 X104.11809 Y95.726543 Z0.48 E28.087708 F2400
G1 X112.24669 Y93.085401 Z0.48 E28.258271 F2400
G1 X117.27044 Y100.0 Z0.48 E28.428834 F2400
G0 X116.776013 Y100.0 Z0.48 F4800
G1 X112.093903 Y106.444371 Z0.48 E28.587798 F2400
G1 X104.51809 Y103.98284 Z0.48 E28.746762 F2400
G1 X104.51809 Y96.01716 Z0.48 E28.905726 F2400
G1 X112.093903 Y93.555629 Z0.48 E29.06469 F2400
G1 X116.776013 Y100.0 Z0.48 E29.223654 F2400
G0 X116.281586 Y100.0 Z0.48 F4800
G1 X111.941117 Y105.974143 Z0.48 E29.371019 F2400
G1 X104.91809 Y103.692223 Z0.48 E29.518384 F2400
G1 X104.91809 Y96.307777 Z0.48 E29.665749 F2400
G1 X111.941117 Y94.025857 Z0.48 E29.813114 F2400
G1 X116.281586 Y100.0 Z0.48 E29.960479 F2400
G0 X115.787159 Y100.0 Z0.48 F4800
G1 X111.78833 Y105.503915 Z0.48 E30.096244 F2400
G1 X105.31809 Y103.401606 Z0.48 E30.232009 F2400
G1 X105.31809 Y96.598394 Z0.48 E30.367774 F2400
G1 X111.78833 Y94.496085 Z0.48 E30.503539 F2400
G1 X115.787159 Y100.0 Z0.48 E30.639304 F2400
G0 X115.292731 Y100.0 Z0.48 F4800
G1 X111.635544 Y105.033687 Z0.48 E30.76347 F2400
G1 X105.71809 Y103.110989 Z0.48 E30.887636 F2400
G1 X105.71809 Y96.889011 Z0.48 E31.011802 F2400
G1 X111.635544 Y94.966313 Z0.48 E31.135968 F2400
G1 X115.292731 Y100.0 Z0.48 E31.260134 F2400
G0 X114.798304 Y100.0 Z0.48 F4800
G1 X111.482758 Y104.563458 Z0.48 E31.372701 F2400
G1 X106.11809 Y102.820372 Z0.48 E31.485268 F2400
G1 X106.11809 Y97.179628 Z0.48 E31.597835 F2400
G1 X111.482758 Y95.436542 Z0.48 E31.710402 F2400
G1 X114.798304 Y100.0 Z0.48 E31.822969 F2400
G0 X114.303877 Y100.0 Z0.48 F4800
G1 X111.329971 Y104.09323 Z0.48 E31.923937 F2400
G1 X106.51809 Y102.529755 Z0.48 E32.024905 F2400
G1 X106.51809 Y97.470245 Z0.48 E32.125873 F2400
G1 X111.329971 Y95.90677 Z0.48 E32.226841 F2400
G1 X114.303877 Y100.0 Z0.48 E32.327809 F2400
G0 X113.80945 Y100.0 Z0.48 F4800
G1 X111.177185 Y103.623002 Z0.48 E32.417178 F2400
G1 X106.91809 Y102.239138 Z0.48 E32.506547 F2400
G1 X106.91809 Y97.760862 Z0.48 E32.595916 F2400
G1 X111.177185 Y96.376998 Z0.48 E32.685285 F2400
G1 X113.80945 Y100.0 Z0.48 E32.774654 F2400
G0 X113.315023 Y100.0 Z0.48 F4800
G1 X111.024398 Y103.152774 Z0.48 E32.852424 F2400
G1 X107.31809 Y101.948521 Z0.48 E32.930194 F2400
G1 X107.31809 Y98.051479 Z0.48 E33.007964 F2400
G1 X111.024398 Y96.847226 Z0.48 E33.085734 F2400
G1 X113.315023 Y100.0 Z0.48 E33.163504 F2400
G0 X112.820595 Y100.0 Z0.48 F4800
G1 X110.871612 Y102.682546 Z0.48 E33.229675 F2400
G1 X107.71809 Y101.657904 Z0.48 E33.295846 F2400
G1 X107.71809 Y98.342096 Z0.48 E33.362017 F2400
G1 X110.871612 Y97.317454 Z0.48 E33.428188 F2400
G1 X112.820595 Y100.0 Z0.48 E33.494359 F2400
G0 X112.326168 Y100.0 Z0.48 F4800
G1 X110.718826 Y102.212317 Z0.48 E33.54893 F2400
G1 X108.11809 Y101.367287 Z0.48 E33.603501 F2400
G1 X108.11809 Y98.632713 Z0.48 E33.658072 F2400
G1 X110.718826 Y97.787683 Z0.48 E33.712643 F2400
G1 X112.326168 Y100.0 Z0.48 E33.767214 F2400
G0 X111.831741 Y100.0 Z0.48 F4800
G1 X110.566039 Y101.742089 Z0.48 E33.810186 F2400
G1 X108.51809 Y101.07667 Z0.48 E33.853158 F2400
G1 X108.51809 Y98.92333 Z0.48 E33.89613 F2400
G1 X110.566039 Y98.257911 Z0.48 E33.939102 F2400
G1 X111.831741 Y100.0 Z0.48 E33.982074 F2400
G0 X111.337314 Y100.0 Z0.48 F4800
G1 X110.413253 Y101.271861 Z0.48 E34.013447 F2400
G1 X108.91809 Y100.786053 Z0.48 E34.04482 F2400
G1 X108.91809 Y99.213947 Z0.48 E34.076193 F2400
G1 X110.413253 Y98.728139 Z0.48 E34.107566 F2400
G1 X111.337314 Y100.0 Z0.48 E34.138939 F2400
G0 X110.842887 Y100.0 Z0.48 F4800
G1 X110.260466 Y100.801633 Z0.48 E34.158713 F2400
G1 X109.31809 Y100.495436 Z0.48 E34.178487 F2400
G1 X109.31809 Y99.504564 Z0.48 E34.198261 F2400
G1 X110.260466 Y99.198367 Z0.48 E34.218035 F2400
G1 X110.842887 Y100.0 Z0.48 E34.237809 F2400
G0 X110.348459 Y100.0 Z0.48 F4800
G1 X110.10768 Y100.331405 Z0.48 E34.245984 F2400
G1 X109.71809 Y100.204819 Z0.48 E34.254159 F2400
G1 X109.71809 Y99.795181 Z0.48 E34.262334 F2400
G1 X110.10768 Y99.668595 Z0.48 E34.270509 F2400
G1 X110.348459 Y100.0 Z0.48 E34.278684 F2400
G1 E26.278684
G0 X118.259294 Y100.0 Z0.48 F4800
G0 X118.259294 Y100.0 Z0.6 F4800
G1 E34.278684
G1 X112.552262 Y107.855056 Z0.6 E34.472445 F2400
G1 X103.31809 Y104.854691 Z0.6 E34.666206 F2400
G1 X103.31809 Y95.145309 Z0.6 E34.859967 F2400
G1 X112.552262 Y92.144944 Z0.6 E35.053728 F2400
G1 X118.259294 Y100.0 Z0.6 E35.247489 F2400
G0 X117.764867 Y100.0 Z0.6 F4800
G1 X112.399476 Y107.384828 Z0.6 E35.429651 F2400
G1 X103.71809 Y104.564074 Z0.6 E35.611813 F2400
G1 X103.71809 Y95.435926 Z0.6 E35.793975 F2400
G1 X112.399476 Y92.615172 Z0.6 E35.976137 F2400
G1 X117.764867 Y100.0 Z0.6 E36.158299 F2400
G0 X117.27044 Y100.0 Z0.6 F4800
G1 X112.24669 Y106.914599 Z0.6 E36.328862 F2400
G1 X104.11809 Y104.273457 Z0.6 E36.499425 F2400
G1 X104.11809 Y95.726543 Z0.6 E36.669988 F2400
G1 X112.24669 Y93.085401 Z0.6 E36.840551 F2400
G1 X117.27044 Y100.0 Z0.6 E37.011114 F2400
G0 X116.776013 Y100.0 Z0.6 F4800
G1 X112.093903 Y106.444371 Z0.6 E37.170078 F2400
G1 X104.51809 Y103.98284 Z0.6 E37.329042 F2400
G1 X104.51809 Y96.01716 Z0.6 E37.488006 F2400
G1 X112.093903 Y93.555629 Z0.6 E37.64697 F2400
G1 X116.776013 Y100.0 Z0.6 E37.805934 F2400
G0 X116.281586 Y100.0 Z0.6 F4800
G1 X111.941117 Y105.974143 Z0.6 E37.953299 F2400
G1 X104.91809 Y103.692223 Z0.6 E38.100664 F2400
G1 X104.91809 Y96.307777 Z0.6 E38.248029 F2400
G1 X111.941117 Y94.025857 Z0.6 E38.395394 F2400
G1 X116.281586 Y100.0 Z0.6 E38.542759 F2400
G0 X115.787159 Y100.0 Z0.6 F4800
G1 X111.78833 Y105.503915 Z0.6 E38.678524 F2400
G1 X105.31809 Y103.401606 Z0.6 E38.814289 F2400
G1 X105.31809 Y96.598394 Z0.6 E38.950054 F2400
G1 X111.78833 Y94.496085 Z0.6 E39.085819 F2400
G1 X115.787159 Y100.0 Z0.6 E39.221584 F2400
G0 X115.292731 Y100.0 Z0.6 F4800
G1 X111.635544 Y105.033687 Z0.6 E39.34575 F2400
G1 X105.71809 Y103.110989 Z0.6 E39.469916 F2400
G1 X105.71809 Y96.889011 Z0.6 E39.594082 F2400
G1 X111.635544 Y94.966313 Z0.6 E39.718248 F2400
G1 X115.292731 Y100.0 Z0.6 E39.842414 F2400
G0 X114.798304 Y100.0 Z0.6 F4800
G1 X111.482758 Y104.563458 Z0.6 E39.954981 F2400
G1 X106.11809 Y102.820372 Z0.6 E40.067548 F2400
G1 X106.11809 Y97.179628 Z0.6 E40.180115 F2400
G1 X111.482758 Y95.436542 Z0.6 E40.292682 F2400
G1 X114.798304 Y100.0 Z0.6 E40.405249 F2400
G0 X114.303877 Y100.0 Z0.6 F4800
G1 X111.329971 Y104.09323 Z0.6 E40.506217 F2400
