;FLAVOR:Marlin 
;Layer height: 0.12 
;Generated with Cura_SteamEngine 4.9.0 
M140 S70
M105 
M190 S70
M104 S210
M105 
M109 S210
M83 ;relative extrusion mode 
; Ender 3 Custom Start G-code 
G92 E0 ; Reset Extruder 
G1 X0 Y0 Z10 F3000
G1 Z2.0 F3000 ; Move Z Axis up little to prevent scratching of Heat Bed 
G1 X0.1 Y20 Z0.3 F5000.0 ; Move to start position 
G1 X0.1 Y200.0 Z0.3 F1500.0 E15 ; Draw the first line 
G1 X0.4 Y200.0 Z0.3 F5000.0 ; Move to side a little 
G1 X0.4 Y20 Z0.3 F1500.0 E15 ; Draw the second line 
G92 E0 ; Reset Extruder 
G1 Z2.0 F3000 ; Move Z Axis up little to prevent scratching of Heat Bed 
G1 X5 Y20 Z0.3 F5000.0 ; Move over to prevent blob squish 
G92 E0 
G92 E0 
G1 F3000 E-8 
M104 S210
G0 X50.75 Y50.75 Z0.24 F1200
G1 E8
G1 X49.25 Y50.75 Z0.24 E0.07483530385382181 F1200
G1 X49.25 Y49.25 Z0.24 E0.07483530385382181 F1200
G1 X50.75 Y49.25 Z0.24 E0.07483530385382181 F1200
G1 X50.75 Y50.75 Z0.24 E0.07483530385382181 F1200
G1 X50.25 Y50.25 Z0.24 E0.03527770055146212 F1200
G1 X49.75 Y50.25 Z0.24 E0.02494510128460727 F1200
G1 X49.75 Y49.75 Z0.24 E0.02494510128460727 F1200
G1 X50.25 Y49.75 Z0.24 E0.02494510128460727 F1200
G1 X50.25 Y50.25 Z0.24 E0.02494510128460727 F1200
G1 E-8
M104 S205
M140 S65
G0 X50.8 Y50.8 Z0.24 F1200
G0 X50.8 Y50.8 Z0.36 F1200
G1 E8
G1 X49.2 Y50.8 Z0.36 E0.031929729644297196 F1200
G1 X49.2 Y49.2 Z0.36 E0.031929729644297196 F1200
G1 X50.8 Y49.2 Z0.36 E0.031929729644297196 F1200
G1 X50.8 Y50.8 Z0.36 E0.031929729644297196 F1200
G1 X50.4 Y50.4 Z0.36 E0.011288864176467838 F1200
G1 X49.6 Y50.4 Z0.36 E0.015964864822148598 F1200
G1 X49.6 Y49.6 Z0.36 E0.015964864822148598 F1200
G1 X50.4 Y49.6 Z0.36 E0.015964864822148598 F1200
G1 X50.4 Y50.4 Z0.36 E0.015964864822148598 F1200
G1 E-8
G0 X50.8 Y50.8 Z0.36 F1200
G0 X50.8 Y50.8 Z0.48 F1200
G1 E8
G1 X49.2 Y50.8 Z0.48 E0.031929729644297196 F1200
G1 X49.2 Y49.2 Z0.48 E0.031929729644297196 F1200
G1 X50.8 Y49.2 Z0.48 E0.031929729644297196 F1200
G1 X50.8 Y50.8 Z0.48 E0.031929729644297196 F1200
G1 X50.4 Y50.4 Z0.48 E0.011288864176467838 F1200
G1 X49.6 Y50.4 Z0.48 E0.015964864822148598 F1200
G1 X49.6 Y49.6 Z0.48 E0.015964864822148598 F1200
G1 X50.4 Y49.6 Z0.48 E0.015964864822148598 F1200
G1 X50.4 Y50.4 Z0.48 E0.015964864822148598 F1200
G1 E-8
G0 X50.8 Y50.8 Z0.48 F1200
G0 X50.8 Y50.8 Z0.6 F1200
G1 E8
G1 X49.2 Y50.8 Z0.6 E0.031929729644297196 F1200
G1 X49.2 Y49.2 Z0.6 E0.031929729644297196 F1200
G1 X50.8 Y49.2 Z0.6 E0.031929729644297196 F1200
G1 X50.8 Y50.8 Z0.6 E0.031929729644297196 F1200
G1 X50.4 Y50.4 Z0.6 E0.011288864176467838 F1200
G1 X49.6 Y50.4 Z0.6 E0.015964864822148598 F1200
G1 X49.6 Y49.6 Z0.6 E0.015964864822148598 F1200
G1 X50.4 Y49.6 Z0.6 E0.015964864822148598 F1200
G1 X50.4 Y50.4 Z0.6 E0.015964864822148598 F1200
G1 E-8
G0 X50.8 Y50.8 Z0.6 F1200
G0 X50.8 Y50.8 Z0.72 F1200
G1 E8
G1 X49.2 Y50.8 Z0.72 E0.031929729644297196 F1200
G1 X49.2 Y49.2 Z0.72 E0.031929729644297196 F1200
G1 X50.8 Y49.2 Z0.72 E0.031929729644297196 F1200
G1 X50.8 Y50.8 Z0.72 E0.031929729644297196 F1200
G1 X50.4 Y50.4 Z0.72 E0.011288864176467838 F1200
G1 X49.6 Y50.4 Z0.72 E0.015964864822148598 F1200
G1 X49.6 Y49.6 Z0.72 E0.015964864822148598 F1200
G1 X50.4 Y49.6 Z0.72 E0.015964864822148598 F1200
G1 X50.4 Y50.4 Z0.72 E0.015964864822148598 F1200
G1 E-8
G0 X50.8 Y50.8 Z0.72 F1200
G0 X50.8 Y50.8 Z0.84 F1200
G1 E8
G1 X49.2 Y50.8 Z0.84 E0.031929729644297196 F1200
G1 X49.2 Y49.2 Z0.84 E0.031929729644297196 F1200
G1 X50.8 Y49.2 Z0.84 E0.031929729644297196 F1200
G1 X50.8 Y50.8 Z0.84 E0.031929729644297196 F1200
G1 X50.4 Y50.4 Z0.84 E0.011288864176467838 F1200
G1 X49.6 Y50.4 Z0.84 E0.015964864822148598 F1200
G1 X49.6 Y49.6 Z0.84 E0.015964864822148598 F1200
G1 X50.4 Y49.6 Z0.84 E0.015964864822148598 F1200
G1 X50.4 Y50.4 Z0.84 E0.015964864822148598 F1200
G1 E-8
G0 X50.8 Y50.8 Z0.84 F1200
G0 X50.8 Y50.8 Z0.96 F1200
G1 E8
G1 X49.2 Y50.8 Z0.96 E0.031929729644297196 F1200
G1 X49.2 Y49.2 Z0.96 E0.031929729644297196 F1200
G1 X50.8 Y49.2 Z0.96 E0.031929729644297196 F1200
G1 X50.8 Y50.8 Z0.96 E0.031929729644297196 F1200
G1 X50.4 Y50.4 Z0.96 E0.011288864176467838 F1200
G1 X49.6 Y50.4 Z0.96 E0.015964864822148598 F1200
G1 X49.6 Y49.6 Z0.96 E0.015964864822148598 F1200
G1 X50.4 Y49.6 Z0.96 E0.015964864822148598 F1200
G1 X50.4 Y50.4 Z0.96 E0.015964864822148598 F1200
G1 E-8
G0 X50.8 Y50.8 Z0.9600000000000001 F1200
G0 X50.8 Y50.8 Z1.08 F1200
G1 E8
G1 X49.2 Y50.8 Z1.08 E0.031929729644297196 F1200
G1 X49.2 Y49.2 Z1.08 E0.031929729644297196 F1200
G1 X50.8 Y49.2 Z1.08 E0.031929729644297196 F1200
G1 X50.8 Y50.8 Z1.08 E0.031929729644297196 F1200
G1 X50.4 Y50.4 Z1.08 E0.011288864176467838 F1200
G1 X49.6 Y50.4 Z1.08 E0.015964864822148598 F1200
G1 X49.6 Y49.6 Z1.08 E0.015964864822148598 F1200
G1 X50.4 Y49.6 Z1.08 E0.015964864822148598 F1200
G1 X50.4 Y50.4 Z1.08 E0.015964864822148598 F1200
G1 E-8
G0 X50.8 Y50.8 Z1.08 F1200
G0 X50.8 Y50.8 Z1.2000000000000002 F1200
G1 E8
G1 X49.2 Y50.8 Z1.2000000000000002 E0.031929729644297196 F1200
G1 X49.2 Y49.2 Z1.2000000000000002 E0.031929729644297196 F1200
G1 X50.8 Y49.2 Z1.2000000000000002 E0.031929729644297196 F1200
G1 X50.8 Y50.8 Z1.2000000000000002 E0.031929729644297196 F1200
G1 X50.4 Y50.4 Z1.2000000000000002 E0.011288864176467838 F1200
G1 X49.6 Y50.4 Z1.2000000000000002 E0.015964864822148598 F1200
G1 X49.6 Y49.6 Z1.2000000000000002 E0.015964864822148598 F1200
G1 X50.4 Y49.6 Z1.2000000000000002 E0.015964864822148598 F1200
G1 X50.4 Y50.4 Z1.2000000000000002 E0.015964864822148598 F1200
G1 E-8
G0 X50.8 Y50.8 Z1.2000000000000002 F1200
G0 X50.8 Y50.8 Z1.3200000000000003 F1200
G1 E8
G1 X49.2 Y50.8 Z1.3200000000000003 E0.031929729644297196 F1200
G1 X49.2 Y49.2 Z1.3200000000000003 E0.031929729644297196 F1200
G1 X50.8 Y49.2 Z1.3200000000000003 E0.031929729644297196 F1200
G1 X50.8 Y50.8 Z1.3200000000000003 E0.031929729644297196 F1200
G1 X50.4 Y50.4 Z1.3200000000000003 E0.011288864176467838 F1200
G1 X49.6 Y50.4 Z1.3200000000000003 E0.015964864822148598 F1200
G1 X49.6 Y49.6 Z1.3200000000000003 E0.015964864822148598 F1200
G1 X50.4 Y49.6 Z1.3200000000000003 E0.015964864822148598 F1200
G1 X50.4 Y50.4 Z1.3200000000000003 E0.015964864822148598 F1200
G1 E-8
G0 X50.8 Y50.8 Z1.3200000000000003 F1200
G0 X50.8 Y50.8 Z1.4400000000000004 F1200
G1 E8
G1 X49.2 Y50.8 Z1.4400000000000004 E0.031929729644297196 F1200
G1 X49.2 Y49.2 Z1.4400000000000004 E0.031929729644297196 F1200
G1 X50.8 Y49.2 Z1.4400000000000004 E0.031929729644297196 F1200
G1 X50.8 Y50.8 Z1.4400000000000004 E0.031929729644297196 F1200
G1 X50.4 Y50.4 Z1.4400000000000004 E0.011288864176467838 F1200
G1 X49.6 Y50.4 Z1.4400000000000004 E0.015964864822148598 F1200
G1 X49.6 Y49.6 Z1.4400000000000004 E0.015964864822148598 F1200
G1 X50.4 Y49.6 Z1.4400000000000004 E0.015964864822148598 F1200
G1 X50.4 Y50.4 Z1.4400000000000004 E0.015964864822148598 F1200
G1 E-8
G0 X50.8 Y50.8 Z1.4400000000000004 F1200
G0 X50.8 Y50.8 Z1.5600000000000005 F1200
G1 E8
G1 X49.2 Y50.8 Z1.5600000000000005 E0.031929729644297196 F1200
G1 X49.2 Y49.2 Z1.5600000000000005 E0.031929729644297196 F1200
G1 X50.8 Y49.2 Z1.5600000000000005 E0.031929729644297196 F1200
G1 X50.8 Y50.8 Z1.5600000000000005 E0.031929729644297196 F1200
G1 X50.4 Y50.4 Z1.5600000000000005 E0.011288864176467838 F1200
G1 X49.6 Y50.4 Z1.5600000000000005 E0.015964864822148598 F1200
G1 X49.6 Y49.6 Z1.5600000000000005 E0.015964864822148598 F1200
G1 X50.4 Y49.6 Z1.5600000000000005 E0.015964864822148598 F1200
G1 X50.4 Y50.4 Z1.5600000000000005 E0.015964864822148598 F1200
G1 E-8
G0 X50.8 Y50.8 Z1.5600000000000005 F1200
G0 X50.8 Y50.8 Z1.6800000000000006 F1200
G1 E8
G1 X49.2 Y50.8 Z1.6800000000000006 E0.031929729644297196 F1200
G1 X49.2 Y49.2 Z1.6800000000000006 E0.031929729644297196 F1200
G1 X50.8 Y49.2 Z1.6800000000000006 E0.031929729644297196 F1200
G1 X50.8 Y50.8 Z1.6800000000000006 E0.031929729644297196 F1200
G1 X50.4 Y50.4 Z1.6800000000000006 E0.011288864176467838 F1200
G1 X49.6 Y50.4 Z1.6800000000000006 E0.015964864822148598 F1200
G1 X49.6 Y49.6 Z1.6800000000000006 E0.015964864822148598 F1200
G1 X50.4 Y49.6 Z1.6800000000000006 E0.015964864822148598 F1200
G1 X50.4 Y50.4 Z1.6800000000000006 E0.015964864822148598 F1200
G1 E-8
G0 X50.8 Y50.8 Z1.6800000000000006 F1200
G0 X50.8 Y50.8 Z1.8000000000000007 F1200
G1 E8
G1 X49.2 Y50.8 Z1.8000000000000007 E0.031929729644297196 F1200
G1 X49.2 Y49.2 Z1.8000000000000007 E0.031929729644297196 F1200
G1 X50.8 Y49.2 Z1.8000000000000007 E0.031929729644297196 F1200
G1 X50.8 Y50.8 Z1.8000000000000007 E0.031929729644297196 F1200
G1 X50.4 Y50.4 Z1.8000000000000007 E0.011288864176467838 F1200
G1 X49.6 Y50.4 Z1.8000000000000007 E0.015964864822148598 F1200
G1 X49.6 Y49.6 Z1.8000000000000007 E0.015964864822148598 F1200
G1 X50.4 Y49.6 Z1.8000000000000007 E0.015964864822148598 F1200
G1 X50.4 Y50.4 Z1.8000000000000007 E0.015964864822148598 F1200
G1 E-8
G0 X50.8 Y50.8 Z1.8000000000000007 F1200
G0 X50.8 Y50.8 Z1.9200000000000008 F1200
G1 E8
G1 X49.2 Y50.8 Z1.9200000000000008 E0.031929729644297196 F1200
G1 X49.2 Y49.2 Z1.9200000000000008 E0.031929729644297196 F1200
G1 X50.8 Y49.2 Z1.9200000000000008 E0.031929729644297196 F1200
G1 X50.8 Y50.8 Z1.9200000000000008 E0.031929729644297196 F1200
G1 X50.4 Y50.4 Z1.9200000000000008 E0.011288864176467838 F1200
G1 X49.6 Y50.4 Z1.9200000000000008 E0.015964864822148598 F1200
G1 X49.6 Y49.6 Z1.9200000000000008 E0.015964864822148598 F1200
G1 X50.4 Y49.6 Z1.9200000000000008 E0.015964864822148598 F1200
G1 X50.4 Y50.4 Z1.9200000000000008 E0.015964864822148598 F1200
G1 E-8
G91 ;Relative positioning
G1 E-2 F2700 ;Retract a bit
G1 E-2 Z0.2 F2400 ;Retract and raise Z
G1 X5 Y5 F3000 ;Wipe out
G1 Z10 ;Raise Z more
G90 ;Absolute positioning