;FLAVOR:Marlin 
;Layer height: 0.12 
;Generated with Cura_SteamEngine 4.9.0 
M140 S65
M105 
M190 S65
M104 S205
M105 
M109 S205
M83 ;relative extrusion mode 
; Ender 3 Custom Start G-code 
G92 E0 ; Reset Extruder 
G1 X0 Y0 Z10 F3000
G1 Z2.0 F3000 ; Move Z Axis up little to prevent scratching of Heat Bed 
G1 X0.1 Y20 Z0.3 F5000.0 ; Move to start position 
G1 X0.1 Y200.0 Z0.3 F1500.0 E15 ; Draw the first line 
G1 X0.4 Y200.0 Z0.3 F5000.0 ; Move to side a little 
G1 X0.4 Y20 Z0.3 F1500.0 E15 ; Draw the second line 
G92 E0 ; Reset Extruder 
G1 Z2.0 F3000 ; Move Z Axis up little to prevent scratching of Heat Bed 
G1 X5 Y20 Z0.3 F5000.0 ; Move over to prevent blob squish 
G92 E0 
G92 E0 
G1 F3000 E-8 
M104 S205
G0 X109.711325 Y100.0 Z0.24 F2400
G1 E8
G1 X104.855662 Y108.410254 Z0.24 E0.4845 F1200
G1 X95.144338 Y108.410254 Z0.24 E0.4845 F1200
G1 X90.288675 Y100.0 Z0.24 E0.4845 F1200
G1 X95.144338 Y91.589746 Z0.24 E0.4845 F1200
G1 X104.855662 Y91.589746 Z0.24 E0.4845 F1200
G1 X109.711325 Y100.0 Z0.24 E0.4845 F1200
G0 X109.133975 Y100.0 Z0.24 F2400
G1 X104.566987 Y107.910254 Z0.24 E0.455696 F1200
G1 X95.433013 Y107.910254 Z0.24 E0.455696 F1200
G1 X90.866025 Y100.0 Z0.24 E0.455696 F1200
G1 X95.433013 Y92.089746 Z0.24 E0.455696 F1200
G1 X104.566987 Y92.089746 Z0.24 E0.455696 F1200
G1 X109.133975 Y100.0 Z0.24 E0.455696 F1200
G0 X108.556624 Y100.0 Z0.24 F2400
G1 X104.278312 Y107.410254 Z0.24 E0.426892 F1200
G1 X95.721688 Y107.410254 Z0.24 E0.426892 F1200
G1 X91.443376 Y100.0 Z0.24 E0.426892 F1200
G1 X95.721688 Y92.589746 Z0.24 E0.426892 F1200
G1 X104.278312 Y92.589746 Z0.24 E0.426892 F1200
G1 X108.556624 Y100.0 Z0.24 E0.426892 F1200
G0 X107.979274 Y100.0 Z0.24 F2400
G1 X103.989637 Y106.910254 Z0.24 E0.398088 F1200
G1 X96.010363 Y106.910254 Z0.24 E0.398088 F1200
G1 X92.020726 Y100.0 Z0.24 E0.398088 F1200
G1 X96.010363 Y93.089746 Z0.24 E0.398088 F1200
G1 X103.989637 Y93.089746 Z0.24 E0.398088 F1200
G1 X107.979274 Y100.0 Z0.24 E0.398088 F1200
G0 X107.401924 Y100.0 Z0.24 F2400
G1 X103.700962 Y106.410254 Z0.24 E0.369283 F1200
G1 X96.299038 Y106.410254 Z0.24 E0.369283 F1200
G1 X92.598076 Y100.0 Z0.24 E0.369283 F1200
G1 X96.299038 Y93.589746 Z0.24 E0.369283 F1200
G1 X103.700962 Y93.589746 Z0.24 E0.369283 F1200
G1 X107.401924 Y100.0 Z0.24 E0.369283 F1200
G0 X106.824574 Y100.0 Z0.24 F2400
G1 X103.412287 Y105.910254 Z0.24 E0.340479 F1200
G1 X96.587713 Y105.910254 Z0.24 E0.340479 F1200
G1 X93.175426 Y100.0 Z0.24 E0.340479 F1200
G1 X96.587713 Y94.089746 Z0.24 E0.340479 F1200
G1 X103.412287 Y94.089746 Z0.24 E0.340479 F1200
G1 X106.824574 Y100.0 Z0.24 E0.340479 F1200
G0 X106.247223 Y100.0 Z0.24 F2400
G1 X103.123612 Y105.410254 Z0.24 E0.311675 F1200
G1 X96.876388 Y105.410254 Z0.24 E0.311675 F1200
G1 X93.752777 Y100.0 Z0.24 E0.311675 F1200
G1 X96.876388 Y94.589746 Z0.24 E0.311675 F1200
G1 X103.123612 Y94.589746 Z0.24 E0.311675 F1200
G1 X106.247223 Y100.0 Z0.24 E0.311675 F1200
G0 X105.669873 Y100.0 Z0.24 F2400
G1 X102.834936 Y104.910254 Z0.24 E0.282871 F1200
G1 X97.165064 Y104.910254 Z0.24 E0.282871 F1200
G1 X94.330127 Y100.0 Z0.24 E0.282871 F1200
G1 X97.165064 Y95.089746 Z0.24 E0.282871 F1200
G1 X102.834936 Y95.089746 Z0.24 E0.282871 F1200
G1 X105.669873 Y100.0 Z0.24 E0.282871 F1200
G0 X105.092523 Y100.0 Z0.24 F2400
G1 X102.546261 Y104.410254 Z0.24 E0.254067 F1200
G1 X97.453739 Y104.410254 Z0.24 E0.254067 F1200
G1 X94.907477 Y100.0 Z0.24 E0.254067 F1200
G1 X97.453739 Y95.589746 Z0.24 E0.254067 F1200
G1 X102.546261 Y95.589746 Z0.24 E0.254067 F1200
G1 X105.092523 Y100.0 Z0.24 E0.254067 F1200
G0 X104.515172 Y100.0 Z0.24 F2400
G1 X102.257586 Y103.910254 Z0.24 E0.225263 F1200
G1 X97.742414 Y103.910254 Z0.24 E0.225263 F1200
G1 X95.484828 Y100.0 Z0.24 E0.225263 F1200
G1 X97.742414 Y96.089746 Z0.24 E0.225263 F1200
G1 X102.257586 Y96.089746 Z0.24 E0.225263 F1200
G1 X104.515172 Y100.0 Z0.24 E0.225263 F1200
G0 X103.937822 Y100.0 Z0.24 F2400
G1 X101.968911 Y103.410254 Z0.24 E0.196459 F1200
G1 X98.031089 Y103.410254 Z0.24 E0.196459 F1200
G1 X96.062178 Y100.0 Z0.24 E0.196459 F1200
G1 X98.031089 Y96.589746 Z0.24 E0.196459 F1200
G1 X101.968911 Y96.589746 Z0.24 E0.196459 F1200
G1 X103.937822 Y100.0 Z0.24 E0.196459 F1200
G0 X103.360472 Y100.0 Z0.24 F2400
G1 X101.680236 Y102.910254 Z0.24 E0.167655 F1200
G1 X98.319764 Y102.910254 Z0.24 E0.167655 F1200
G1 X96.639528 Y100.0 Z0.24 E0.167655 F1200
G1 X98.319764 Y97.089746 Z0.24 E0.167655 F1200
G1 X101.680236 Y97.089746 Z0.24 E0.167655 F1200
G1 X103.360472 Y100.0 Z0.24 E0.167655 F1200
G0 X102.783122 Y100.0 Z0.24 F2400
G1 X101.391561 Y102.410254 Z0.24 E0.138851 F1200
G1 X98.608439 Y102.410254 Z0.24 E0.138851 F1200
G1 X97.216878 Y100.0 Z0.24 E0.138851 F1200
G1 X98.608439 Y97.589746 Z0.24 E0.138851 F1200
G1 X101.391561 Y97.589746 Z0.24 E0.138851 F1200
G1 X102.783122 Y100.0 Z0.24 E0.138851 F1200
G0 X102.205771 Y100.0 Z0.24 F2400
G1 X101.102886 Y101.910254 Z0.24 E0.110046 F1200
G1 X98.897114 Y101.910254 Z0.24 E0.110046 F1200
G1 X97.794229 Y100.0 Z0.24 E0.110046 F1200
G1 X98.897114 Y98.089746 Z0.24 E0.110046 F1200
G1 X101.102886 Y98.089746 Z0.24 E0.110046 F1200
G1 X102.205771 Y100.0 Z0.24 E0.110046 F1200
G0 X101.628421 Y100.0 Z0.24 F2400
G1 X100.814211 Y101.410254 Z0.24 E0.081242 F1200
G1 X99.185789 Y101.410254 Z0.24 E0.081242 F1200
G1 X98.371579 Y100.0 Z0.24 E0.081242 F1200
G1 X99.185789 Y98.589746 Z0.24 E0.081242 F1200
G1 X100.814211 Y98.589746 Z0.24 E0.081242 F1200
G1 X101.628421 Y100.0 Z0.24 E0.081242 F1200
G0 X101.051071 Y100.0 Z0.24 F2400
G1 X100.525535 Y100.910254 Z0.24 E0.052438 F1200
G1 X99.474465 Y100.910254 Z0.24 E0.052438 F1200
G1 X98.948929 Y100.0 Z0.24 E0.052438 F1200
G1 X99.474465 Y99.089746 Z0.24 E0.052438 F1200
G1 X100.525535 Y99.089746 Z0.24 E0.052438 F1200
G1 X101.051071 Y100.0 Z0.24 E0.052438 F1200
G0 X100.473721 Y100.0 Z0.24 F2400
G1 X100.23686 Y100.410254 Z0.24 E0.023634 F1200
G1 X99.76314 Y100.410254 Z0.24 E0.023634 F1200
G1 X99.526279 Y100.0 Z0.24 E0.023634 F1200
G1 X99.76314 Y99.589746 Z0.24 E0.023634 F1200
G1 X100.23686 Y99.589746 Z0.24 E0.023634 F1200
G1 X100.473721 Y100.0 Z0.24 E0.023634 F1200
G1 E-8
M104 S200
M140 S60
G0 X109.76906 Y100.0 Z0.24 F4800
G0 X109.76906 Y100.0 Z0.36 F4800
G1 E8
G1 X104.88453 Y108.460254 Z0.36 E0.194952 F2400
G1 X95.11547 Y108.460254 Z0.36 E0.194952 F2400
G1 X90.23094 Y100.0 Z0.36 E0.194952 F2400
G1 X95.11547 Y91.539746 Z0.36 E0.194952 F2400
G1 X104.88453 Y91.539746 Z0.36 E0.194952 F2400
G0 X109.76906 Y100.0 Z0.36 F4800
G1 X109.30718 Y100.0 Z0.36 E0.009217 F2400
G1 X104.65359 Y108.060254 Z0.36 E0.185735 F2400
G1 X95.34641 Y108.060254 Z0.36 E0.185735 F2400
G1 X90.69282 Y100.0 Z0.36 E0.185735 F2400
G1 X95.34641 Y91.939746 Z0.36 E0.185735 F2400
G1 X104.65359 Y91.939746 Z0.36 E0.185735 F2400
G0 X109.30718 Y100.0 Z0.36 F4800
G1 X108.845299 Y100.0 Z0.36 E0.009217 F2400
G1 X104.42265 Y107.660254 Z0.36 E0.176518 F2400
G1 X95.57735 Y107.660254 Z0.36 E0.176518 F2400
G1 X91.154701 Y100.0 Z0.36 E0.176518 F2400
G1 X95.57735 Y92.339746 Z0.36 E0.176518 F2400
G1 X104.42265 Y92.339746 Z0.36 E0.176518 F2400
G0 X108.845299 Y100.0 Z0.36 F4800
G1 X108.383419 Y100.0 Z0.36 E0.009217 F2400
G1 X104.19171 Y107.260254 Z0.36 E0.1673 F2400
G1 X95.80829 Y107.260254 Z0.36 E0.1673 F2400
G1 X91.616581 Y100.0 Z0.36 E0.1673 F2400
G1 X95.80829 Y92.739746 Z0.36 E0.1673 F2400
G1 X104.19171 Y92.739746 Z0.36 E0.1673 F2400
G0 X108.383419 Y100.0 Z0.36 F4800
G1 X107.921539 Y100.0 Z0.36 E0.009217 F2400
G1 X103.96077 Y106.860254 Z0.36 E0.158083 F2400
G1 X96.03923 Y106.860254 Z0.36 E0.158083 F2400
G1 X92.078461 Y100.0 Z0.36 E0.158083 F2400
G1 X96.03923 Y93.139746 Z0.36 E0.158083 F2400
G1 X103.96077 Y93.139746 Z0.36 E0.158083 F2400
G0 X107.921539 Y100.0 Z0.36 F4800
G1 X107.459659 Y100.0 Z0.36 E0.009217 F2400
G1 X103.729829 Y106.460254 Z0.36 E0.148866 F2400
G1 X96.270171 Y106.460254 Z0.36 E0.148866 F2400
G1 X92.540341 Y100.0 Z0.36 E0.148866 F2400
G1 X96.270171 Y93.539746 Z0.36 E0.148866 F2400
G1 X103.729829 Y93.539746 Z0.36 E0.148866 F2400
G0 X107.459659 Y100.0 Z0.36 F4800
G1 X106.997779 Y100.0 Z0.36 E0.009217 F2400
G1 X103.498889 Y106.060254 Z0.36 E0.139648 F2400
G1 X96.501111 Y106.060254 Z0.36 E0.139648 F2400
G1 X93.002221 Y100.0 Z0.36 E0.139648 F2400
G1 X96.501111 Y93.939746 Z0.36 E0.139648 F2400
G1 X103.498889 Y93.939746 Z0.36 E0.139648 F2400
G0 X106.997779 Y100.0 Z0.36 F4800
G1 X106.535898 Y100.0 Z0.36 E0.009217 F2400
G1 X103.267949 Y105.660254 Z0.36 E0.130431 F2400
G1 X96.732051 Y105.660254 Z0.36 E0.130431 F2400
G1 X93.464102 Y100.0 Z0.36 E0.130431 F2400
G1 X96.732051 Y94.339746 Z0.36 E0.130431 F2400
G1 X103.267949 Y94.339746 Z0.36 E0.130431 F2400
G0 X106.535898 Y100.0 Z0.36 F4800
G1 X106.074018 Y100.0 Z0.36 E0.009217 F2400
G1 X103.037009 Y105.260254 Z0.36 E0.121214 F2400
G1 X96.962991 Y105.260254 Z0.36 E0.121214 F2400
G1 X93.925982 Y100.0 Z0.36 E0.121214 F2400
G1 X96.962991 Y94.739746 Z0.36 E0.121214 F2400
G1 X103.037009 Y94.739746 Z0.36 E0.121214 F2400
G0 X106.074018 Y100.0 Z0.36 F4800
G1 X105.612138 Y100.0 Z0.36 E0.009217 F2400
G1 X102.806069 Y104.860254 Z0.36 E0.111996 F2400
G1 X97.193931 Y104.860254 Z0.36 E0.111996 F2400
G1 X94.387862 Y100.0 Z0.36 E0.111996 F2400
G1 X97.193931 Y95.139746 Z0.36 E0.111996 F2400
G1 X102.806069 Y95.139746 Z0.36 E0.111996 F2400
G0 X105.612138 Y100.0 Z0.36 F4800
G1 X105.150258 Y100.0 Z0.36 E0.009217 F2400
G1 X102.575129 Y104.460254 Z0.36 E0.102779 F2400
G1 X97.424871 Y104.460254 Z0.36 E0.102779 F2400
G1 X94.849742 Y100.0 Z0.36 E0.102779 F2400
G1 X97.424871 Y95.539746 Z0.36 E0.102779 F2400
G1 X102.575129 Y95.539746 Z0.36 E0.102779 F2400
G0 X105.150258 Y100.0 Z0.36 F4800
G1 X104.688378 Y100.0 Z0.36 E0.009217 F2400
G1 X102.344189 Y104.060254 Z0.36 E0.093562 F2400
G1 X97.655811 Y104.060254 Z0.36 E0.093562 F2400
G1 X95.311622 Y100.0 Z0.36 E0.093562 F2400
G1 X97.655811 Y95.939746 Z0.36 E0.093562 F2400
G1 X102.344189 Y95.939746 Z0.36 E0.093562 F2400
G0 X104.688378 Y100.0 Z0.36 F4800
G1 X104.226497 Y100.0 Z0.36 E0.009217 F2400
G1 X102.113249 Y103.660254 Z0.36 E0.084344 F2400
G1 X97.886751 Y103.660254 Z0.36 E0.084344 F2400
G1 X95.773503 Y100.0 Z0.36 E0.084344 F2400
G1 X97.886751 Y96.339746 Z0.36 E0.084344 F2400
G1 X102.113249 Y96.339746 Z0.36 E0.084344 F2400
G0 X104.226497 Y100.0 Z0.36 F4800
G1 X103.764617 Y100.0 Z0.36 E0.009217 F2400
G1 X101.882309 Y103.260254 Z0.36 E0.075127 F2400
G1 X98.117691 Y103.260254 Z0.36 E0.075127 F2400
G1 X96.235383 Y100.0 Z0.36 E0.075127 F2400
G1 X98.117691 Y96.739746 Z0.36 E0.075127 F2400
G1 X101.882309 Y96.739746 Z0.36 E0.075127 F2400
G0 X103.764617 Y100.0 Z0.36 F4800
G1 X103.302737 Y100.0 Z0.36 E0.009217 F2400
G1 X101.651368 Y102.860254 Z0.36 E0.06591 F2400
G1 X98.348632 Y102.860254 Z0.36 E0.06591 F2400
G1 X96.697263 Y100.0 Z0.36 E0.06591 F2400
G1 X98.348632 Y97.139746 Z0.36 E0.06591 F2400
G1 X101.651368 Y97.139746 Z0.36 E0.06591 F2400
G0 X103.302737 Y100.0 Z0.36 F4800
G1 X102.840857 Y100.0 Z0.36 E0.009217 F2400
G1 X101.420428 Y102.460254 Z0.36 E0.056692 F2400
G1 X98.579572 Y102.460254 Z0.36 E0.056692 F2400
G1 X97.159143 Y100.0 Z0.36 E0.056692 F2400
G1 X98.579572 Y97.539746 Z0.36 E0.056692 F2400
G1 X101.420428 Y97.539746 Z0.36 E0.056692 F2400
G0 X102.840857 Y100.0 Z0.36 F4800
G1 X102.378976 Y100.0 Z0.36 E0.009217 F2400
G1 X101.189488 Y102.060254 Z0.36 E0.047475 F2400
G1 X98.810512 Y102.060254 Z0.36 E0.047475 F2400
G1 X97.621024 Y100.0 Z0.36 E0.047475 F2400
G1 X98.810512 Y97.939746 Z0.36 E0.047475 F2400
G1 X101.189488 Y97.939746 Z0.36 E0.047475 F2400
G0 X102.378976 Y100.0 Z0.36 F4800
G1 X101.917096 Y100.0 Z0.36 E0.009217 F2400
G1 X100.958548 Y101.660254 Z0.36 E0.038258 F2400
G1 X99.041452 Y101.660254 Z0.36 E0.038258 F2400
G1 X98.082904 Y100.0 Z0.36 E0.038258 F2400
G1 X99.041452 Y98.339746 Z0.36 E0.038258 F2400
G1 X100.958548 Y98.339746 Z0.36 E0.038258 F2400
G0 X101.917096 Y100.0 Z0.36 F4800
G1 X101.455216 Y100.0 Z0.36 E0.009217 F2400
G1 X100.727608 Y101.260254 Z0.36 E0.02904 F2400
G1 X99.272392 Y101.260254 Z0.36 E0.02904 F2400
G1 X98.544784 Y100.0 Z0.36 E0.02904 F2400
G1 X99.272392 Y98.739746 Z0.36 E0.02904 F2400
G1 X100.727608 Y98.739746 Z0.36 E0.02904 F2400
G0 X101.455216 Y100.0 Z0.36 F4800
G1 X100.993336 Y100.0 Z0.36 E0.009217 F2400
G1 X100.496668 Y100.860254 Z0.36 E0.019823 F2400
G1 X99.503332 Y100.860254 Z0.36 E0.019823 F2400
G1 X99.006664 Y100.0 Z0.36 E0.019823 F2400
G1 X99.503332 Y99.139746 Z0.36 E0.019823 F2400
G1 X100.496668 Y99.139746 Z0.36 E0.019823 F2400
G0 X100.993336 Y100.0 Z0.36 F4800
G1 X100.531456 Y100.0 Z0.36 E0.009217 F2400
G1 X100.265728 Y100.460254 Z0.36 E0.010606 F2400
G1 X99.734272 Y100.460254 Z0.36 E0.010606 F2400
G1 X99.468544 Y100.0 Z0.36 E0.010606 F2400
G1 X99.734272 Y99.539746 Z0.36 E0.010606 F2400
G1 X100.265728 Y99.539746 Z0.36 E0.010606 F2400
G0 X100.531456 Y100.0 Z0.36 F4800
G1 E-8
G0 X109.76906 Y100.0 Z0.36 F4800
G0 X109.76906 Y100.0 Z0.48 F4800
G1 E8
G1 X104.88453 Y108.460254 Z0.48 E0.194952 F2400
G1 X95.11547 Y108.460254 Z0.48 E0.194952 F2400
G1 X90.23094 Y100.0 Z0.48 E0.194952 F2400
G1 X95.11547 Y91.539746 Z0.48 E0.194952 F2400
G1 X104.88453 Y91.539746 Z0.48 E0.194952 F2400
G0 X109.76906 Y100.0 Z0.48 F4800
G1 X109.30718 Y100.0 Z0.48 E0.009217 F2400
G1 X104.65359 Y108.060254 Z0.48 E0.185735 F2400
G1 X95.34641 Y108.060254 Z0.48 E0.185735 F2400
G1 X90.69282 Y100.0 Z0.48 E0.185735 F2400
G1 X95.34641 Y91.939746 Z0.48 E0.185735 F2400
G1 X104.65359 Y91.939746 Z0.48 E0.185735 F2400
G0 X109.30718 Y100.0 Z0.48 F4800
G1 X108.845299 Y100.0 Z0.48 E0.009217 F2400
G1 X104.42265 Y107.660254 Z0.48 E0.176518 F2400
G1 X95.57735 Y107.660254 Z0.48 E0.176518 F2400
G1 X91.154701 Y100.0 Z0.48 E0.176518 F2400
G1 X95.57735 Y92.339746 Z0.48 E0.176518 F2400
G1 X104.42265 Y92.339746 Z0.48 E0.176518 F2400
G0 X108.845299 Y100.0 Z0.48 F4800
G1 X108.383419 Y100.0 Z0.48 E0.009217 F2400
G1 X104.19171 Y107.260254 Z0.48 E0.1673 F2400
G1 X95.80829 Y107.260254 Z0.48 E0.1673 F2400
G1 X91.616581 Y100.0 Z0.48 E0.1673 F2400
G1 X95.80829 Y92.739746 Z0.48 E0.1673 F2400
G1 X104.19171 Y92.739746 Z0.48 E0.1673 F2400
G0 X108.383419 Y100.0 Z0.48 F4800
G1 X107.921539 Y100.0 Z0.48 E0.009217 F2400
G1 X103.96077 Y106.860254 Z0.48 E0.158083 F2400
G1 X96.03923 Y106.860254 Z0.48 E0.158083 F2400
G1 X92.078461 Y100.0 Z0.48 E0.158083 F2400
G1 X96.03923 Y93.139746 Z0.48 E0.158083 F2400
G1 X103.96077 Y93.139746 Z0.48 E0.158083 F2400
G0 X107.921539 Y100.0 Z0.48 F4800
G1 X107.459659 Y100.0 Z0.48 E0.009217 F2400
G1 X103.729829 Y106.460254 Z0.48 E0.148866 F2400
G1 X96.270171 Y106.460254 Z0.48 E0.148866 F2400
G1 X92.540341 Y100.0 Z0.48 E0.148866 F2400
G1 X96.270171 Y93.539746 Z0.48 E0.148866 F2400
G1 X103.729829 Y93.539746 Z0.48 E0.148866 F2400
G0 X107.459659 Y100.0 Z0.48 F4800
G1 X106.997779 Y100.0 Z0.48 E0.009217 F2400
G1 X103.498889 Y106.060254 Z0.48 E0.139648 F2400
G1 X96.501111 Y106.060254 Z0.48 E0.139648 F2400
G1 X93.002221 Y100.0 Z0.48 E0.139648 F2400
G1 X96.501111 Y93.939746 Z0.48 E0.139648 F2400
G1 X103.498889 Y93.939746 Z0.48 E0.139648 F2400
G0 X106.997779 Y100.0 Z0.48 F4800
G1 X106.535898 Y100.0 Z0.48 E0.009217 F2400
G1 X103.267949 Y105.660254 Z0.48 E0.130431 F2400
G1 X96.732051 Y105.660254 Z0.48 E0.130431 F2400
G1 X93.464102 Y100.0 Z0.48 E0.130431 F2400
G1 X96.732051 Y94.339746 Z0.48 E0.130431 F2400
G1 X103.267949 Y94.339746 Z0.48 E0.130431 F2400
G0 X106.535898 Y100.0 Z0.48 F4800
G1 X106.074018 Y100.0 Z0.48 E0.009217 F2400
G1 X103.037009 Y105.260254 Z0.48 E0.121214 F2400
G1 X96.962991 Y105.260254 Z0.48 E0.121214 F2400
G1 X93.925982 Y100.0 Z0.48 E0.121214 F2400
G1 X96.962991 Y94.739746 Z0.48 E0.121214 F2400
G1 X103.037009 Y94.739746 Z0.48 E0.121214 F2400
G0 X106.074018 Y100.0 Z0.48 F4800
G1 X105.612138 Y100.0 Z0.48 E0.009217 F2400
G1 X102.806069 Y104.860254 Z0.48 E0.111996 F2400
G1 X97.193931 Y104.860254 Z0.48 E0.111996 F2400
G1 X94.387862 Y100.0 Z0.48 E0.111996 F2400
G1 X97.193931 Y95.139746 Z0.48 E0.111996 F2400
G1 X102.806069 Y95.139746 Z0.48 E0.111996 F2400
G0 X105.612138 Y100.0 Z0.48 F4800
G1 X105.150258 Y100.0 Z0.48 E0.009217 F2400
G1 X102.575129 Y104.460254 Z0.48 E0.102779 F2400
G1 X97.424871 Y104.460254 Z0.48 E0.102779 F2400
G1 X94.849742 Y100.0 Z0.48 E0.102779 F2400
G1 X97.424871 Y95.539746 Z0.48 E0.102779 F2400
