;FLAVOR:Marlin 
;Layer height: 0.12 
;Generated with Cura_SteamEngine 4.9.0 
M140 S65
M105 
M190 S65
M104 S205
M105 
M109 S205
M83 ;relative extrusion mode 
; Ender 3 Custom Start G-code 
G92 E0 ; Reset Extruder 
G1 X0 Y0 Z10 F3000
G1 Z2.0 F3000 ; Move Z Axis up little to prevent scratching of Heat Bed 
G1 X0.1 Y20 Z0.3 F5000.0 ; Move to start position 
G1 X0.1 Y200.0 Z0.3 F1500.0 E15 ; Draw the first line 
G1 X0.4 Y200.0 Z0.3 F5000.0 ; Move to side a little 
G1 X0.4 Y20 Z0.3 F1500.0 E15 ; Draw the second line 
G92 E0 ; Reset Extruder 
G1 Z2.0 F3000 ; Move Z Axis up little to prevent scratching of Heat Bed 
G1 X5 Y20 Z0.3 F5000.0 ; Move over to prevent blob squish 
G92 E0 
G92 E0 
G1 F3000 E-8 
M104 S205
G0 X109.75 Y105.05 Z0.24 F2400
G1 E8
G1 X90.25 Y105.05 Z0.24 E0.972859 F1200
G1 X90.25 Y94.95 Z0.24 E0.503891 F1200
G1 X109.75 Y94.95 Z0.24 E0.972859 F1200
G1 X109.75 Y105.05 Z0.24 E0.503891 F1200
G0 X109.25 Y104.55 Z0.24 F2400
G1 X90.75 Y104.55 Z0.24 E0.922969 F1200
G1 X90.75 Y95.45 Z0.24 E0.454001 F1200
G1 X109.25 Y95.45 Z0.24 E0.922969 F1200
G1 X109.25 Y104.55 Z0.24 E0.454001 F1200
G0 X108.75 Y104.05 Z0.24 F2400
G1 X91.25 Y104.05 Z0.24 E0.873079 F1200
G1 X91.25 Y95.95 Z0.24 E0.404111 F1200
G1 X108.75 Y95.95 Z0.24 E0.873079 F1200
G1 X108.75 Y104.05 Z0.24 E0.404111 F1200
G0 X108.25 Y103.55 Z0.24 F2400
G1 X91.75 Y103.55 Z0.24 E0.823188 F1200
G1 X91.75 Y96.45 Z0.24 E0.35422 F1200
G1 X108.25 Y96.45 Z0.24 E0.823188 F1200
G1 X108.25 Y103.55 Z0.24 E0.35422 F1200
G0 X107.75 Y103.05 Z0.24 F2400
G1 X92.25 Y103.05 Z0.24 E0.773298 F1200
G1 X92.25 Y96.95 Z0.24 E0.30433 F1200
G1 X107.75 Y96.95 Z0.24 E0.773298 F1200
G1 X107.75 Y103.05 Z0.24 E0.30433 F1200
G0 X107.25 Y102.55 Z0.24 F2400
G1 X92.75 Y102.55 Z0.24 E0.723408 F1200
G1 X92.75 Y97.45 Z0.24 E0.25444 F1200
G1 X107.25 Y97.45 Z0.24 E0.723408 F1200
G1 X107.25 Y102.55 Z0.24 E0.25444 F1200
G0 X106.75 Y102.05 Z0.24 F2400
G1 X93.25 Y102.05 Z0.24 E0.673518 F1200
G1 X93.25 Y97.95 Z0.24 E0.20455 F1200
G1 X106.75 Y97.95 Z0.24 E0.673518 F1200
G1 X106.75 Y102.05 Z0.24 E0.20455 F1200
G0 X106.25 Y101.55 Z0.24 F2400
G1 X93.75 Y101.55 Z0.24 E0.623628 F1200
G1 X93.75 Y98.45 Z0.24 E0.15466 F1200
G1 X106.25 Y98.45 Z0.24 E0.623628 F1200
G1 X106.25 Y101.55 Z0.24 E0.15466 F1200
G0 X105.75 Y101.05 Z0.24 F2400
G1 X94.25 Y101.05 Z0.24 E0.573737 F1200
G1 X94.25 Y98.95 Z0.24 E0.104769 F1200
G1 X105.75 Y98.95 Z0.24 E0.573737 F1200
G1 X105.75 Y101.05 Z0.24 E0.104769 F1200
G0 X105.25 Y100.55 Z0.24 F2400
G1 X94.75 Y100.55 Z0.24 E0.523847 F1200
G1 X94.75 Y99.45 Z0.24 E0.054879 F1200
G1 X105.25 Y99.45 Z0.24 E0.523847 F1200
G1 X105.25 Y100.55 Z0.24 E0.054879 F1200
G1 E-8
M104 S200
M140 S60
G0 X109.8 Y105.1 Z0.24 F4800
G0 X109.8 Y105.1 Z0.36 F4800
G1 E8
G1 X90.2 Y105.1 Z0.36 E0.391139 F2400
G1 X90.2 Y94.9 Z0.36 E0.203552 F2400
G1 X109.8 Y94.9 Z0.36 E0.391139 F2400
G0 X109.8 Y105.1 Z0.36 F4800
G1 X109.4 Y104.7 Z0.36 E0.011289 F2400
G1 X90.6 Y104.7 Z0.36 E0.375174 F2400
G1 X90.6 Y95.3 Z0.36 E0.187587 F2400
G1 X109.4 Y95.3 Z0.36 E0.375174 F2400
G0 X109.4 Y104.7 Z0.36 F4800
G1 X109.0 Y104.3 Z0.36 E0.011289 F2400
G1 X91.0 Y104.3 Z0.36 E0.359209 F2400
G1 X91.0 Y95.7 Z0.36 E0.171622 F2400
G1 X109.0 Y95.7 Z0.36 E0.359209 F2400
G0 X109.0 Y104.3 Z0.36 F4800
G1 X108.6 Y103.9 Z0.36 E0.011289 F2400
G1 X91.4 Y103.9 Z0.36 E0.343245 F2400
G1 X91.4 Y96.1 Z0.36 E0.155657 F2400
G1 X108.6 Y96.1 Z0.36 E0.343245 F2400
G0 X108.6 Y103.9 Z0.36 F4800
G1 X108.2 Y103.5 Z0.36 E0.011289 F2400
G1 X91.8 Y103.5 Z0.36 E0.32728 F2400
G1 X91.8 Y96.5 Z0.36 E0.139693 F2400
G1 X108.2 Y96.5 Z0.36 E0.32728 F2400
G0 X108.2 Y103.5 Z0.36 F4800
G1 X107.8 Y103.1 Z0.36 E0.011289 F2400
G1 X92.2 Y103.1 Z0.36 E0.311315 F2400
G1 X92.2 Y96.9 Z0.36 E0.123728 F2400
G1 X107.8 Y96.9 Z0.36 E0.311315 F2400
G0 X107.8 Y103.1 Z0.36 F4800
G1 X107.4 Y102.7 Z0.36 E0.011289 F2400
G1 X92.6 Y102.7 Z0.36 E0.29535 F2400
G1 X92.6 Y97.3 Z0.36 E0.107763 F2400
G1 X107.4 Y97.3 Z0.36 E0.29535 F2400
G0 X107.4 Y102.7 Z0.36 F4800
G1 X107.0 Y102.3 Z0.36 E0.011289 F2400
G1 X93.0 Y102.3 Z0.36 E0.279385 F2400
G1 X93.0 Y97.7 Z0.36 E0.091798 F2400
G1 X107.0 Y97.7 Z0.36 E0.279385 F2400
G0 X107.0 Y102.3 Z0.36 F4800
G1 X106.6 Y101.9 Z0.36 E0.011289 F2400
G1 X93.4 Y101.9 Z0.36 E0.26342 F2400
G1 X93.4 Y98.1 Z0.36 E0.075833 F2400
G1 X106.6 Y98.1 Z0.36 E0.26342 F2400
G0 X106.6 Y101.9 Z0.36 F4800
G1 X106.2 Y101.5 Z0.36 E0.011289 F2400
G1 X93.8 Y101.5 Z0.36 E0.247455 F2400
G1 X93.8 Y98.5 Z0.36 E0.059868 F2400
G1 X106.2 Y98.5 Z0.36 E0.247455 F2400
G0 X106.2 Y101.5 Z0.36 F4800
G1 X105.8 Y101.1 Z0.36 E0.011289 F2400
G1 X94.2 Y101.1 Z0.36 E0.231491 F2400
G1 X94.2 Y98.9 Z0.36 E0.043903 F2400
G1 X105.8 Y98.9 Z0.36 E0.231491 F2400
G0 X105.8 Y101.1 Z0.36 F4800
G1 X105.4 Y100.7 Z0.36 E0.011289 F2400
G1 X94.6 Y100.7 Z0.36 E0.215526 F2400
G1 X94.6 Y99.3 Z0.36 E0.027939 F2400
G1 X105.4 Y99.3 Z0.36 E0.215526 F2400
G0 X105.4 Y100.7 Z0.36 F4800
G1 X105.0 Y100.3 Z0.36 E0.011289 F2400
G1 X95.0 Y100.3 Z0.36 E0.199561 F2400
G1 X95.0 Y99.7 Z0.36 E0.011974 F2400
G1 X105.0 Y99.7 Z0.36 E0.199561 F2400
G0 X105.0 Y100.3 Z0.36 F4800
G1 E-8
G0 X109.8 Y105.1 Z0.36 F4800
G0 X109.8 Y105.1 Z0.48 F4800
G1 E8
G1 X90.2 Y105.1 Z0.48 E0.391139 F2400
G1 X90.2 Y94.9 Z0.48 E0.203552 F2400
G1 X109.8 Y94.9 Z0.48 E0.391139 F2400
G0 X109.8 Y105.1 Z0.48 F4800
G1 X109.4 Y104.7 Z0.48 E0.011289 F2400
G1 X90.6 Y104.7 Z0.48 E0.375174 F2400
G1 X90.6 Y95.3 Z0.48 E0.187587 F2400
G1 X109.4 Y95.3 Z0.48 E0.375174 F2400
G0 X109.4 Y104.7 Z0.48 F4800
G1 X109.0 Y104.3 Z0.48 E0.011289 F2400
G1 X91.0 Y104.3 Z0.48 E0.359209 F2400
G1 X91.0 Y95.7 Z0.48 E0.171622 F2400
G1 X109.0 Y95.7 Z0.48 E0.359209 F2400
G0 X109.0 Y104.3 Z0.48 F4800
G1 X108.6 Y103.9 Z0.48 E0.011289 F2400
G1 X91.4 Y103.9 Z0.48 E0.343245 F2400
G1 X91.4 Y96.1 Z0.48 E0.155657 F2400
G1 X108.6 Y96.1 Z0.48 E0.343245 F2400
G0 X108.6 Y103.9 Z0.48 F4800
G1 X108.2 Y103.5 Z0.48 E0.011289 F2400
G1 X91.8 Y103.5 Z0.48 E0.32728 F2400
G1 X91.8 Y96.5 Z0.48 E0.139693 F2400
G1 X108.2 Y96.5 Z0.48 E0.32728 F2400
G0 X108.2 Y103.5 Z0.48 F4800
G1 X107.8 Y103.1 Z0.48 E0.011289 F2400
G1 X92.2 Y103.1 Z0.48 E0.311315 F2400
G1 X92.2 Y96.9 Z0.48 E0.123728 F2400
G1 X107.8 Y96.9 Z0.48 E0.311315 F2400
G0 X107.8 Y103.1 Z0.48 F4800
G1 X107.4 Y102.7 Z0.48 E0.011289 F2400
G1 X92.6 Y102.7 Z0.48 E0.29535 F2400
G1 X92.6 Y97.3 Z0.48 E0.107763 F2400
G1 X107.4 Y97.3 Z0.48 E0.29535 F2400
G0 X107.4 Y102.7 Z0.48 F4800
G1 X107.0 Y102.3 Z0.48 E0.011289 F2400
G1 X93.0 Y102.3 Z0.48 E0.279385 F2400
G1 X93.0 Y97.7 Z0.48 E0.091798 F2400
G1 X107.0 Y97.7 Z0.48 E0.279385 F2400
G0 X107.0 Y102.3 Z0.48 F4800
G1 X106.6 Y101.9 Z0.48 E0.011289 F2400
G1 X93.4 Y101.9 Z0.48 E0.26342 F2400
G1 X93.4 Y98.1 Z0.48 E0.075833 F2400
G1 X106.6 Y98.1 Z0.48 E0.26342 F2400
G0 X106.6 Y101.9 Z0.48 F4800
G1 X106.2 Y101.5 Z0.48 E0.011289 F2400
G1 X93.8 Y101.5 Z0.48 E0.247455 F2400
G1 X93.8 Y98.5 Z0.48 E0.059868 F2400
G1 X106.2 Y98.5 Z0.48 E0.247455 F2400
G0 X106.2 Y101.5 Z0.48 F4800
G1 X105.8 Y101.1 Z0.48 E0.011289 F2400
G1 X94.2 Y101.1 Z0.48 E0.231491 F2400
G1 X94.2 Y98.9 Z0.48 E0.043903 F2400
G1 X105.8 Y98.9 Z0.48 E0.231491 F2400
G0 X105.8 Y101.1 Z0.48 F4800
G1 X105.4 Y100.7 Z0.48 E0.011289 F2400
G1 X94.6 Y100.7 Z0.48 E0.215526 F2400
G1 X94.6 Y99.3 Z0.48 E0.027939 F2400
G1 X105.4 Y99.3 Z0.48 E0.215526 F2400
G0 X105.4 Y100.7 Z0.48 F4800
G1 X105.0 Y100.3 Z0.48 E0.011289 F2400
G1 X95.0 Y100.3 Z0.48 E0.199561 F2400
G1 X95.0 Y99.7 Z0.48 E0.011974 F2400
G1 X105.0 Y99.7 Z0.48 E0.199561 F2400
G0 X105.0 Y100.3 Z0.48 F4800
G1 E-8
G0 X109.8 Y105.1 Z0.48 F4800
G0 X109.8 Y105.1 Z0.6 F4800
G1 E8
G1 X90.2 Y105.1 Z0.6 E0.391139 F2400
G1 X90.2 Y94.9 Z0.6 E0.203552 F2400
G1 X109.8 Y94.9 Z0.6 E0.391139 F2400
G0 X109.8 Y105.1 Z0.6 F4800
G1 X109.4 Y104.7 Z0.6 E0.011289 F2400
G1 X90.6 Y104.7 Z0.6 E0.375174 F2400
G1 X90.6 Y95.3 Z0.6 E0.187587 F2400
G1 X109.4 Y95.3 Z0.6 E0.375174 F2400
G0 X109.4 Y104.7 Z0.6 F4800
G1 X109.0 Y104.3 Z0.6 E0.011289 F2400
G1 X91.0 Y104.3 Z0.6 E0.359209 F2400
G1 X91.0 Y95.7 Z0.6 E0.171622 F2400
G1 X109.0 Y95.7 Z0.6 E0.359209 F2400
G0 X109.0 Y104.3 Z0.6 F4800
G1 X108.6 Y103.9 Z0.6 E0.011289 F2400
G1 X91.4 Y103.9 Z0.6 E0.343245 F2400
G1 X91.4 Y96.1 Z0.6 E0.155657 F2400
G1 X108.6 Y96.1 Z0.6 E0.343245 F2400
G0 X108.6 Y103.9 Z0.6 F4800
G1 X108.2 Y103.5 Z0.6 E0.011289 F2400
G1 X91.8 Y103.5 Z0.6 E0.32728 F2400
G1 X91.8 Y96.5 Z0.6 E0.139693 F2400
G1 X108.2 Y96.5 Z0.6 E0.32728 F2400
G0 X108.2 Y103.5 Z0.6 F4800
G1 X107.8 Y103.1 Z0.6 E0.011289 F2400
G1 X92.2 Y103.1 Z0.6 E0.311315 F2400
G1 X92.2 Y96.9 Z0.6 E0.123728 F2400
G1 X107.8 Y96.9 Z0.6 E0.311315 F2400
G0 X107.8 Y103.1 Z0.6 F4800
G1 X107.4 Y102.7 Z0.6 E0.011289 F2400
G1 X92.6 Y102.7 Z0.6 E0.29535 F2400
G1 X92.6 Y97.3 Z0.6 E0.107763 F2400
G1 X107.4 Y97.3 Z0.6 E0.29535 F2400
G0 X107.4 Y102.7 Z0.6 F4800
G1 X107.0 Y102.3 Z0.6 E0.011289 F2400
G1 X93.0 Y102.3 Z0.6 E0.279385 F2400
G1 X93.0 Y97.7 Z0.6 E0.091798 F2400
G1 X107.0 Y97.7 Z0.6 E0.279385 F2400
G0 X107.0 Y102.3 Z0.6 F4800
G1 X106.6 Y101.9 Z0.6 E0.011289 F2400
G1 X93.4 Y101.9 Z0.6 E0.26342 F2400
G1 X93.4 Y98.1 Z0.6 E0.075833 F2400
G1 X106.6 Y98.1 Z0.6 E0.26342 F2400
G0 X106.6 Y101.9 Z0.6 F4800
G1 X106.2 Y101.5 Z0.6 E0.011289 F2400
G1 X93.8 Y101.5 Z0.6 E0.247455 F2400
G1 X93.8 Y98.5 Z0.6 E0.059868 F2400
G1 X106.2 Y98.5 Z0.6 E0.247455 F2400
G0 X106.2 Y101.5 Z0.6 F4800
G1 X105.8 Y101.1 Z0.6 E0.011289 F2400
G1 X94.2 Y101.1 Z0.6 E0.231491 F2400
G1 X94.2 Y98.9 Z0.6 E0.043903 F2400
G1 X105.8 Y98.9 Z0.6 E0.231491 F2400
G0 X105.8 Y101.1 Z0.6 F4800
G1 X105.4 Y100.7 Z0.6 E0.011289 F2400
G1 X94.6 Y100.7 Z0.6 E0.215526 F2400
G1 X94.6 Y99.3 Z0.6 E0.027939 F2400
G1 X105.4 Y99.3 Z0.6 E0.215526 F2400
G0 X105.4 Y100.7 Z0.6 F4800
G1 X105.0 Y100.3 Z0.6 E0.011289 F2400
G1 X95.0 Y100.3 Z0.6 E0.199561 F2400
G1 X95.0 Y99.7 Z0.6 E0.011974 F2400
G1 X105.0 Y99.7 Z0.6 E0.199561 F2400
G0 X105.0 Y100.3 Z0.6 F4800
G1 E-8
G0 X109.8 Y105.1 Z0.6 F4800
G0 X109.8 Y105.1 Z0.72 F4800
G1 E8
G1 X90.2 Y105.1 Z0.72 E0.391139 F2400
G1 X90.2 Y94.9 Z0.72 E0.203552 F2400
G1 X109.8 Y94.9 Z0.72 E0.391139 F2400
G0 X109.8 Y105.1 Z0.72 F4800
G1 X109.4 Y104.7 Z0.72 E0.011289 F2400
G1 X90.6 Y104.7 Z0.72 E0.375174 F2400
G1 X90.6 Y95.3 Z0.72 E0.187587 F2400
G1 X109.4 Y95.3 Z0.72 E0.375174 F2400
G0 X109.4 Y104.7 Z0.72 F4800
G1 X109.0 Y104.3 Z0.72 E0.011289 F2400
G1 X91.0 Y104.3 Z0.72 E0.359209 F2400
G1 X91.0 Y95.7 Z0.72 E0.171622 F2400
G1 X109.0 Y95.7 Z0.72 E0.359209 F2400
G0 X109.0 Y104.3 Z0.72 F4800
G1 X108.6 Y103.9 Z0.72 E0.011289 F2400
G1 X91.4 Y103.9 Z0.72 E0.343245 F2400
G1 X91.4 Y96.1 Z0.72 E0.155657 F2400
G1 X108.6 Y96.1 Z0.72 E0.343245 F2400
G0 X108.6 Y103.9 Z0.72 F4800
G1 X108.2 Y103.5 Z0.72 E0.011289 F2400
G1 X91.8 Y103.5 Z0.72 E0.32728 F2400
G1 X91.8 Y96.5 Z0.72 E0.139693 F2400
G1 X108.2 Y96.5 Z0.72 E0.32728 F2400
G0 X108.2 Y103.5 Z0.72 F4800
G1 X107.8 Y103.1 Z0.72 E0.011289 F2400
G1 X92.2 Y103.1 Z0.72 E0.311315 F2400
G1 X92.2 Y96.9 Z0.72 E0.123728 F2400
G1 X107.8 Y96.9 Z0.72 E0.311315 F2400
G0 X107.8 Y103.1 Z0.72 F4800
G1 X107.4 Y102.7 Z0.72 E0.011289 F2400
G1 X92.6 Y102.7 Z0.72 E0.29535 F2400
G1 X92.6 Y97.3 Z0.72 E0.107763 F2400
G1 X107.4 Y97.3 Z0.72 E0.29535 F2400
G0 X107.4 Y102.7 Z0.72 F4800
G1 X107.0 Y102.3 Z0.72 E0.011289 F2400
G1 X93.0 Y102.3 Z0.72 E0.279385 F2400
G1 X93.0 Y97.7 Z0.72 E0.091798 F2400
G1 X107.0 Y97.7 Z0.72 E0.279385 F2400
G0 X107.0 Y102.3 Z0.72 F4800
G1 X106.6 Y101.9 Z0.72 E0.011289 F2400
G1 X93.4 Y101.9 Z0.72 E0.26342 F2400
G1 X93.4 Y98.1 Z0.72 E0.075833 F2400
G1 X106.6 Y98.1 Z0.72 E0.26342 F2400
G0 X106.6 Y101.9 Z0.72 F4800
G1 X106.2 Y101.5 Z0.72 E0.011289 F2400
G1 X93.8 Y101.5 Z0.72 E0.247455 F2400
G1 X93.8 Y98.5 Z0.72 E0.059868 F2400
G1 X106.2 Y98.5 Z0.72 E0.247455 F2400
G0 X106.2 Y101.5 Z0.72 F4800
G1 X105.8 Y101.1 Z0.72 E0.011289 F2400
G1 X94.2 Y101.1 Z0.72 E0.231491 F2400
G1 X94.2 Y98.9 Z0.72 E0.043903 F2400
G1 X105.8 Y98.9 Z0.72 E0.231491 F2400
G0 X105.8 Y101.1 Z0.72 F4800
G1 X105.4 Y100.7 Z0.72 E0.011289 F2400
G1 X94.6 Y100.7 Z0.72 E0.215526 F2400
G1 X94.6 Y99.3 Z0.72 E0.027939 F2400
G1 X105.4 Y99.3 Z0.72 E0.215526 F2400
G0 X105.4 Y100.7 Z0.72 F4800
G1 X105.0 Y100.3 Z0.72 E0.011289 F2400
G1 X95.0 Y100.3 Z0.72 E0.199561 F2400
G1 X95.0 Y99.7 Z0.72 E0.011974 F2400
G1 X105.0 Y99.7 Z0.72 E0.199561 F2400
G0 X105.0 Y100.3 Z0.72 F4800
G1 E-8
G0 X109.8 Y105.1 Z0.72 F4800
G0 X109.8 Y105.1 Z0.84 F4800
G1 E8
G1 X90.2 Y105.1 Z0.84 E0.391139 F2400
G1 X90.2 Y94.9 Z0.84 E0.203552 F2400
G1 X109.8 Y94.9 Z0.84 E0.391139 F2400
G0 X109.8 Y105.1 Z0.84 F4800
G1 X109.4 Y104.7 Z0.84 E0.011289 F2400
G1 X90.6 Y104.7 Z0.84 E0.375174 F2400
G1 X90.6 Y95.3 Z0.84 E0.187587 F2400
G1 X109.4 Y95.3 Z0.84 E0.375174 F2400
G0 X109.4 Y104.7 Z0.84 F4800
G1 X109.0 Y104.3 Z0.84 E0.011289 F2400
G1 X91.0 Y104.3 Z0.84 E0.359209 F2400
G1 X91.0 Y95.7 Z0.84 E0.171622 F2400
G1 X109.0 Y95.7 Z0.84 E0.359209 F2400
G0 X109.0 Y104.3 Z0.84 F4800
G1 X108.6 Y103.9 Z0.84 E0.011289 F2400
G1 X91.4 Y103.9 Z0.84 E0.343245 F2400
G1 X91.4 Y96.1 Z0.84 E0.155657 F2400
G1 X108.6 Y96.1 Z0.84 E0.343245 F2400
G0 X108.6 Y103.9 Z0.84 F4800
G1 X108.2 Y103.5 Z0.84 E0.011289 F2400
G1 X91.8 Y103.5 Z0.84 E0.32728 F2400
G1 X91.8 Y96.5 Z0.84 E0.139693 F2400
G1 X108.2 Y96.5 Z0.84 E0.32728 F2400
G0 X108.2 Y103.5 Z0.84 F4800
G1 X107.8 Y103.1 Z0.84 E0.011289 F2400
G1 X92.2 Y103.1 Z0.84 E0.311315 F2400
G1 X92.2 Y96.9 Z0.84 E0.123728 F2400
G1 X107.8 Y96.9 Z0.84 E0.311315 F2400
G0 X107.8 Y103.1 Z0.84 F4800
G1 X107.4 Y102.7 Z0.84 E0.011289 F2400
G1 X92.6 Y102.7 Z0.84 E0.29535 F2400
G1 X92.6 Y97.3 Z0.84 E0.107763 F2400
G1 X107.4 Y97.3 Z0.84 E0.29535 F2400
G0 X107.4 Y102.7 Z0.84 F4800
G1 X107.0 Y102.3 Z0.84 E0.011289 F2400
G1 X93.0 Y102.3 Z0.84 E0.279385 F2400
G1 X93.0 Y97.7 Z0.84 E0.091798 F2400
G1 X107.0 Y97.7 Z0.84 E0.279385 F2400
G0 X107.0 Y102.3 Z0.84 F4800
G1 X106.6 Y101.9 Z0.84 E0.011289 F2400
G1 X93.4 Y101.9 Z0.84 E0.26342 F2400
G1 X93.4 Y98.1 Z0.84 E0.075833 F2400
G1 X106.6 Y98.1 Z0.84 E0.26342 F2400
G0 X106.6 Y101.9 Z0.84 F4800
G1 X106.2 Y101.5 Z0.84 E0.011289 F2400
G1 X93.8 Y101.5 Z0.84 E0.247455 F2400
G1 X93.8 Y98.5 Z0.84 E0.059868 F2400
G1 X106.2 Y98.5 Z0.84 E0.247455 F2400
G0 X106.2 Y101.5 Z0.84 F4800
G1 X105.8 Y101.1 Z0.84 E0.011289 F2400
G1 X94.2 Y101.1 Z0.84 E0.231491 F2400
G1 X94.2 Y98.9 Z0.84 E0.043903 F2400
G1 X105.8 Y98.9 Z0.84 E0.231491 F2400
G0 X105.8 Y101.1 Z0.84 F4800
G1 X105.4 Y100.7 Z0.84 E0.011289 F2400
G1 X94.6 Y100.7 Z0.84 E0.215526 F2400
G1 X94.6 Y99.3 Z0.84 E0.027939 F2400
G1 X105.4 Y99.3 Z0.84 E0.215526 F2400
G0 X105.4 Y100.7 Z0.84 F4800
G1 X105.0 Y100.3 Z0.84 E0.011289 F2400
G1 X95.0 Y100.3 Z0.84 E0.199561 F2400
G1 X95.0 Y99.7 Z0.84 E0.011974 F2400
G1 X105.0 Y99.7 Z0.84 E0.199561 F2400
G0 X105.0 Y100.3 Z0.84 F4800
G1 E-8
G0 X109.8 Y105.1 Z0.84 F4800
G0 X109.8 Y105.1 Z0.96 F4800
G1 E8
G1 X90.2 Y105.1 Z0.96 E0.391139 F2400
G1 X90.2 Y94.9 Z0.96 E0.203552 F2400
G1 X109.8 Y94.9 Z0.96 E0.391139 F2400
G0 X109.8 Y105.1 Z0.96 F4800
G1 X109.4 Y104.7 Z0.96 E0.011289 F2400
G1 X90.6 Y104.7 Z0.96 E0.375174 F2400
G1 X90.6 Y95.3 Z0.96 E0.187587 F2400
G1 X109.4 Y95.3 Z0.96 E0.375174 F2400
G0 X109.4 Y104.7 Z0.96 F4800
G1 X109.0 Y104.3 Z0.96 E0.011289 F2400
G1 X91.0 Y104.3 Z0.96 E0.359209 F2400
G1 X91.0 Y95.7 Z0.96 E0.171622 F2400
G1 X109.0 Y95.7 Z0.96 E0.359209 F2400
G0 X109.0 Y104.3 Z0.96 F4800
G1 X108.6 Y103.9 Z0.96 E0.011289 F2400
G1 X91.4 Y103.9 Z0.96 E0.343245 F2400
G1 X91.4 Y96.1 Z0.96 E0.155657 F2400
G1 X108.6 Y96.1 Z0.96 E0.343245 F2400
G0 X108.6 Y103.9 Z0.96 F4800
G1 X108.2 Y103.5 Z0.96 E0.011289 F2400
G1 X91.8 Y103.5 Z0.96 E0.32728 F2400
G1 X91.8 Y96.5 Z0.96 E0.139693 F2400
G1 X108.2 Y96.5 Z0.96 E0.32728 F2400
G0 X108.2 Y103.5 Z0.96 F4800
G1 X107.8 Y103.1 Z0.96 E0.011289 F2400
G1 X92.2 Y103.1 Z0.96 E0.311315 F2400
G1 X92.2 Y96.9 Z0.96 E0.123728 F2400
G1 X107.8 Y96.9 Z0.96 E0.311315 F2400
G0 X107.8 Y103.1 Z0.96 F4800
G1 X107.4 Y102.7 Z0.96 E0.011289 F2400
G1 X92.6 Y102.7 Z0.96 E0.29535 F2400
G1 X92.6 Y97.3 Z0.96 E0.107763 F2400
G1 X107.4 Y97.3 Z0.96 E0.29535 F2400
G0 X107.4 Y102.7 Z0.96 F4800
G1 X107.0 Y102.3 Z0.96 E0.011289 F2400
G1 X93.0 Y102.3 Z0.96 E0.279385 F2400
G1 X93.0 Y97.7 Z0.96 E0.091798 F2400
G1 X107.0 Y97.7 Z0.96 E0.279385 F2400
G0 X107.0 Y102.3 Z0.96 F4800
G1 X106.6 Y101.9 Z0.96 E0.011289 F2400
