;FLAVOR:Marlin 
;Layer height: 0.12 
;Generated with Cura_SteamEngine 4.9.0 
M140 S65
M105 
M190 S65
M104 S205
M105 
M109 S205
M83 ;relative extrusion mode 
; Ender 3 Custom Start G-code 
G92 E0 ; Reset Extruder 
G1 X0 Y0 Z10 F3000
G1 Z2.0 F3000 ; Move Z Axis up little to prevent scratching of Heat Bed 
G1 X0.1 Y20 Z0.3 F5000.0 ; Move to start position 
G1 X0.1 Y200.0 Z0.3 F1500.0 E15 ; Draw the first line 
G1 X0.4 Y200.0 Z0.3 F5000.0 ; Move to side a little 
G1 X0.4 Y20 Z0.3 F1500.0 E15 ; Draw the second line 
G92 E0 ; Reset Extruder 
G1 Z2.0 F3000 ; Move Z Axis up little to prevent scratching of Heat Bed 
G1 X5 Y20 Z0.3 F5000.0 ; Move over to prevent blob squish 
G92 E0 
G92 E0 
G1 F3000 E-8 
M104 S205
G0 X90.353553 Y100.0 Z0.24 F2400
G1 E8
G1 X100.0 Y109.646447 Z0.24 E0.680609 F1200
G1 X90.353553 Y100.0 Z0.24 E0.680609 F1200
G1 X100.0 Y90.353553 Z0.24 E0.680609 F1200
G1 X109.646447 Y100.0 Z0.24 E0.680609 F1200
G0 X108.93934 Y100.0 Z0.24 F2400
G1 X100.0 Y108.93934 Z0.24 E0.630719 F1200
G1 X91.06066 Y100.0 Z0.24 E0.630719 F1200
G1 X100.0 Y91.06066 Z0.24 E0.630719 F1200
G1 X108.93934 Y100.0 Z0.24 E0.630719 F1200
G0 X108.232233 Y100.0 Z0.24 F2400
G1 X100.0 Y108.232233 Z0.24 E0.580829 F1200
G1 X91.767767 Y100.0 Z0.24 E0.580829 F1200
G1 X100.0 Y91.767767 Z0.24 E0.580829 F1200
G1 X108.232233 Y100.0 Z0.24 E0.580829 F1200
G0 X107.525126 Y100.0 Z0.24 F2400
G1 X100.0 Y107.525126 Z0.24 E0.530938 F1200
G1 X92.474874 Y100.0 Z0.24 E0.530938 F1200
G1 X100.0 Y92.474874 Z0.24 E0.530938 F1200
G1 X107.525126 Y100.0 Z0.24 E0.530938 F1200
G0 X106.818019 Y100.0 Z0.24 F2400
G1 X100.0 Y106.818019 Z0.24 E0.481048 F1200
G1 X93.181981 Y100.0 Z0.24 E0.481048 F1200
G1 X100.0 Y93.181981 Z0.24 E0.481048 F1200
G1 X106.818019 Y100.0 Z0.24 E0.481048 F1200
G0 X106.110913 Y100.0 Z0.24 F2400
G1 X100.0 Y106.110913 Z0.24 E0.431158 F1200
G1 X93.889087 Y100.0 Z0.24 E0.431158 F1200
G1 X100.0 Y93.889087 Z0.24 E0.431158 F1200
G1 X106.110913 Y100.0 Z0.24 E0.431158 F1200
G0 X105.403806 Y100.0 Z0.24 F2400
G1 X100.0 Y105.403806 Z0.24 E0.381268 F1200
G1 X94.596194 Y100.0 Z0.24 E0.381268 F1200
G1 X100.0 Y94.596194 Z0.24 E0.381268 F1200
G1 X105.403806 Y100.0 Z0.24 E0.381268 F1200
G0 X104.696699 Y100.0 Z0.24 F2400
G1 X100.0 Y104.696699 Z0.24 E0.331377 F1200
G1 X95.303301 Y100.0 Z0.24 E0.331377 F1200
G1 X100.0 Y95.303301 Z0.24 E0.331377 F1200
G1 X104.696699 Y100.0 Z0.24 E0.331377 F1200
G0 X103.989592 Y100.0 Z0.24 F2400
G1 X100.0 Y103.989592 Z0.24 E0.281487 F1200
G1 X96.010408 Y100.0 Z0.24 E0.281487 F1200
G1 X100.0 Y96.010408 Z0.24 E0.281487 F1200
G1 X103.989592 Y100.0 Z0.24 E0.281487 F1200
G0 X103.282486 Y100.0 Z0.24 F2400
G1 X100.0 Y103.282486 Z0.24 E0.231597 F1200
G1 X96.717514 Y100.0 Z0.24 E0.231597 F1200
G1 X100.0 Y96.717514 Z0.24 E0.231597 F1200
G1 X103.282486 Y100.0 Z0.24 E0.231597 F1200
G0 X102.575379 Y100.0 Z0.24 F2400
G1 X100.0 Y102.575379 Z0.24 E0.181707 F1200
G1 X97.424621 Y100.0 Z0.24 E0.181707 F1200
G1 X100.0 Y97.424621 Z0.24 E0.181707 F1200
G1 X102.575379 Y100.0 Z0.24 E0.181707 F1200
G0 X101.868272 Y100.0 Z0.24 F2400
G1 X100.0 Y101.868272 Z0.24 E0.131817 F1200
G1 X98.131728 Y100.0 Z0.24 E0.131817 F1200
G1 X100.0 Y98.131728 Z0.24 E0.131817 F1200
G1 X101.868272 Y100.0 Z0.24 E0.131817 F1200
G0 X101.161165 Y100.0 Z0.24 F2400
G1 X100.0 Y101.161165 Z0.24 E0.081926 F1200
G1 X98.838835 Y100.0 Z0.24 E0.081926 F1200
G1 X100.0 Y98.838835 Z0.24 E0.081926 F1200
G1 X101.161165 Y100.0 Z0.24 E0.081926 F1200
G0 X100.454058 Y100.0 Z0.24 F2400
G1 X100.0 Y100.454058 Z0.24 E0.032036 F1200
G1 X99.545942 Y100.0 Z0.24 E0.032036 F1200
G1 X100.0 Y99.545942 Z0.24 E0.032036 F1200
G1 X100.454058 Y100.0 Z0.24 E0.032036 F1200
G1 E-8
M104 S200
M140 S60
G0 X90.282843 Y100.0 Z0.24 F4800
G0 X90.282843 Y100.0 Z0.36 F4800
G1 E8
G1 X100.0 Y109.717157 Z0.36 E0.274239 F2400
G1 X90.282843 Y100.0 Z0.36 E0.274239 F2400
G1 X100.0 Y90.282843 Z0.36 E0.274239 F2400
G0 X109.717157 Y100.0 Z0.36 F4800
G1 X109.151472 Y100.0 Z0.36 E0.011289 F2400
G1 X100.0 Y109.151472 Z0.36 E0.258274 F2400
G1 X90.848528 Y100.0 Z0.36 E0.258274 F2400
G1 X100.0 Y90.848528 Z0.36 E0.258274 F2400
G0 X109.151472 Y100.0 Z0.36 F4800
G1 X108.585786 Y100.0 Z0.36 E0.011289 F2400
G1 X100.0 Y108.585786 Z0.36 E0.242309 F2400
G1 X91.414214 Y100.0 Z0.36 E0.242309 F2400
G1 X100.0 Y91.414214 Z0.36 E0.242309 F2400
G0 X108.585786 Y100.0 Z0.36 F4800
G1 X108.020101 Y100.0 Z0.36 E0.011289 F2400
G1 X100.0 Y108.020101 Z0.36 E0.226345 F2400
G1 X91.979899 Y100.0 Z0.36 E0.226345 F2400
G1 X100.0 Y91.979899 Z0.36 E0.226345 F2400
G0 X108.020101 Y100.0 Z0.36 F4800
G1 X107.454416 Y100.0 Z0.36 E0.011289 F2400
G1 X100.0 Y107.454416 Z0.36 E0.21038 F2400
G1 X92.545584 Y100.0 Z0.36 E0.21038 F2400
G1 X100.0 Y92.545584 Z0.36 E0.21038 F2400
G0 X107.454416 Y100.0 Z0.36 F4800
G1 X106.88873 Y100.0 Z0.36 E0.011289 F2400
G1 X100.0 Y106.88873 Z0.36 E0.194415 F2400
G1 X93.11127 Y100.0 Z0.36 E0.194415 F2400
G1 X100.0 Y93.11127 Z0.36 E0.194415 F2400
G0 X106.88873 Y100.0 Z0.36 F4800
G1 X106.323045 Y100.0 Z0.36 E0.011289 F2400
G1 X100.0 Y106.323045 Z0.36 E0.17845 F2400
G1 X93.676955 Y100.0 Z0.36 E0.17845 F2400
G1 X100.0 Y93.676955 Z0.36 E0.17845 F2400
G0 X106.323045 Y100.0 Z0.36 F4800
G1 X105.757359 Y100.0 Z0.36 E0.011289 F2400
G1 X100.0 Y105.757359 Z0.36 E0.162485 F2400
G1 X94.242641 Y100.0 Z0.36 E0.162485 F2400
G1 X100.0 Y94.242641 Z0.36 E0.162485 F2400
G0 X105.757359 Y100.0 Z0.36 F4800
G1 X105.191674 Y100.0 Z0.36 E0.011289 F2400
G1 X100.0 Y105.191674 Z0.36 E0.14652 F2400
G1 X94.808326 Y100.0 Z0.36 E0.14652 F2400
G1 X100.0 Y94.808326 Z0.36 E0.14652 F2400
G0 X105.191674 Y100.0 Z0.36 F4800
G1 X104.625988 Y100.0 Z0.36 E0.011289 F2400
G1 X100.0 Y104.625988 Z0.36 E0.130555 F2400
G1 X95.374012 Y100.0 Z0.36 E0.130555 F2400
G1 X100.0 Y95.374012 Z0.36 E0.130555 F2400
G0 X104.625988 Y100.0 Z0.36 F4800
G1 X104.060303 Y100.0 Z0.36 E0.011289 F2400
G1 X100.0 Y104.060303 Z0.36 E0.114591 F2400
G1 X95.939697 Y100.0 Z0.36 E0.114591 F2400
G1 X100.0 Y95.939697 Z0.36 E0.114591 F2400
G0 X104.060303 Y100.0 Z0.36 F4800
G1 X103.494618 Y100.0 Z0.36 E0.011289 F2400
G1 X100.0 Y103.494618 Z0.36 E0.098626 F2400
G1 X96.505382 Y100.0 Z0.36 E0.098626 F2400
G1 X100.0 Y96.505382 Z0.36 E0.098626 F2400
G0 X103.494618 Y100.0 Z0.36 F4800
G1 X102.928932 Y100.0 Z0.36 E0.011289 F2400
G1 X100.0 Y102.928932 Z0.36 E0.082661 F2400
G1 X97.071068 Y100.0 Z0.36 E0.082661 F2400
G1 X100.0 Y97.071068 Z0.36 E0.082661 F2400
G0 X102.928932 Y100.0 Z0.36 F4800
G1 X102.363247 Y100.0 Z0.36 E0.011289 F2400
G1 X100.0 Y102.363247 Z0.36 E0.066696 F2400
G1 X97.636753 Y100.0 Z0.36 E0.066696 F2400
G1 X100.0 Y97.636753 Z0.36 E0.066696 F2400
G0 X102.363247 Y100.0 Z0.36 F4800
G1 X101.797561 Y100.0 Z0.36 E0.011289 F2400
G1 X100.0 Y101.797561 Z0.36 E0.050731 F2400
G1 X98.202439 Y100.0 Z0.36 E0.050731 F2400
G1 X100.0 Y98.202439 Z0.36 E0.050731 F2400
G0 X101.797561 Y100.0 Z0.36 F4800
G1 X101.231876 Y100.0 Z0.36 E0.011289 F2400
G1 X100.0 Y101.231876 Z0.36 E0.034766 F2400
G1 X98.768124 Y100.0 Z0.36 E0.034766 F2400
G1 X100.0 Y98.768124 Z0.36 E0.034766 F2400
G0 X101.231876 Y100.0 Z0.36 F4800
G1 X100.66619 Y100.0 Z0.36 E0.011289 F2400
G1 X100.0 Y100.66619 Z0.36 E0.018801 F2400
G1 X99.33381 Y100.0 Z0.36 E0.018801 F2400
G1 X100.0 Y99.33381 Z0.36 E0.018801 F2400
G0 X100.66619 Y100.0 Z0.36 F4800
G1 E-8
G0 X90.282843 Y100.0 Z0.36 F4800
G0 X90.282843 Y100.0 Z0.48 F4800
G1 E8
G1 X100.0 Y109.717157 Z0.48 E0.274239 F2400
G1 X90.282843 Y100.0 Z0.48 E0.274239 F2400
G1 X100.0 Y90.282843 Z0.48 E0.274239 F2400
G0 X109.717157 Y100.0 Z0.48 F4800
G1 X109.151472 Y100.0 Z0.48 E0.011289 F2400
G1 X100.0 Y109.151472 Z0.48 E0.258274 F2400
G1 X90.848528 Y100.0 Z0.48 E0.258274 F2400
G1 X100.0 Y90.848528 Z0.48 E0.258274 F2400
G0 X109.151472 Y100.0 Z0.48 F4800
G1 X108.585786 Y100.0 Z0.48 E0.011289 F2400
G1 X100.0 Y108.585786 Z0.48 E0.242309 F2400
G1 X91.414214 Y100.0 Z0.48 E0.242309 F2400
G1 X100.0 Y91.414214 Z0.48 E0.242309 F2400
G0 X108.585786 Y100.0 Z0.48 F4800
G1 X108.020101 Y100.0 Z0.48 E0.011289 F2400
G1 X100.0 Y108.020101 Z0.48 E0.226345 F2400
G1 X91.979899 Y100.0 Z0.48 E0.226345 F2400
G1 X100.0 Y91.979899 Z0.48 E0.226345 F2400
G0 X108.020101 Y100.0 Z0.48 F4800
G1 X107.454416 Y100.0 Z0.48 E0.011289 F2400
G1 X100.0 Y107.454416 Z0.48 E0.21038 F2400
G1 X92.545584 Y100.0 Z0.48 E0.21038 F2400
G1 X100.0 Y92.545584 Z0.48 E0.21038 F2400
G0 X107.454416 Y100.0 Z0.48 F4800
G1 X106.88873 Y100.0 Z0.48 E0.011289 F2400
G1 X100.0 Y106.88873 Z0.48 E0.194415 F2400
G1 X93.11127 Y100.0 Z0.48 E0.194415 F2400
G1 X100.0 Y93.11127 Z0.48 E0.194415 F2400
G0 X106.88873 Y100.0 Z0.48 F4800
G1 X106.323045 Y100.0 Z0.48 E0.011289 F2400
G1 X100.0 Y106.323045 Z0.48 E0.17845 F2400
G1 X93.676955 Y100.0 Z0.48 E0.17845 F2400
G1 X100.0 Y93.676955 Z0.48 E0.17845 F2400
G0 X106.323045 Y100.0 Z0.48 F4800
G1 X105.757359 Y100.0 Z0.48 E0.011289 F2400
G1 X100.0 Y105.757359 Z0.48 E0.162485 F2400
G1 X94.242641 Y100.0 Z0.48 E0.162485 F2400
G1 X100.0 Y94.242641 Z0.48 E0.162485 F2400
G0 X105.757359 Y100.0 Z0.48 F4800
G1 X105.191674 Y100.0 Z0.48 E0.011289 F2400
G1 X100.0 Y105.191674 Z0.48 E0.14652 F2400
G1 X94.808326 Y100.0 Z0.48 E0.14652 F2400
G1 X100.0 Y94.808326 Z0.48 E0.14652 F2400
G0 X105.191674 Y100.0 Z0.48 F4800
G1 X104.625988 Y100.0 Z0.48 E0.011289 F2400
G1 X100.0 Y104.625988 Z0.48 E0.130555 F2400
G1 X95.374012 Y100.0 Z0.48 E0.130555 F2400
G1 X100.0 Y95.374012 Z0.48 E0.130555 F2400
G0 X104.625988 Y100.0 Z0.48 F4800
G1 X104.060303 Y100.0 Z0.48 E0.011289 F2400
G1 X100.0 Y104.060303 Z0.48 E0.114591 F2400
G1 X95.939697 Y100.0 Z0.48 E0.114591 F2400
G1 X100.0 Y95.939697 Z0.48 E0.114591 F2400
G0 X104.060303 Y100.0 Z0.48 F4800
G1 X103.494618 Y100.0 Z0.48 E0.011289 F2400
G1 X100.0 Y103.494618 Z0.48 E0.098626 F2400
G1 X96.505382 Y100.0 Z0.48 E0.098626 F2400
G1 X100.0 Y96.505382 Z0.48 E0.098626 F2400
G0 X103.494618 Y100.0 Z0.48 F4800
G1 X102.928932 Y100.0 Z0.48 E0.011289 F2400
G1 X100.0 Y102.928932 Z0.48 E0.082661 F2400
G1 X97.071068 Y100.0 Z0.48 E0.082661 F2400
G1 X100.0 Y97.071068 Z0.48 E0.082661 F2400
G0 X102.928932 Y100.0 Z0.48 F4800
G1 X102.363247 Y100.0 Z0.48 E0.011289 F2400
G1 X100.0 Y102.363247 Z0.48 E0.066696 F2400
G1 X97.636753 Y100.0 Z0.48 E0.066696 F2400
G1 X100.0 Y97.636753 Z0.48 E0.066696 F2400
G0 X102.363247 Y100.0 Z0.48 F4800
G1 X101.797561 Y100.0 Z0.48 E0.011289 F2400
G1 X100.0 Y101.797561 Z0.48 E0.050731 F2400
G1 X98.202439 Y100.0 Z0.48 E0.050731 F2400
G1 X100.0 Y98.202439 Z0.48 E0.050731 F2400
G0 X101.797561 Y100.0 Z0.48 F4800
G1 X101.231876 Y100.0 Z0.48 E0.011289 F2400
G1 X100.0 Y101.231876 Z0.48 E0.034766 F2400
G1 X98.768124 Y100.0 Z0.48 E0.034766 F2400
G1 X100.0 Y98.768124 Z0.48 E0.034766 F2400
G0 X101.231876 Y100.0 Z0.48 F4800
G1 X100.66619 Y100.0 Z0.48 E0.011289 F2400
G1 X100.0 Y100.66619 Z0.48 E0.018801 F2400
G1 X99.33381 Y100.0 Z0.48 E0.018801 F2400
G1 X100.0 Y99.33381 Z0.48 E0.018801 F2400
G0 X100.66619 Y100.0 Z0.48 F4800
G1 E-8
G0 X90.282843 Y100.0 Z0.48 F4800
G0 X90.282843 Y100.0 Z0.6 F4800
G1 E8
G1 X100.0 Y109.717157 Z0.6 E0.274239 F2400
G1 X90.282843 Y100.0 Z0.6 E0.274239 F2400
G1 X100.0 Y90.282843 Z0.6 E0.274239 F2400
G0 X109.717157 Y100.0 Z0.6 F4800
G1 X109.151472 Y100.0 Z0.6 E0.011289 F2400
G1 X100.0 Y109.151472 Z0.6 E0.258274 F2400
G1 X90.848528 Y100.0 Z0.6 E0.258274 F2400
G1 X100.0 Y90.848528 Z0.6 E0.258274 F2400
G0 X109.151472 Y100.0 Z0.6 F4800
G1 X108.585786 Y100.0 Z0.6 E0.011289 F2400
G1 X100.0 Y108.585786 Z0.6 E0.242309 F2400
G1 X91.414214 Y100.0 Z0.6 E0.242309 F2400
G1 X100.0 Y91.414214 Z0.6 E0.242309 F2400
G0 X108.585786 Y100.0 Z0.6 F4800
G1 X108.020101 Y100.0 Z0.6 E0.011289 F2400
G1 X100.0 Y108.020101 Z0.6 E0.226345 F2400
G1 X91.979899 Y100.0 Z0.6 E0.226345 F2400
G1 X100.0 Y91.979899 Z0.6 E0.226345 F2400
G0 X108.020101 Y100.0 Z0.6 F4800
G1 X107.454416 Y100.0 Z0.6 E0.011289 F2400
G1 X100.0 Y107.454416 Z0.6 E0.21038 F2400
G1 X92.545584 Y100.0 Z0.6 E0.21038 F2400
G1 X100.0 Y92.545584 Z0.6 E0.21038 F2400
G0 X107.454416 Y100.0 Z0.6 F4800
G1 X106.88873 Y100.0 Z0.6 E0.011289 F2400
G1 X100.0 Y106.88873 Z0.6 E0.194415 F2400
G1 X93.11127 Y100.0 Z0.6 E0.194415 F2400
G1 X100.0 Y93.11127 Z0.6 E0.194415 F2400
G0 X106.88873 Y100.0 Z0.6 F4800
G1 X106.323045 Y100.0 Z0.6 E0.011289 F2400
G1 X100.0 Y106.323045 Z0.6 E0.17845 F2400
G1 X93.676955 Y100.0 Z0.6 E0.17845 F2400
G1 X100.0 Y93.676955 Z0.6 E0.17845 F2400
G0 X106.323045 Y100.0 Z0.6 F4800
G1 X105.757359 Y100.0 Z0.6 E0.011289 F2400
G1 X100.0 Y105.757359 Z0.6 E0.162485 F2400
G1 X94.242641 Y100.0 Z0.6 E0.162485 F2400
G1 X100.0 Y94.242641 Z0.6 E0.162485 F2400
G0 X105.757359 Y100.0 Z0.6 F4800
G1 X105.191674 Y100.0 Z0.6 E0.011289 F2400
G1 X100.0 Y105.191674 Z0.6 E0.14652 F2400
G1 X94.808326 Y100.0 Z0.6 E0.14652 F2400
G1 X100.0 Y94.808326 Z0.6 E0.14652 F2400
G0 X105.191674 Y100.0 Z0.6 F4800
G1 X104.625988 Y100.0 Z0.6 E0.011289 F2400
G1 X100.0 Y104.625988 Z0.6 E0.130555 F2400
G1 X95.374012 Y100.0 Z0.6 E0.130555 F2400
G1 X100.0 Y95.374012 Z0.6 E0.130555 F2400
G0 X104.625988 Y100.0 Z0.6 F4800
G1 X104.060303 Y100.0 Z0.6 E0.011289 F2400
G1 X100.0 Y104.060303 Z0.6 E0.114591 F2400
G1 X95.939697 Y100.0 Z0.6 E0.114591 F2400
G1 X100.0 Y95.939697 Z0.6 E0.114591 F2400
G0 X104.060303 Y100.0 Z0.6 F4800
G1 X103.494618 Y100.0 Z0.6 E0.011289 F2400
G1 X100.0 Y103.494618 Z0.6 E0.098626 F2400
G1 X96.505382 Y100.0 Z0.6 E0.098626 F2400
G1 X100.0 Y96.505382 Z0.6 E0.098626 F2400
G0 X103.494618 Y100.0 Z0.6 F4800
G1 X102.928932 Y100.0 Z0.6 E0.011289 F2400
G1 X100.0 Y102.928932 Z0.6 E0.082661 F2400
G1 X97.071068 Y100.0 Z0.6 E0.082661 F2400
G1 X100.0 Y97.071068 Z0.6 E0.082661 F2400
G0 X102.928932 Y100.0 Z0.6 F4800
G1 X102.363247 Y100.0 Z0.6 E0.011289 F2400
G1 X100.0 Y102.363247 Z0.6 E0.066696 F2400
G1 X97.636753 Y100.0 Z0.6 E0.066696 F2400
G1 X100.0 Y97.636753 Z0.6 E0.066696 F2400
G0 X102.363247 Y100.0 Z0.6 F4800
G1 X101.797561 Y100.0 Z0.6 E0.011289 F2400
G1 X100.0 Y101.797561 Z0.6 E0.050731 F2400
G1 X98.202439 Y100.0 Z0.6 E0.050731 F2400
G1 X100.0 Y98.202439 Z0.6 E0.050731 F2400
G0 X101.797561 Y100.0 Z0.6 F4800
G1 X101.231876 Y100.0 Z0.6 E0.011289 F2400
G1 X100.0 Y101.231876 Z0.6 E0.034766 F2400
G1 X98.768124 Y100.0 Z0.6 E0.034766 F2400
G1 X100.0 Y98.768124 Z0.6 E0.034766 F2400
G0 X101.231876 Y100.0 Z0.6 F4800
G1 X100.66619 Y100.0 Z0.6 E0.011289 F2400
G1 X100.0 Y100.66619 Z0.6 E0.018801 F2400
G1 X99.33381 Y100.0 Z0.6 E0.018801 F2400
G1 X100.0 Y99.33381 Z0.6 E0.018801 F2400
G0 X100.66619 Y100.0 Z0.6 F4800
G1 E-8
G0 X90.282843 Y100.0 Z0.6 F4800
G0 X90.282843 Y100.0 Z0.72 F4800
G1 E8
G1 X100.0 Y109.717157 Z0.72 E0.274239 F2400
G1 X90.282843 Y100.0 Z0.72 E0.274239 F2400
G1 X100.0 Y90.282843 Z0.72 E0.274239 F2400
G0 X109.717157 Y100.0 Z0.72 F4800
G1 X109.151472 Y100.0 Z0.72 E0.011289 F2400
G1 X100.0 Y109.151472 Z0.72 E0.258274 F2400
G1 X90.848528 Y100.0 Z0.72 E0.258274 F2400
G1 X100.0 Y90.848528 Z0.72 E0.258274 F2400
G0 X109.151472 Y100.0 Z0.72 F4800
G1 X108.585786 Y100.0 Z0.72 E0.011289 F2400
G1 X100.0 Y108.585786 Z0.72 E0.242309 F2400
G1 X91.414214 Y100.0 Z0.72 E0.242309 F2400
G1 X100.0 Y91.414214 Z0.72 E0.242309 F2400
G0 X108.585786 Y100.0 Z0.72 F4800
G1 X108.020101 Y100.0 Z0.72 E0.011289 F2400
G1 X100.0 Y108.020101 Z0.72 E0.226345 F2400
G1 X91.979899 Y100.0 Z0.72 E0.226345 F2400
G1 X100.0 Y91.979899 Z0.72 E0.226345 F2400
G0 X108.020101 Y100.0 Z0.72 F4800
G1 X107.454416 Y100.0 Z0.72 E0.011289 F2400
G1 X100.0 Y107.454416 Z0.72 E0.21038 F2400
G1 X92.545584 Y100.0 Z0.72 E0.21038 F2400
G1 X100.0 Y92.545584 Z0.72 E0.21038 F2400
G0 X107.454416 Y100.0 Z0.72 F4800
G1 X106.88873 Y100.0 Z0.72 E0.011289 F2400
G1 X100.0 Y106.88873 Z0.72 E0.194415 F2400
G1 X93.11127 Y100.0 Z0.72 E0.194415 F2400
G1 X100.0 Y93.11127 Z0.72 E0.194415 F2400
G0 X106.88873 Y100.0 Z0.72 F4800
G1 X106.323045 Y100.0 Z0.72 E0.011289 F2400
G1 X100.0 Y106.323045 Z0.72 E0.17845 F2400
G1 X93.676955 Y100.0 Z0.72 E0.17845 F2400
G1 X100.0 Y93.676955 Z0.72 E0.17845 F2400
G0 X106.323045 Y100.0 Z0.72 F4800
G1 X105.757359 Y100.0 Z0.72 E0.011289 F2400
G1 X100.0 Y105.757359 Z0.72 E0.162485 F2400
G1 X94.242641 Y100.0 Z0.72 E0.162485 F2400
G1 X100.0 Y94.242641 Z0.72 E0.162485 F2400
G0 X105.757359 Y100.0 Z0.72 F4800
G1 X105.191674 Y100.0 Z0.72 E0.011289 F2400
G1 X100.0 Y105.191674 Z0.72 E0.14652 F2400
