;FLAVOR:Marlin 
;Layer height: 0.12 
;Generated with Cura_SteamEngine 4.9.0 
M140 S65
M105 
M190 S65
M104 S205
M105 
M109 S205
M82 ;absolute extrusion mode 
; Ender 3 Custom Start G-code 
G92 E0 ; Reset Extruder 
G1 X0 Y0 Z10 F3000
G1 Z2.0 F3000 ; Move Z Axis up little to prevent scratching of Heat Bed 
G1 X0.1 Y20 Z0.3 F5000.0 ; Move to start position 
G1 X0.1 Y200.0 Z0.3 F1500.0 E15 ; Draw the first line 
G1 X0.4 Y200.0 Z0.3 F5000.0 ; Move to side a little 
G1 X0.4 Y20 Z0.3 F1500.0 E30 ; Draw the second line 
G92 E0 ; Reset Extruder 
G1 Z2.0 F3000 ; Move Z Axis up little to prevent scratching of Heat Bed 
G1 X5 Y20 Z0.3 F5000.0 ; Move over to prevent blob squish 
G92 E0 
G92 E0 
G1 F3000 E-8 
G0 X119.324465 Y110.0 Z0.24 F2400
G1 E0.0
G1 X119.006741 Y112.413349 Z0.24 E0.121441 F1200
G1 X118.075223 Y114.662232 Z0.24 E0.242882 F1200
G1 X116.593392 Y116.593392 Z0.24 E0.364323 F1200
G1 X114.662232 Y118.075223 Z0.24 E0.485764 F1200
G1 X112.413349 Y119.006741 Z0.24 E0.607205 F1200
G1 X110.0 Y119.324465 Z0.24 E0.728646 F1200
G1 X107.586651 Y119.006741 Z0.24 E0.850087 F1200
G1 X105.337768 Y118.075223 Z0.24 E0.971528 F1200
G1 X103.406608 Y116.593392 Z0.24 E1.092969 F1200
G1 X101.924777 Y114.662232 Z0.24 E1.21441 F1200
G1 X100.993259 Y112.413349 Z0.24 E1.335851 F1200
G1 X100.675535 Y110.0 Z0.24 E1.457292 F1200
G1 X100.993259 Y107.586651 Z0.24 E1.578733 F1200
G1 X101.924777 Y105.337768 Z0.24 E1.700174 F1200
G1 X103.406608 Y103.406608 Z0.24 E1.821615 F1200
G1 X105.337768 Y101.924777 Z0.24 E1.943056 F1200
G1 X107.586651 Y100.993259 Z0.24 E2.064497 F1200
G1 X110.0 Y100.675535 Z0.24 E2.185938 F1200
G1 X112.413349 Y100.993259 Z0.24 E2.307379 F1200
G1 X114.662232 Y101.924777 Z0.24 E2.42882 F1200
G1 X116.593392 Y103.406608 Z0.24 E2.550261 F1200
G1 X118.075223 Y105.337768 Z0.24 E2.671702 F1200
G1 X119.006741 Y107.586651 Z0.24 E2.793143 F1200
G1 X119.324465 Y110.0 Z0.24 E2.914584 F1200
G0 X118.82015 Y110.0 Z0.24 F2400
G1 X118.519611 Y112.282823 Z0.24 E3.029457 F1200
G1 X117.638474 Y114.410075 Z0.24 E3.14433 F1200
G1 X116.236788 Y116.236788 Z0.24 E3.259203 F1200
G1 X114.410075 Y117.638474 Z0.24 E3.374076 F1200
G1 X112.282823 Y118.519611 Z0.24 E3.488949 F1200
G1 X110.0 Y118.82015 Z0.24 E3.603822 F1200
G1 X107.717177 Y118.519611 Z0.24 E3.718695 F1200
G1 X105.589925 Y117.638474 Z0.24 E3.833568 F1200
G1 X103.763212 Y116.236788 Z0.24 E3.948441 F1200
G1 X102.361526 Y114.410075 Z0.24 E4.063314 F1200
G1 X101.480389 Y112.282823 Z0.24 E4.178187 F1200
G1 X101.17985 Y110.0 Z0.24 E4.29306 F1200
G1 X101.480389 Y107.717177 Z0.24 E4.407933 F1200
G1 X102.361526 Y105.589925 Z0.24 E4.522806 F1200
G1 X103.763212 Y103.763212 Z0.24 E4.637679 F1200
G1 X105.589925 Y102.361526 Z0.24 E4.752552 F1200
G1 X107.717177 Y101.480389 Z0.24 E4.867425 F1200
G1 X110.0 Y101.17985 Z0.24 E4.982298 F1200
G1 X112.282823 Y101.480389 Z0.24 E5.097171 F1200
G1 X114.410075 Y102.361526 Z0.24 E5.212044 F1200
G1 X116.236788 Y103.763212 Z0.24 E5.326917 F1200
G1 X117.638474 Y105.589925 Z0.24 E5.44179 F1200
G1 X118.519611 Y107.717177 Z0.24 E5.556663 F1200
G1 X118.82015 Y110.0 Z0.24 E5.671536 F1200
G0 X118.315836 Y110.0 Z0.24 F2400
G1 X118.032481 Y112.152297 Z0.24 E5.779841 F1200
G1 X117.201725 Y114.157918 Z0.24 E5.888146 F1200
G1 X115.880184 Y115.880184 Z0.24 E5.996451 F1200
G1 X114.157918 Y117.201725 Z0.24 E6.104756 F1200
G1 X112.152297 Y118.032481 Z0.24 E6.213061 F1200
G1 X110.0 Y118.315836 Z0.24 E6.321366 F1200
G1 X107.847703 Y118.032481 Z0.24 E6.429671 F1200
G1 X105.842082 Y117.201725 Z0.24 E6.537976 F1200
G1 X104.119816 Y115.880184 Z0.24 E6.646281 F1200
G1 X102.798275 Y114.157918 Z0.24 E6.754586 F1200
G1 X101.967519 Y112.152297 Z0.24 E6.862891 F1200
G1 X101.684164 Y110.0 Z0.24 E6.971196 F1200
G1 X101.967519 Y107.847703 Z0.24 E7.079501 F1200
G1 X102.798275 Y105.842082 Z0.24 E7.187806 F1200
G1 X104.119816 Y104.119816 Z0.24 E7.296111 F1200
G1 X105.842082 Y102.798275 Z0.24 E7.404416 F1200
G1 X107.847703 Y101.967519 Z0.24 E7.512721 F1200
G1 X110.0 Y101.684164 Z0.24 E7.621026 F1200
G1 X112.152297 Y101.967519 Z0.24 E7.729331 F1200
G1 X114.157918 Y102.798275 Z0.24 E7.837636 F1200
G1 X115.880184 Y104.119816 Z0.24 E7.945941 F1200
G1 X117.201725 Y105.842082 Z0.24 E8.054246 F1200
G1 X118.032481 Y107.847703 Z0.24 E8.162551 F1200
G1 X118.315836 Y110.0 Z0.24 E8.270856 F1200
G0 X117.811521 Y110.0 Z0.24 F2400
G1 X117.54535 Y112.02177 Z0.24 E8.372593 F1200
G1 X116.764976 Y113.905761 Z0.24 E8.47433 F1200
G1 X115.52358 Y115.52358 Z0.24 E8.576067 F1200
G1 X113.905761 Y116.764976 Z0.24 E8.677804 F1200
G1 X112.02177 Y117.54535 Z0.24 E8.779541 F1200
G1 X110.0 Y117.811521 Z0.24 E8.881278 F1200
G1 X107.97823 Y117.54535 Z0.24 E8.983015 F1200
G1 X106.094239 Y116.764976 Z0.24 E9.084752 F1200
G1 X104.47642 Y115.52358 Z0.24 E9.186489 F1200
G1 X103.235024 Y113.905761 Z0.24 E9.288226 F1200
G1 X102.45465 Y112.02177 Z0.24 E9.389963 F1200
G1 X102.188479 Y110.0 Z0.24 E9.4917 F1200
G1 X102.45465 Y107.97823 Z0.24 E9.593437 F1200
G1 X103.235024 Y106.094239 Z0.24 E9.695174 F1200
G1 X104.47642 Y104.47642 Z0.24 E9.796911 F1200
G1 X106.094239 Y103.235024 Z0.24 E9.898648 F1200
G1 X107.97823 Y102.45465 Z0.24 E10.000385 F1200
G1 X110.0 Y102.188479 Z0.24 E10.102122 F1200
G1 X112.02177 Y102.45465 Z0.24 E10.203859 F1200
G1 X113.905761 Y103.235024 Z0.24 E10.305596 F1200
G1 X115.52358 Y104.47642 Z0.24 E10.407333 F1200
G1 X116.764976 Y106.094239 Z0.24 E10.50907 F1200
G1 X117.54535 Y107.97823 Z0.24 E10.610807 F1200
G1 X117.811521 Y110.0 Z0.24 E10.712544 F1200
G0 X117.307207 Y110.0 Z0.24 F2400
G1 X117.05822 Y111.891244 Z0.24 E10.807713 F1200
G1 X116.328227 Y113.653603 Z0.24 E10.902882 F1200
G1 X115.166975 Y115.166975 Z0.24 E10.998051 F1200
G1 X113.653603 Y116.328227 Z0.24 E11.09322 F1200
G1 X111.891244 Y117.05822 Z0.24 E11.188389 F1200
G1 X110.0 Y117.307207 Z0.24 E11.283558 F1200
G1 X108.108756 Y117.05822 Z0.24 E11.378727 F1200
G1 X106.346397 Y116.328227 Z0.24 E11.473896 F1200
G1 X104.833025 Y115.166975 Z0.24 E11.569065 F1200
G1 X103.671773 Y113.653603 Z0.24 E11.664234 F1200
G1 X102.94178 Y111.891244 Z0.24 E11.759403 F1200
G1 X102.692793 Y110.0 Z0.24 E11.854572 F1200
G1 X102.94178 Y108.108756 Z0.24 E11.949741 F1200
G1 X103.671773 Y106.346397 Z0.24 E12.04491 F1200
G1 X104.833025 Y104.833025 Z0.24 E12.140079 F1200
G1 X106.346397 Y103.671773 Z0.24 E12.235248 F1200
G1 X108.108756 Y102.94178 Z0.24 E12.330417 F1200
G1 X110.0 Y102.692793 Z0.24 E12.425586 F1200
G1 X111.891244 Y102.94178 Z0.24 E12.520755 F1200
G1 X113.653603 Y103.671773 Z0.24 E12.615924 F1200
G1 X115.166975 Y104.833025 Z0.24 E12.711093 F1200
G1 X116.328227 Y106.346397 Z0.24 E12.806262 F1200
G1 X117.05822 Y108.108756 Z0.24 E12.901431 F1200
G1 X117.307207 Y110.0 Z0.24 E12.9966 F1200
G0 X116.802892 Y110.0 Z0.24 F2400
G1 X116.571089 Y111.760718 Z0.24 E13.085201 F1200
G1 X115.891478 Y113.401446 Z0.24 E13.173802 F1200
G1 X114.810371 Y114.810371 Z0.24 E13.262403 F1200
G1 X113.401446 Y115.891478 Z0.24 E13.351004 F1200
G1 X111.760718 Y116.571089 Z0.24 E13.439605 F1200
G1 X110.0 Y116.802892 Z0.24 E13.528206 F1200
G1 X108.239282 Y116.571089 Z0.24 E13.616807 F1200
G1 X106.598554 Y115.891478 Z0.24 E13.705408 F1200
G1 X105.189629 Y114.810371 Z0.24 E13.794009 F1200
G1 X104.108522 Y113.401446 Z0.24 E13.88261 F1200
G1 X103.428911 Y111.760718 Z0.24 E13.971211 F1200
G1 X103.197108 Y110.0 Z0.24 E14.059812 F1200
G1 X103.428911 Y108.239282 Z0.24 E14.148413 F1200
G1 X104.108522 Y106.598554 Z0.24 E14.237014 F1200
G1 X105.189629 Y105.189629 Z0.24 E14.325615 F1200
G1 X106.598554 Y104.108522 Z0.24 E14.414216 F1200
G1 X108.239282 Y103.428911 Z0.24 E14.502817 F1200
G1 X110.0 Y103.197108 Z0.24 E14.591418 F1200
G1 X111.760718 Y103.428911 Z0.24 E14.680019 F1200
G1 X113.401446 Y104.108522 Z0.24 E14.76862 F1200
G1 X114.810371 Y105.189629 Z0.24 E14.857221 F1200
G1 X115.891478 Y106.598554 Z0.24 E14.945822 F1200
G1 X116.571089 Y108.239282 Z0.24 E15.034423 F1200
G1 X116.802892 Y110.0 Z0.24 E15.123024 F1200
G0 X116.298578 Y110.0 Z0.24 F2400
G1 X116.083959 Y111.630192 Z0.24 E15.205056 F1200
G1 X115.454728 Y113.149289 Z0.24 E15.287088 F1200
G1 X114.453767 Y114.453767 Z0.24 E15.36912 F1200
G1 X113.149289 Y115.454728 Z0.24 E15.451152 F1200
G1 X111.630192 Y116.083959 Z0.24 E15.533184 F1200
G1 X110.0 Y116.298578 Z0.24 E15.615216 F1200
G1 X108.369808 Y116.083959 Z0.24 E15.697248 F1200
G1 X106.850711 Y115.454728 Z0.24 E15.77928 F1200
G1 X105.546233 Y114.453767 Z0.24 E15.861312 F1200
G1 X104.545272 Y113.149289 Z0.24 E15.943344 F1200
G1 X103.916041 Y111.630192 Z0.24 E16.025376 F1200
G1 X103.701422 Y110.0 Z0.24 E16.107408 F1200
G1 X103.916041 Y108.369808 Z0.24 E16.18944 F1200
G1 X104.545272 Y106.850711 Z0.24 E16.271472 F1200
G1 X105.546233 Y105.546233 Z0.24 E16.353504 F1200
G1 X106.850711 Y104.545272 Z0.24 E16.435536 F1200
G1 X108.369808 Y103.916041 Z0.24 E16.517568 F1200
G1 X110.0 Y103.701422 Z0.24 E16.5996 F1200
G1 X111.630192 Y103.916041 Z0.24 E16.681632 F1200
G1 X113.149289 Y104.545272 Z0.24 E16.763664 F1200
G1 X114.453767 Y105.546233 Z0.24 E16.845696 F1200
G1 X115.454728 Y106.850711 Z0.24 E16.927728 F1200
G1 X116.083959 Y108.369808 Z0.24 E17.00976 F1200
G1 X116.298578 Y110.0 Z0.24 E17.091792 F1200
G0 X115.794263 Y110.0 Z0.24 F2400
G1 X115.596829 Y111.499666 Z0.24 E17.167256 F1200
G1 X115.017979 Y112.897132 Z0.24 E17.24272 F1200
G1 X114.097163 Y114.097163 Z0.24 E17.318184 F1200
G1 X112.897132 Y115.017979 Z0.24 E17.393648 F1200
G1 X111.499666 Y115.596829 Z0.24 E17.469112 F1200
G1 X110.0 Y115.794263 Z0.24 E17.544576 F1200
G1 X108.500334 Y115.596829 Z0.24 E17.62004 F1200
G1 X107.102868 Y115.017979 Z0.24 E17.695504 F1200
G1 X105.902837 Y114.097163 Z0.24 E17.770968 F1200
G1 X104.982021 Y112.897132 Z0.24 E17.846432 F1200
G1 X104.403171 Y111.499666 Z0.24 E17.921896 F1200
G1 X104.205737 Y110.0 Z0.24 E17.99736 F1200
G1 X104.403171 Y108.500334 Z0.24 E18.072824 F1200
G1 X104.982021 Y107.102868 Z0.24 E18.148288 F1200
G1 X105.902837 Y105.902837 Z0.24 E18.223752 F1200
G1 X107.102868 Y104.982021 Z0.24 E18.299216 F1200
G1 X108.500334 Y104.403171 Z0.24 E18.37468 F1200
G1 X110.0 Y104.205737 Z0.24 E18.450144 F1200
G1 X111.499666 Y104.403171 Z0.24 E18.525608 F1200
G1 X112.897132 Y104.982021 Z0.24 E18.601072 F1200
G1 X114.097163 Y105.902837 Z0.24 E18.676536 F1200
G1 X115.017979 Y107.102868 Z0.24 E18.752 F1200
G1 X115.596829 Y108.500334 Z0.24 E18.827464 F1200
G1 X115.794263 Y110.0 Z0.24 E18.902928 F1200
G0 X115.289949 Y110.0 Z0.24 F2400
G1 X115.109698 Y111.36914 Z0.24 E18.971824 F1200
G1 X114.58123 Y112.644974 Z0.24 E19.04072 F1200
G1 X113.740559 Y113.740559 Z0.24 E19.109616 F1200
G1 X112.644974 Y114.58123 Z0.24 E19.178512 F1200
G1 X111.36914 Y115.109698 Z0.24 E19.247408 F1200
G1 X110.0 Y115.289949 Z0.24 E19.316304 F1200
G1 X108.63086 Y115.109698 Z0.24 E19.3852 F1200
G1 X107.355026 Y114.58123 Z0.24 E19.454096 F1200
G1 X106.259441 Y113.740559 Z0.24 E19.522992 F1200
G1 X105.41877 Y112.644974 Z0.24 E19.591888 F1200
G1 X104.890302 Y111.36914 Z0.24 E19.660784 F1200
G1 X104.710051 Y110.0 Z0.24 E19.72968 F1200
G1 X104.890302 Y108.63086 Z0.24 E19.798576 F1200
G1 X105.41877 Y107.355026 Z0.24 E19.867472 F1200
G1 X106.259441 Y106.259441 Z0.24 E19.936368 F1200
G1 X107.355026 Y105.41877 Z0.24 E20.005264 F1200
G1 X108.63086 Y104.890302 Z0.24 E20.07416 F1200
G1 X110.0 Y104.710051 Z0.24 E20.143056 F1200
G1 X111.36914 Y104.890302 Z0.24 E20.211952 F1200
G1 X112.644974 Y105.41877 Z0.24 E20.280848 F1200
G1 X113.740559 Y106.259441 Z0.24 E20.349744 F1200
G1 X114.58123 Y107.355026 Z0.24 E20.41864 F1200
G1 X115.109698 Y108.63086 Z0.24 E20.487536 F1200
G1 X115.289949 Y110.0 Z0.24 E20.556432 F1200
G0 X114.785634 Y110.0 Z0.24 F2400
G1 X114.622568 Y111.238613 Z0.24 E20.61876 F1200
G1 X114.144481 Y112.392817 Z0.24 E20.681088 F1200
G1 X113.383955 Y113.383955 Z0.24 E20.743416 F1200
G1 X112.392817 Y114.144481 Z0.24 E20.805744 F1200
G1 X111.238613 Y114.622568 Z0.24 E20.868072 F1200
G1 X110.0 Y114.785634 Z0.24 E20.9304 F1200
G1 X108.761387 Y114.622568 Z0.24 E20.992728 F1200
G1 X107.607183 Y114.144481 Z0.24 E21.055056 F1200
G1 X106.616045 Y113.383955 Z0.24 E21.117384 F1200
G1 X105.855519 Y112.392817 Z0.24 E21.179712 F1200
G1 X105.377432 Y111.238613 Z0.24 E21.24204 F1200
G1 X105.214366 Y110.0 Z0.24 E21.304368 F1200
G1 X105.377432 Y108.761387 Z0.24 E21.366696 F1200
G1 X105.855519 Y107.607183 Z0.24 E21.429024 F1200
G1 X106.616045 Y106.616045 Z0.24 E21.491352 F1200
G1 X107.607183 Y105.855519 Z0.24 E21.55368 F1200
G1 X108.761387 Y105.377432 Z0.24 E21.616008 F1200
G1 X110.0 Y105.214366 Z0.24 E21.678336 F1200
G1 X111.238613 Y105.377432 Z0.24 E21.740664 F1200
G1 X112.392817 Y105.855519 Z0.24 E21.802992 F1200
G1 X113.383955 Y106.616045 Z0.24 E21.86532 F1200
G1 X114.144481 Y107.607183 Z0.24 E21.927648 F1200
G1 X114.622568 Y108.761387 Z0.24 E21.989976 F1200
G1 X114.785634 Y110.0 Z0.24 E22.052304 F1200
G0 X114.28132 Y110.0 Z0.24 F2400
G1 X114.135437 Y111.108087 Z0.24 E22.108064 F1200
G1 X113.707732 Y112.14066 Z0.24 E22.163824 F1200
G1 X113.02735 Y113.02735 Z0.24 E22.219584 F1200
G1 X112.14066 Y113.707732 Z0.24 E22.275344 F1200
G1 X111.108087 Y114.135437 Z0.24 E22.331104 F1200
G1 X110.0 Y114.28132 Z0.24 E22.386864 F1200
G1 X108.891913 Y114.135437 Z0.24 E22.442624 F1200
G1 X107.85934 Y113.707732 Z0.24 E22.498384 F1200
G1 X106.97265 Y113.02735 Z0.24 E22.554144 F1200
G1 X106.292268 Y112.14066 Z0.24 E22.609904 F1200
G1 X105.864563 Y111.108087 Z0.24 E22.665664 F1200
G1 X105.71868 Y110.0 Z0.24 E22.721424 F1200
G1 X105.864563 Y108.891913 Z0.24 E22.777184 F1200
G1 X106.292268 Y107.85934 Z0.24 E22.832944 F1200
G1 X106.97265 Y106.97265 Z0.24 E22.888704 F1200
G1 X107.85934 Y106.292268 Z0.24 E22.944464 F1200
G1 X108.891913 Y105.864563 Z0.24 E23.000224 F1200
G1 X110.0 Y105.71868 Z0.24 E23.055984 F1200
G1 X111.108087 Y105.864563 Z0.24 E23.111744 F1200
G1 X112.14066 Y106.292268 Z0.24 E23.167504 F1200
G1 X113.02735 Y106.97265 Z0.24 E23.223264 F1200
G1 X113.707732 Y107.85934 Z0.24 E23.279024 F1200
G1 X114.135437 Y108.891913 Z0.24 E23.334784 F1200
G1 X114.28132 Y110.0 Z0.24 E23.390544 F1200
G0 X113.777005 Y110.0 Z0.24 F2400
G1 X113.648307 Y110.977561 Z0.24 E23.439736 F1200
G1 X113.270983 Y111.888503 Z0.24 E23.488928 F1200
G1 X112.670746 Y112.670746 Z0.24 E23.53812 F1200
G1 X111.888503 Y113.270983 Z0.24 E23.587312 F1200
G1 X110.977561 Y113.648307 Z0.24 E23.636504 F1200
G1 X110.0 Y113.777005 Z0.24 E23.685696 F1200
G1 X109.022439 Y113.648307 Z0.24 E23.734888 F1200
G1 X108.111497 Y113.270983 Z0.24 E23.78408 F1200
G1 X107.329254 Y112.670746 Z0.24 E23.833272 F1200
G1 X106.729017 Y111.888503 Z0.24 E23.882464 F1200
G1 X106.351693 Y110.977561 Z0.24 E23.931656 F1200
G1 X106.222995 Y110.0 Z0.24 E23.980848 F1200
G1 X106.351693 Y109.022439 Z0.24 E24.03004 F1200
G1 X106.729017 Y108.111497 Z0.24 E24.079232 F1200
G1 X107.329254 Y107.329254 Z0.24 E24.128424 F1200
G1 X108.111497 Y106.729017 Z0.24 E24.177616 F1200
G1 X109.022439 Y106.351693 Z0.24 E24.226808 F1200
G1 X110.0 Y106.222995 Z0.24 E24.276 F1200
G1 X110.977561 Y106.351693 Z0.24 E24.325192 F1200
G1 X111.888503 Y106.729017 Z0.24 E24.374384 F1200
G1 X112.670746 Y107.329254 Z0.24 E24.423576 F1200
G1 X113.270983 Y108.111497 Z0.24 E24.472768 F1200
G1 X113.648307 Y109.022439 Z0.24 E24.52196 F1200
G1 X113.777005 Y110.0 Z0.24 E24.571152 F1200
G0 X113.272691 Y110.0 Z0.24 F2400
G1 X113.161177 Y110.847035 Z0.24 E24.613775 F1200
G1 X112.834234 Y111.636345 Z0.24 E24.656398 F1200
G1 X112.314142 Y112.314142 Z0.24 E24.699021 F1200
G1 X111.636345 Y112.834234 Z0.24 E24.741644 F1200
G1 X110.847035 Y113.161177 Z0.24 E24.784267 F1200
G1 X110.0 Y113.272691 Z0.24 E24.82689 F1200
G1 X109.152965 Y113.161177 Z0.24 E24.869513 F1200
G1 X108.363655 Y112.834234 Z0.24 E24.912136 F1200
G1 X107.685858 Y112.314142 Z0.24 E24.954759 F1200
G1 X107.165766 Y111.636345 Z0.24 E24.997382 F1200
G1 X106.838823 Y110.847035 Z0.24 E25.040005 F1200
G1 X106.727309 Y110.0 Z0.24 E25.082628 F1200
G1 X106.838823 Y109.152965 Z0.24 E25.125251 F1200
G1 X107.165766 Y108.363655 Z0.24 E25.167874 F1200
G1 X107.685858 Y107.685858 Z0.24 E25.210497 F1200
G1 X108.363655 Y107.165766 Z0.24 E25.25312 F1200
G1 X109.152965 Y106.838823 Z0.24 E25.295743 F1200
G1 X110.0 Y106.727309 Z0.24 E25.338366 F1200
