;FLAVOR:Marlin 
;Layer height: 0.12 
;Generated with Cura_SteamEngine 4.9.0 
M140 S70
M105 
M190 S70
M104 S210
M105 
M109 S210
M83 ;relative extrusion mode 
; Ender 3 Custom Start G-code 
G92 E0 ; Reset Extruder 
G1 X0 Y0 Z10 F3000
G1 Z2.0 F3000 ; Move Z Axis up little to prevent scratching of Heat Bed 
G1 X0.1 Y20 Z0.3 F5000.0 ; Move to start position 
G1 X0.1 Y200.0 Z0.3 F1500.0 E15 ; Draw the first line 
G1 X0.4 Y200.0 Z0.3 F5000.0 ; Move to side a little 
G1 X0.4 Y20 Z0.3 F1500.0 E15 ; Draw the second line 
G92 E0 ; Reset Extruder 
G1 Z2.0 F3000 ; Move Z Axis up little to prevent scratching of Heat Bed 
G1 X5 Y20 Z0.3 F5000.0 ; Move over to prevent blob squish 
G92 E0 
G92 E0 
G1 F3000 E-8 
M104 S210
G0 X69.69098300562506 Y60.0 Z0.24 F1200
G1 E8
G1 X62.99467844093695 Y69.2166725368053 Z0.24 E0.5683708291326992 F1200
G1 X52.15983005625053 Y65.6962168909234 Z0.24 E0.5683708291326991 F1200
G1 X52.15983005625053 Y54.30378310907661 Z0.24 E0.568370829132699 F1200
G1 X62.994678440936944 Y50.783327463194695 Z0.24 E0.5683708291326988 F1200
G1 X69.69098300562506 Y60.0 Z0.24 E0.5683708291326993 F1200
G1 X69.07294901687516 Y60.0 Z0.24 E0.030833840893392184 F1200
G1 X62.803695435311894 Y68.62888728451283 Z0.24 E0.5321234752353622 F1200
G1 X52.65983005625053 Y65.33294562692072 Z0.24 E0.5321234752353621 F1200
G1 X52.65983005625053 Y54.66705437307929 Z0.24 E0.5321234752353626 F1200
G1 X62.803695435311894 Y51.37111271548717 Z0.24 E0.5321234752353621 F1200
G1 X69.07294901687516 Y60.0 Z0.24 E0.5321234752353622 F1200
G1 X68.45491502812527 Y60.0 Z0.24 E0.030833840893391477 F1200
G1 X62.612712429686844 Y68.04110203222035 Z0.24 E0.49587612133802556 F1200
G1 X53.15983005625053 Y64.96967436291803 Z0.24 E0.4958761213380255 F1200
G1 X53.15983005625053 Y55.03032563708197 Z0.24 E0.4958761213380252 F1200
G1 X62.612712429686844 Y51.95889796777965 Z0.24 E0.4958761213380255 F1200
G1 X68.45491502812527 Y60.0 Z0.24 E0.49587612133802556 F1200
G1 X67.83688103937537 Y60.0 Z0.24 E0.030833840893392184 F1200
G1 X62.42172942406179 Y67.45331677992787 Z0.24 E0.4596287674406887 F1200
G1 X53.65983005625053 Y64.60640309891535 Z0.24 E0.4596287674406885 F1200
G1 X53.65983005625053 Y55.39359690108465 Z0.24 E0.4596287674406889 F1200
G1 X62.42172942406179 Y52.54668322007212 Z0.24 E0.45962876744068865 F1200
G1 X67.83688103937537 Y60.0 Z0.24 E0.459628767440689 F1200
G1 X67.21884705062547 Y60.0 Z0.24 E0.030833840893392184 F1200
G1 X62.23074641843674 Y66.86553152763541 Z0.24 E0.42338141354335224 F1200
G1 X54.15983005625053 Y64.24313183491267 Z0.24 E0.42338141354335207 F1200
G1 X54.15983005625053 Y55.75686816508733 Z0.24 E0.42338141354335224 F1200
G1 X62.23074641843674 Y53.13446847236459 Z0.24 E0.4233814135433522 F1200
G1 X67.21884705062547 Y60.0 Z0.24 E0.42338141354335224 F1200
G1 X66.60081306187558 Y60.0 Z0.24 E0.030833840893391477 F1200
G1 X62.03976341281169 Y66.27774627534293 Z0.24 E0.38713405964601555 F1200
G1 X54.65983005625053 Y63.87986057090999 Z0.24 E0.3871340596460155 F1200
G1 X54.65983005625053 Y56.12013942909001 Z0.24 E0.38713405964601555 F1200
G1 X62.03976341281168 Y53.722253724657065 Z0.24 E0.38713405964601516 F1200
G1 X66.60081306187558 Y60.0 Z0.24 E0.38713405964601577 F1200
G1 X65.98277907312568 Y60.0 Z0.24 E0.030833840893392184 F1200
G1 X61.84878040718663 Y65.68996102305046 Z0.24 E0.35088670574867875 F1200
G1 X55.15983005625053 Y63.516589306907306 Z0.24 E0.3508867057486786 F1200
G1 X55.15983005625053 Y56.483410693092694 Z0.24 E0.35088670574867853 F1200
G1 X61.84878040718663 Y54.31003897694954 Z0.24 E0.3508867057486786 F1200
G1 X65.98277907312568 Y60.0 Z0.24 E0.35088670574867875 F1200
G1 X65.36474508437578 Y60.0 Z0.24 E0.030833840893392184 F1200
G1 X61.65779740156158 Y65.10217577075798 Z0.24 E0.3146393518513416 F1200
G1 X55.65983005625053 Y63.15331804290463 Z0.24 E0.3146393518513419 F1200
G1 X55.65983005625053 Y56.84668195709537 Z0.24 E0.3146393518513423 F1200
G1 X61.65779740156158 Y54.89782422924201 Z0.24 E0.314639351851342 F1200
G1 X65.36474508437578 Y60.0 Z0.24 E0.31463935185134195 F1200
G1 X64.7467110956259 Y60.0 Z0.24 E0.030833840893391477 F1200
G1 X61.46681439593653 Y64.51439051846552 Z0.24 E0.27839199795400554 F1200
G1 X56.15983005625053 Y62.790046778901946 Z0.24 E0.27839199795400554 F1200
G1 X56.15983005625053 Y57.209953221098054 Z0.24 E0.27839199795400527 F1200
G1 X61.466814395936524 Y55.48560948153448 Z0.24 E0.27839199795400527 F1200
G1 X64.7467110956259 Y60.0 Z0.24 E0.27839199795400577 F1200
G1 X64.128677106876 Y60.0 Z0.24 E0.030833840893392184 F1200
G1 X61.275831390311474 Y63.92660526617304 Z0.24 E0.2421446440566687 F1200
G1 X56.65983005625053 Y62.42677551489927 Z0.24 E0.24214464405666855 F1200
G1 X56.65983005625053 Y57.57322448510073 Z0.24 E0.2421446440566689 F1200
G1 X61.275831390311474 Y56.07339473382696 Z0.24 E0.24214464405666855 F1200
G1 X64.128677106876 Y60.0 Z0.24 E0.2421446440566687 F1200
G1 X63.510643118126104 Y60.0 Z0.24 E0.030833840893391827 F1200
G1 X61.084848384686424 Y63.338820013880564 Z0.24 E0.20589729015933186 F1200
G1 X57.15983005625053 Y62.063504250896585 Z0.24 E0.20589729015933203 F1200
G1 X57.15983005625053 Y57.936495749103415 Z0.24 E0.2058972901593319 F1200
G1 X61.084848384686424 Y56.66117998611943 Z0.24 E0.2058972901593321 F1200
G1 X63.510643118126104 Y60.0 Z0.24 E0.2058972901593321 F1200
G1 X62.89260912937621 Y60.0 Z0.24 E0.030833840893391827 F1200
G1 X60.89386537906137 Y62.751034761588095 Z0.24 E0.16964993626199548 F1200
G1 X57.65983005625053 Y61.70023298689391 Z0.24 E0.16964993626199512 F1200
G1 X57.65983005625053 Y58.29976701310609 Z0.24 E0.16964993626199557 F1200
G1 X60.89386537906137 Y57.248965238411905 Z0.24 E0.16964993626199512 F1200
G1 X62.89260912937621 Y60.0 Z0.24 E0.16964993626199548 F1200
G1 X62.27457514062631 Y60.0 Z0.24 E0.030833840893392184 F1200
G1 X60.70288237343632 Y62.163249509295625 Z0.24 E0.13340258236465868 F1200
G1 X58.15983005625053 Y61.336961722891225 Z0.24 E0.13340258236465866 F1200
G1 X58.15983005625053 Y58.663038277108775 Z0.24 E0.13340258236465855 F1200
G1 X60.70288237343632 Y57.836750490704375 Z0.24 E0.13340258236465866 F1200
G1 X62.27457514062631 Y60.0 Z0.24 E0.13340258236465868 F1200
G1 X61.65654115187642 Y60.0 Z0.24 E0.030833840893391827 F1200
G1 X60.51189936781127 Y61.57546425700315 Z0.24 E0.0971552284673218 F1200
G1 X58.65983005625053 Y60.97369045888855 Z0.24 E0.097155228467322 F1200
G1 X58.65983005625053 Y59.02630954111145 Z0.24 E0.09715522846732225 F1200
G1 X60.51189936781127 Y58.42453574299685 Z0.24 E0.097155228467322 F1200
G1 X61.65654115187642 Y60.0 Z0.24 E0.0971552284673218 F1200
G1 X61.038507163126525 Y60.0 Z0.24 E0.030833840893391827 F1200
G1 X60.32091636218621 Y60.98767900471068 Z0.24 E0.060907874569985455 F1200
G1 X59.15983005625053 Y60.610419194885864 Z0.24 E0.060907874569985206 F1200
G1 X59.15983005625053 Y59.389580805114136 Z0.24 E0.060907874569985226 F1200
G1 X60.32091636218621 Y59.01232099528932 Z0.24 E0.060907874569985206 F1200
G1 X61.038507163126525 Y60.0 Z0.24 E0.060907874569985455 F1200
G1 X60.42047317437663 Y60.0 Z0.24 E0.030833840893391827 F1200
G1 X60.12993335656116 Y60.3998937524182 Z0.24 E0.024660520672648588 F1200
G1 X59.65983005625053 Y60.24714793088319 Z0.24 E0.02466052067264853 F1200
G1 X59.65983005625053 Y59.75285206911681 Z0.24 E0.02466052067264891 F1200
G1 X60.12993335656116 Y59.6001062475818 Z0.24 E0.02466052067264853 F1200
G1 X60.42047317437663 Y60.0 Z0.24 E0.024660520672648588 F1200
G1 E-8
M104 S205
M140 S65
G0 X69.75278640450004 Y60.0 Z0.24 F1200
G0 X69.75278640450004 Y60.0 Z0.36 F1200
G1 E8
G1 X63.013776741499456 Y69.27545106203455 Z0.36 E0.22879822580897302 F1200
G1 X52.10983005625052 Y65.73254401732366 Z0.36 E0.2287982258089731 F1200
G1 X52.10983005625052 Y54.26745598267634 Z0.36 E0.2287982258089731 F1200
G1 X63.01377674149945 Y50.72454893796545 Z0.36 E0.22879822580897297 F1200
G1 X69.75278640450004 Y60.0 Z0.36 E0.2287982258089731 F1200
G1 X69.25835921350013 Y60.0 Z0.36 E0.009866829085885388 F1200
G1 X62.860990336999414 Y68.80522286020057 Z0.36 E0.21719907256182533 F1200
G1 X52.50983005625053 Y65.44192700612152 Z0.36 E0.21719907256182527 F1200
G1 X52.50983005625052 Y54.55807299387848 Z0.36 E0.21719907256182536 F1200
G1 X62.86099033699941 Y51.19477713979943 Z0.36 E0.21719907256182527 F1200
G1 X69.25835921350013 Y60.0 Z0.36 E0.21719907256182547 F1200
G1 X68.76393202250021 Y60.0 Z0.36 E0.009866829085885388 F1200
G1 X62.70820393249937 Y68.33499465836658 Z0.36 E0.20559991931467742 F1200
G1 X52.90983005625053 Y65.15130999491937 Z0.36 E0.20559991931467755 F1200
G1 X52.90983005625053 Y54.84869000508063 Z0.36 E0.20559991931467764 F1200
G1 X62.708203932499366 Y51.66500534163341 Z0.36 E0.20559991931467742 F1200
G1 X68.76393202250021 Y60.0 Z0.36 E0.20559991931467764 F1200
G1 X68.2695048315003 Y60.0 Z0.36 E0.009866829085885388 F1200
G1 X62.555417527999325 Y67.8647664565326 Z0.36 E0.19400076606752986 F1200
G1 X53.309830056250526 Y64.86069298371723 Z0.36 E0.1940007660675297 F1200
G1 X53.309830056250526 Y55.13930701628277 Z0.36 E0.19400076606752992 F1200
G1 X62.555417527999325 Y52.135233543467386 Z0.36 E0.19400076606752975 F1200
G1 X68.2695048315003 Y60.0 Z0.36 E0.19400076606752995 F1200
G1 X67.77507764050037 Y60.0 Z0.36 E0.009866829085885669 F1200
G1 X62.40263112349928 Y67.39453825469863 Z0.36 E0.18240161282038198 F1200
G1 X53.709830056250524 Y64.57007597251508 Z0.36 E0.18240161282038203 F1200
G1 X53.709830056250524 Y55.42992402748492 Z0.36 E0.18240161282038203 F1200
G1 X62.40263112349928 Y52.60546174530137 Z0.36 E0.18240161282038206 F1200
G1 X67.77507764050037 Y60.0 Z0.36 E0.18240161282038198 F1200
G1 X67.28065044950046 Y60.0 Z0.36 E0.009866829085885388 F1200
G1 X62.24984471899924 Y66.92431005286466 Z0.36 E0.17080245957323428 F1200
G1 X54.10983005625053 Y64.27945896131294 Z0.36 E0.17080245957323423 F1200
G1 X54.10983005625053 Y55.72054103868707 Z0.36 E0.17080245957323428 F1200
G1 X62.24984471899924 Y53.075689947135345 Z0.36 E0.17080245957323428 F1200
G1 X67.28065044950046 Y60.0 Z0.36 E0.17080245957323428 F1200
G1 X66.78622325850054 Y60.0 Z0.36 E0.009866829085885388 F1200
G1 X62.0970583144992 Y66.45408185103068 Z0.36 E0.15920330632608656 F1200
G1 X54.50983005625053 Y63.988841950110796 Z0.36 E0.15920330632608654 F1200
G1 X54.50983005625053 Y56.01115804988921 Z0.36 E0.15920330632608656 F1200
G1 X62.0970583144992 Y53.54591814896933 Z0.36 E0.15920330632608654 F1200
G1 X66.78622325850054 Y60.0 Z0.36 E0.1592033063260865 F1200
G1 X66.29179606750063 Y60.0 Z0.36 E0.009866829085885388 F1200
G1 X61.94427190999916 Y65.98385364919669 Z0.36 E0.14760415307893868 F1200
G1 X54.90983005625053 Y63.69822493890865 Z0.36 E0.1476041530789388 F1200
G1 X54.90983005625053 Y56.301775061091355 Z0.36 E0.14760415307893884 F1200
G1 X61.94427190999916 Y54.016146350803304 Z0.36 E0.14760415307893884 F1200
G1 X66.29179606750063 Y60.0 Z0.36 E0.14760415307893882 F1200
G1 X65.79736887650071 Y60.0 Z0.36 E0.009866829085885388 F1200
G1 X61.79148550549912 Y65.51362544736271 Z0.36 E0.13600499983179098 F1200
G1 X55.309830056250526 Y63.4076079277065 Z0.36 E0.13600499983179112 F1200
G1 X55.309830056250526 Y56.5923920722935 Z0.36 E0.13600499983179096 F1200
G1 X61.79148550549912 Y54.48637455263729 Z0.36 E0.13600499983179112 F1200
G1 X65.79736887650071 Y60.0 Z0.36 E0.13600499983179098 F1200
G1 X65.3029416855008 Y60.0 Z0.36 E0.009866829085885388 F1200
G1 X61.63869910099908 Y65.04339724552874 Z0.36 E0.12440584658464332 F1200
G1 X55.70983005625053 Y63.116990916504356 Z0.36 E0.12440584658464332 F1200
G1 X55.709830056250524 Y56.883009083495644 Z0.36 E0.12440584658464322 F1200
G1 X61.63869910099907 Y54.95660275447126 Z0.36 E0.12440584658464332 F1200
G1 X65.3029416855008 Y60.0 Z0.36 E0.1244058465846434 F1200
G1 X64.80851449450088 Y60.0 Z0.36 E0.009866829085885388 F1200
G1 X61.48591269649903 Y64.57316904369476 Z0.36 E0.11280669333749568 F1200
G1 X56.10983005625053 Y62.82637390530221 Z0.36 E0.1128066933374955 F1200
G1 X56.10983005625053 Y57.17362609469779 Z0.36 E0.1128066933374955 F1200
G1 X61.48591269649903 Y55.42683095630524 Z0.36 E0.1128066933374955 F1200
G1 X64.80851449450088 Y60.0 Z0.36 E0.11280669333749568 F1200
G1 X64.31408730350097 Y60.0 Z0.36 E0.009866829085885388 F1200
G1 X61.33312629199899 Y64.10294084186079 Z0.36 E0.10120754009034799 F1200
G1 X56.50983005625053 Y62.53575689410007 Z0.36 E0.1012075400903478 F1200
G1 X56.50983005625053 Y57.46424310589993 Z0.36 E0.10120754009034776 F1200
G1 X61.33312629199899 Y55.89705915813922 Z0.36 E0.10120754009034776 F1200
G1 X64.31408730350097 Y60.0 Z0.36 E0.1012075400903479 F1200
G1 X63.81966011250105 Y60.0 Z0.36 E0.009866829085885527 F1200
G1 X61.180339887498945 Y63.6327126400268 Z0.36 E0.08960838684320012 F1200
G1 X56.90983005625053 Y62.245139882897924 Z0.36 E0.08960838684320008 F1200
G1 X56.90983005625053 Y57.754860117102076 Z0.36 E0.08960838684320002 F1200
G1 X61.180339887498945 Y56.3672873599732 Z0.36 E0.08960838684320008 F1200
G1 X63.81966011250105 Y60.0 Z0.36 E0.08960838684320012 F1200
G1 X63.32523292150113 Y60.0 Z0.36 E0.009866829085885388 F1200
G1 X61.027553482998904 Y63.16248443819282 Z0.36 E0.07800923359605232 F1200
G1 X57.309830056250526 Y61.95452287169578 Z0.36 E0.07800923359605234 F1200
G1 X57.309830056250526 Y58.04547712830422 Z0.36 E0.0780092335960523 F1200
G1 X61.027553482998904 Y56.83751556180718 Z0.36 E0.07800923359605234 F1200
G1 X63.32523292150113 Y60.0 Z0.36 E0.07800923359605232 F1200
G1 X62.83080573050122 Y60.0 Z0.36 E0.009866829085885388 F1200
G1 X60.87476707849886 Y62.692256236358844 Z0.36 E0.06641008034890462 F1200
G1 X57.70983005625053 Y61.663905860493635 Z0.36 E0.06641008034890453 F1200
G1 X57.70983005625053 Y58.336094139506365 Z0.36 E0.06641008034890455 F1200
G1 X60.87476707849886 Y57.307743763641156 Z0.36 E0.06641008034890453 F1200
G1 X62.83080573050122 Y60.0 Z0.36 E0.06641008034890462 F1200
G1 X62.3363785395013 Y60.0 Z0.36 E0.009866829085885527 F1200
G1 X60.72198067399882 Y62.22202803452487 Z0.36 E0.05481092710175685 F1200
G1 X58.10983005625053 Y61.37328884929149 Z0.36 E0.05481092710175685 F1200
G1 X58.10983005625053 Y58.62671115070851 Z0.36 E0.05481092710175682 F1200
G1 X60.72198067399882 Y57.77797196547513 Z0.36 E0.05481092710175685 F1200
G1 X62.3363785395013 Y60.0 Z0.36 E0.05481092710175685 F1200
G1 X61.84195134850138 Y60.0 Z0.36 E0.009866829085885388 F1200
G1 X60.56919426949878 Y61.751799832690885 Z0.36 E0.043211773854609045 F1200
G1 X58.50983005625053 Y61.08267183808935 Z0.36 E0.04321177385460912 F1200
G1 X58.50983005625053 Y58.91732816191065 Z0.36 E0.04321177385460909 F1200
G1 X60.56919426949878 Y58.248200167309115 Z0.36 E0.04321177385460912 F1200
G1 X61.84195134850138 Y60.0 Z0.36 E0.043211773854609045 F1200
G1 X61.34752415750147 Y60.0 Z0.36 E0.009866829085885388 F1200
G1 X60.41640786499874 Y61.28157163085691 Z0.36 E0.03161262060746135 F1200
G1 X58.90983005625053 Y60.7920548268872 Z0.36 E0.031612620607461436 F1200
G1 X58.90983005625053 Y59.2079451731128 Z0.36 E0.03161262060746135 F1200
G1 X60.41640786499874 Y58.71842836914309 Z0.36 E0.031612620607461436 F1200
G1 X61.34752415750147 Y60.0 Z0.36 E0.03161262060746135 F1200
G1 X60.85309696650155 Y60.0 Z0.36 E0.009866829085885388 F1200
G1 X60.2636214604987 Y60.81134342902293 Z0.36 E0.020013467360313668 F1200
G1 X59.309830056250526 Y60.50143781568506 Z0.36 E0.020013467360313758 F1200
G1 X59.309830056250526 Y59.49856218431494 Z0.36 E0.02001346736031362 F1200
G1 X60.2636214604987 Y59.18865657097707 Z0.36 E0.020013467360313758 F1200
G1 X60.85309696650155 Y60.0 Z0.36 E0.020013467360313668 F1200
G1 X60.35866977550164 Y60.0 Z0.36 E0.009866829085885388 F1200
G1 X60.110835055998656 Y60.34111522718895 Z0.36 E0.008414314113165865 F1200
G1 X59.70983005625053 Y60.210820804482914 Z0.36 E0.008414314113165896 F1200
G1 X59.70983005625053 Y59.789179195517086 Z0.36 E0.008414314113165886 F1200
G1 X60.110835055998656 Y59.65888477281105 Z0.36 E0.008414314113165896 F1200
G1 X60.35866977550164 Y60.0 Z0.36 E0.008414314113165865 F1200
G1 E-8
G0 X69.75278640450004 Y60.0 Z0.36 F1200
G0 X69.75278640450004 Y60.0 Z0.48 F1200
G1 E8
