;FLAVOR:Marlin 
;Layer height: 0.12 
;Generated with Cura_SteamEngine 4.9.0 
M140 S65
M105 
M190 S65
M104 S205
M105 
M109 S205
M82 ;absolute extrusion mode 
; Ender 3 Custom Start G-code 
G92 E0 ; Reset Extruder 
G1 X0 Y0 Z10 F3000
G1 Z2.0 F3000 ; Move Z Axis up little to prevent scratching of Heat Bed 
G1 X0.1 Y20 Z0.3 F5000.0 ; Move to start position 
G1 X0.1 Y200.0 Z0.3 F1500.0 E15 ; Draw the first line 
G1 X0.4 Y200.0 Z0.3 F5000.0 ; Move to side a little 
G1 X0.4 Y20 Z0.3 F1500.0 E30 ; Draw the second line 
G92 E0 ; Reset Extruder 
G1 Z2.0 F3000 ; Move Z Axis up little to prevent scratching of Heat Bed 
G1 X5 Y20 Z0.3 F5000.0 ; Move over to prevent blob squish 
G92 E0 
G92 E0 
G1 F3000 E-8 
G0 X125.75 Y117.75 Z0.24 F2400
G1 E0.0
G1 X94.25 Y117.75 Z0.24 E1.571541 F1200
G1 X94.25 Y102.25 Z0.24 E2.344839 F1200
G1 X125.75 Y102.25 Z0.24 E3.91638 F1200
G1 X125.75 Y117.75 Z0.24 E4.689678 F1200
G0 X125.25 Y117.25 Z0.24 F2400
G1 X94.75 Y117.25 Z0.24 E6.211329 F1200
G1 X94.75 Y102.75 Z0.24 E6.934737 F1200
G1 X125.25 Y102.75 Z0.24 E8.456388 F1200
G1 X125.25 Y117.25 Z0.24 E9.179796 F1200
G0 X124.75 Y116.75 Z0.24 F2400
G1 X95.25 Y116.75 Z0.24 E10.651557 F1200
G1 X95.25 Y103.25 Z0.24 E11.325075 F1200
G1 X124.75 Y103.25 Z0.24 E12.796836 F1200
G1 X124.75 Y116.75 Z0.24 E13.470354 F1200
G0 X124.25 Y116.25 Z0.24 F2400
G1 X95.75 Y116.25 Z0.24 E14.892225 F1200
G1 X95.75 Y103.75 Z0.24 E15.515853 F1200
G1 X124.25 Y103.75 Z0.24 E16.937724 F1200
G1 X124.25 Y116.25 Z0.24 E17.561352 F1200
G0 X123.75 Y115.75 Z0.24 F2400
G1 X96.25 Y115.75 Z0.24 E18.933333 F1200
G1 X96.25 Y104.25 Z0.24 E19.50707 F1200
G1 X123.75 Y104.25 Z0.24 E20.879051 F1200
G1 X123.75 Y115.75 Z0.24 E21.452788 F1200
G0 X123.25 Y115.25 Z0.24 F2400
G1 X96.75 Y115.25 Z0.24 E22.774878 F1200
G1 X96.75 Y104.75 Z0.24 E23.298725 F1200
G1 X123.25 Y104.75 Z0.24 E24.620815 F1200
G1 X123.25 Y115.25 Z0.24 E25.144662 F1200
G0 X122.75 Y114.75 Z0.24 F2400
G1 X97.25 Y114.75 Z0.24 E26.416862 F1200
G1 X97.25 Y105.25 Z0.24 E26.890819 F1200
G1 X122.75 Y105.25 Z0.24 E28.163019 F1200
G1 X122.75 Y114.75 Z0.24 E28.636976 F1200
G0 X122.25 Y114.25 Z0.24 F2400
G1 X97.75 Y114.25 Z0.24 E29.859286 F1200
G1 X97.75 Y105.75 Z0.24 E30.283353 F1200
G1 X122.25 Y105.75 Z0.24 E31.505663 F1200
G1 X122.25 Y114.25 Z0.24 E31.92973 F1200
G0 X121.75 Y113.75 Z0.24 F2400
G1 X98.25 Y113.75 Z0.24 E33.10215 F1200
G1 X98.25 Y106.25 Z0.24 E33.476327 F1200
G1 X121.75 Y106.25 Z0.24 E34.648747 F1200
G1 X121.75 Y113.75 Z0.24 E35.022924 F1200
G0 X121.25 Y113.25 Z0.24 F2400
G1 X98.75 Y113.25 Z0.24 E36.145454 F1200
G1 X98.75 Y106.75 Z0.24 E36.46974 F1200
G1 X121.25 Y106.75 Z0.24 E37.59227 F1200
G1 X121.25 Y113.25 Z0.24 E37.916556 F1200
G0 X120.75 Y112.75 Z0.24 F2400
G1 X99.25 Y112.75 Z0.24 E38.989195 F1200
G1 X99.25 Y107.25 Z0.24 E39.263591 F1200
G1 X120.75 Y107.25 Z0.24 E40.33623 F1200
G1 X120.75 Y112.75 Z0.24 E40.610626 F1200
G0 X120.25 Y112.25 Z0.24 F2400
G1 X99.75 Y112.25 Z0.24 E41.633375 F1200
G1 X99.75 Y107.75 Z0.24 E41.857881 F1200
G1 X120.25 Y107.75 Z0.24 E42.88063 F1200
G1 X120.25 Y112.25 Z0.24 E43.105136 F1200
G0 X119.75 Y111.75 Z0.24 F2400
G1 X100.25 Y111.75 Z0.24 E44.077995 F1200
G1 X100.25 Y108.25 Z0.24 E44.252611 F1200
G1 X119.75 Y108.25 Z0.24 E45.22547 F1200
G1 X119.75 Y111.75 Z0.24 E45.400086 F1200
G0 X119.25 Y111.25 Z0.24 F2400
G1 X100.75 Y111.25 Z0.24 E46.323055 F1200
G1 X100.75 Y108.75 Z0.24 E46.447781 F1200
G1 X119.25 Y108.75 Z0.24 E47.37075 F1200
G1 X119.25 Y111.25 Z0.24 E47.495476 F1200
G0 X118.75 Y110.75 Z0.24 F2400
G1 X101.25 Y110.75 Z0.24 E48.368555 F1200
G1 X101.25 Y109.25 Z0.24 E48.44339 F1200
G1 X118.75 Y109.25 Z0.24 E49.316469 F1200
G1 X118.75 Y110.75 Z0.24 E49.391304 F1200
G0 X118.25 Y110.25 Z0.24 F2400
G1 X101.75 Y110.25 Z0.24 E50.214492 F1200
G1 X101.75 Y109.75 Z0.24 E50.239437 F1200
G1 X118.25 Y109.75 Z0.24 E51.062625 F1200
G1 X118.25 Y110.25 Z0.24 E51.08757 F1200
G1 E43.08757
M104 S200
M140 S60
G0 X125.8 Y117.8 Z0.24 F4800
G0 X125.8 Y117.8 Z0.36 F4800
G1 E51.08757
G1 X94.2 Y117.8 Z0.36 E51.718182 F2400
G1 X94.2 Y102.2 Z0.36 E52.029497 F2400
G1 X125.8 Y102.2 Z0.36 E52.660109 F2400
G1 X125.8 Y117.8 Z0.36 E52.971424 F2400
G0 X125.4 Y117.4 Z0.36 F4800
G1 X94.6 Y117.4 Z0.36 E53.586071 F2400
G1 X94.6 Y102.6 Z0.36 E53.881421 F2400
G1 X125.4 Y102.6 Z0.36 E54.496068 F2400
G1 X125.4 Y117.4 Z0.36 E54.791418 F2400
G0 X125.0 Y117.0 Z0.36 F4800
G1 X95.0 Y117.0 Z0.36 E55.3901 F2400
G1 X95.0 Y103.0 Z0.36 E55.669485 F2400
G1 X125.0 Y103.0 Z0.36 E56.268167 F2400
G1 X125.0 Y117.0 Z0.36 E56.547552 F2400
G0 X124.6 Y116.6 Z0.36 F4800
G1 X95.4 Y116.6 Z0.36 E57.13027 F2400
G1 X95.4 Y103.4 Z0.36 E57.39369 F2400
G1 X124.6 Y103.4 Z0.36 E57.976408 F2400
G1 X124.6 Y116.6 Z0.36 E58.239828 F2400
G0 X124.2 Y116.2 Z0.36 F4800
G1 X95.8 Y116.2 Z0.36 E58.806581 F2400
G1 X95.8 Y103.8 Z0.36 E59.054036 F2400
G1 X124.2 Y103.8 Z0.36 E59.620789 F2400
G1 X124.2 Y116.2 Z0.36 E59.868244 F2400
G0 X123.8 Y115.8 Z0.36 F4800
G1 X96.2 Y115.8 Z0.36 E60.419032 F2400
G1 X96.2 Y104.2 Z0.36 E60.650523 F2400
G1 X123.8 Y104.2 Z0.36 E61.201311 F2400
G1 X123.8 Y115.8 Z0.36 E61.432802 F2400
G0 X123.4 Y115.4 Z0.36 F4800
G1 X96.6 Y115.4 Z0.36 E61.967625 F2400
G1 X96.6 Y104.6 Z0.36 E62.183151 F2400
G1 X123.4 Y104.6 Z0.36 E62.717974 F2400
G1 X123.4 Y115.4 Z0.36 E62.9335 F2400
G0 X123.0 Y115.0 Z0.36 F4800
G1 X97.0 Y115.0 Z0.36 E63.452358 F2400
G1 X97.0 Y105.0 Z0.36 E63.651919 F2400
G1 X123.0 Y105.0 Z0.36 E64.170777 F2400
G1 X123.0 Y115.0 Z0.36 E64.370338 F2400
G0 X122.6 Y114.6 Z0.36 F4800
G1 X97.4 Y114.6 Z0.36 E64.873231 F2400
G1 X97.4 Y105.4 Z0.36 E65.056827 F2400
G1 X122.6 Y105.4 Z0.36 E65.55972 F2400
G1 X122.6 Y114.6 Z0.36 E65.743316 F2400
G0 X122.2 Y114.2 Z0.36 F4800
G1 X97.8 Y114.2 Z0.36 E66.230244 F2400
G1 X97.8 Y105.8 Z0.36 E66.397875 F2400
G1 X122.2 Y105.8 Z0.36 E66.884803 F2400
G1 X122.2 Y114.2 Z0.36 E67.052434 F2400
G0 X121.8 Y113.8 Z0.36 F4800
G1 X98.2 Y113.8 Z0.36 E67.523398 F2400
G1 X98.2 Y106.2 Z0.36 E67.675064 F2400
G1 X121.8 Y106.2 Z0.36 E68.146028 F2400
G1 X121.8 Y113.8 Z0.36 E68.297694 F2400
G0 X121.4 Y113.4 Z0.36 F4800
G1 X98.6 Y113.4 Z0.36 E68.752693 F2400
G1 X98.6 Y106.6 Z0.36 E68.888394 F2400
G1 X121.4 Y106.6 Z0.36 E69.343393 F2400
G1 X121.4 Y113.4 Z0.36 E69.479094 F2400
G0 X121.0 Y113.0 Z0.36 F4800
G1 X99.0 Y113.0 Z0.36 E69.918128 F2400
G1 X99.0 Y107.0 Z0.36 E70.037864 F2400
G1 X121.0 Y107.0 Z0.36 E70.476898 F2400
G1 X121.0 Y113.0 Z0.36 E70.596634 F2400
G0 X120.6 Y112.6 Z0.36 F4800
G1 X99.4 Y112.6 Z0.36 E71.019703 F2400
G1 X99.4 Y107.4 Z0.36 E71.123475 F2400
G1 X120.6 Y107.4 Z0.36 E71.546544 F2400
G1 X120.6 Y112.6 Z0.36 E71.650316 F2400
G0 X120.2 Y112.2 Z0.36 F4800
G1 X99.8 Y112.2 Z0.36 E72.05742 F2400
G1 X99.8 Y107.8 Z0.36 E72.145227 F2400
G1 X120.2 Y107.8 Z0.36 E72.552331 F2400
G1 X120.2 Y112.2 Z0.36 E72.640138 F2400
G0 X119.8 Y111.8 Z0.36 F4800
G1 X100.2 Y111.8 Z0.36 E73.031277 F2400
G1 X100.2 Y108.2 Z0.36 E73.103119 F2400
G1 X119.8 Y108.2 Z0.36 E73.494258 F2400
G1 X119.8 Y111.8 Z0.36 E73.5661 F2400
G0 X119.4 Y111.4 Z0.36 F4800
G1 X100.6 Y111.4 Z0.36 E73.941274 F2400
G1 X100.6 Y108.6 Z0.36 E73.997151 F2400
G1 X119.4 Y108.6 Z0.36 E74.372325 F2400
G1 X119.4 Y111.4 Z0.36 E74.428202 F2400
G0 X119.0 Y111.0 Z0.36 F4800
G1 X101.0 Y111.0 Z0.36 E74.787411 F2400
G1 X101.0 Y109.0 Z0.36 E74.827323 F2400
G1 X119.0 Y109.0 Z0.36 E75.186532 F2400
G1 X119.0 Y111.0 Z0.36 E75.226444 F2400
G0 X118.6 Y110.6 Z0.36 F4800
G1 X101.4 Y110.6 Z0.36 E75.569689 F2400
G1 X101.4 Y109.4 Z0.36 E75.593636 F2400
G1 X118.6 Y109.4 Z0.36 E75.936881 F2400
G1 X118.6 Y110.6 Z0.36 E75.960828 F2400
G0 X118.2 Y110.2 Z0.36 F4800
G1 X101.8 Y110.2 Z0.36 E76.288108 F2400
G1 X101.8 Y109.8 Z0.36 E76.29609 F2400
G1 X118.2 Y109.8 Z0.36 E76.62337 F2400
G1 X118.2 Y110.2 Z0.36 E76.631352 F2400
G1 E68.631352
G0 X125.8 Y117.8 Z0.36 F4800
G0 X125.8 Y117.8 Z0.48 F4800
G1 E76.631352
G1 X94.2 Y117.8 Z0.48 E77.261964 F2400
G1 X94.2 Y102.2 Z0.48 E77.573279 F2400
G1 X125.8 Y102.2 Z0.48 E78.203891 F2400
G1 X125.8 Y117.8 Z0.48 E78.515206 F2400
G0 X125.4 Y117.4 Z0.48 F4800
G1 X94.6 Y117.4 Z0.48 E79.129853 F2400
G1 X94.6 Y102.6 Z0.48 E79.425203 F2400
G1 X125.4 Y102.6 Z0.48 E80.03985 F2400
G1 X125.4 Y117.4 Z0.48 E80.3352 F2400
G0 X125.0 Y117.0 Z0.48 F4800
G1 X95.0 Y117.0 Z0.48 E80.933882 F2400
G1 X95.0 Y103.0 Z0.48 E81.213267 F2400
G1 X125.0 Y103.0 Z0.48 E81.811949 F2400
G1 X125.0 Y117.0 Z0.48 E82.091334 F2400
G0 X124.6 Y116.6 Z0.48 F4800
G1 X95.4 Y116.6 Z0.48 E82.674052 F2400
G1 X95.4 Y103.4 Z0.48 E82.937472 F2400
G1 X124.6 Y103.4 Z0.48 E83.52019 F2400
G1 X124.6 Y116.6 Z0.48 E83.78361 F2400
G0 X124.2 Y116.2 Z0.48 F4800
G1 X95.8 Y116.2 Z0.48 E84.350363 F2400
G1 X95.8 Y103.8 Z0.48 E84.597818 F2400
G1 X124.2 Y103.8 Z0.48 E85.164571 F2400
G1 X124.2 Y116.2 Z0.48 E85.412026 F2400
G0 X123.8 Y115.8 Z0.48 F4800
G1 X96.2 Y115.8 Z0.48 E85.962814 F2400
G1 X96.2 Y104.2 Z0.48 E86.194305 F2400
G1 X123.8 Y104.2 Z0.48 E86.745093 F2400
G1 X123.8 Y115.8 Z0.48 E86.976584 F2400
G0 X123.4 Y115.4 Z0.48 F4800
G1 X96.6 Y115.4 Z0.48 E87.511407 F2400
G1 X96.6 Y104.6 Z0.48 E87.726933 F2400
G1 X123.4 Y104.6 Z0.48 E88.261756 F2400
G1 X123.4 Y115.4 Z0.48 E88.477282 F2400
G0 X123.0 Y115.0 Z0.48 F4800
G1 X97.0 Y115.0 Z0.48 E88.99614 F2400
G1 X97.0 Y105.0 Z0.48 E89.195701 F2400
G1 X123.0 Y105.0 Z0.48 E89.714559 F2400
G1 X123.0 Y115.0 Z0.48 E89.91412 F2400
G0 X122.6 Y114.6 Z0.48 F4800
G1 X97.4 Y114.6 Z0.48 E90.417013 F2400
G1 X97.4 Y105.4 Z0.48 E90.600609 F2400
G1 X122.6 Y105.4 Z0.48 E91.103502 F2400
G1 X122.6 Y114.6 Z0.48 E91.287098 F2400
G0 X122.2 Y114.2 Z0.48 F4800
G1 X97.8 Y114.2 Z0.48 E91.774026 F2400
G1 X97.8 Y105.8 Z0.48 E91.941657 F2400
G1 X122.2 Y105.8 Z0.48 E92.428585 F2400
G1 X122.2 Y114.2 Z0.48 E92.596216 F2400
G0 X121.8 Y113.8 Z0.48 F4800
G1 X98.2 Y113.8 Z0.48 E93.06718 F2400
G1 X98.2 Y106.2 Z0.48 E93.218846 F2400
G1 X121.8 Y106.2 Z0.48 E93.68981 F2400
G1 X121.8 Y113.8 Z0.48 E93.841476 F2400
G0 X121.4 Y113.4 Z0.48 F4800
G1 X98.6 Y113.4 Z0.48 E94.296475 F2400
G1 X98.6 Y106.6 Z0.48 E94.432176 F2400
G1 X121.4 Y106.6 Z0.48 E94.887175 F2400
G1 X121.4 Y113.4 Z0.48 E95.022876 F2400
G0 X121.0 Y113.0 Z0.48 F4800
G1 X99.0 Y113.0 Z0.48 E95.46191 F2400
G1 X99.0 Y107.0 Z0.48 E95.581646 F2400
G1 X121.0 Y107.0 Z0.48 E96.02068 F2400
G1 X121.0 Y113.0 Z0.48 E96.140416 F2400
G0 X120.6 Y112.6 Z0.48 F4800
G1 X99.4 Y112.6 Z0.48 E96.563485 F2400
G1 X99.4 Y107.4 Z0.48 E96.667257 F2400
G1 X120.6 Y107.4 Z0.48 E97.090326 F2400
G1 X120.6 Y112.6 Z0.48 E97.194098 F2400
G0 X120.2 Y112.2 Z0.48 F4800
G1 X99.8 Y112.2 Z0.48 E97.601202 F2400
G1 X99.8 Y107.8 Z0.48 E97.689009 F2400
G1 X120.2 Y107.8 Z0.48 E98.096113 F2400
G1 X120.2 Y112.2 Z0.48 E98.18392 F2400
G0 X119.8 Y111.8 Z0.48 F4800
G1 X100.2 Y111.8 Z0.48 E98.575059 F2400
G1 X100.2 Y108.2 Z0.48 E98.646901 F2400
G1 X119.8 Y108.2 Z0.48 E99.03804 F2400
G1 X119.8 Y111.8 Z0.48 E99.109882 F2400
G0 X119.4 Y111.4 Z0.48 F4800
G1 X100.6 Y111.4 Z0.48 E99.485056 F2400
G1 X100.6 Y108.6 Z0.48 E99.540933 F2400
G1 X119.4 Y108.6 Z0.48 E99.916107 F2400
G1 X119.4 Y111.4 Z0.48 E99.971984 F2400
G0 X119.0 Y111.0 Z0.48 F4800
G1 X101.0 Y111.0 Z0.48 E100.331193 F2400
G1 X101.0 Y109.0 Z0.48 E100.371105 F2400
G1 X119.0 Y109.0 Z0.48 E100.730314 F2400
G1 X119.0 Y111.0 Z0.48 E100.770226 F2400
G0 X118.6 Y110.6 Z0.48 F4800
G1 X101.4 Y110.6 Z0.48 E101.113471 F2400
G1 X101.4 Y109.4 Z0.48 E101.137418 F2400
G1 X118.6 Y109.4 Z0.48 E101.480663 F2400
G1 X118.6 Y110.6 Z0.48 E101.50461 F2400
G0 X118.2 Y110.2 Z0.48 F4800
G1 X101.8 Y110.2 Z0.48 E101.83189 F2400
G1 X101.8 Y109.8 Z0.48 E101.839872 F2400
G1 X118.2 Y109.8 Z0.48 E102.167152 F2400
G1 X118.2 Y110.2 Z0.48 E102.175134 F2400
G1 E94.175134
G0 X125.8 Y117.8 Z0.48 F4800
G0 X125.8 Y117.8 Z0.6 F4800
G1 E102.175134
G1 X94.2 Y117.8 Z0.6 E102.805746 F2400
G1 X94.2 Y102.2 Z0.6 E103.117061 F2400
G1 X125.8 Y102.2 Z0.6 E103.747673 F2400
G1 X125.8 Y117.8 Z0.6 E104.058988 F2400
G0 X125.4 Y117.4 Z0.6 F4800
G1 X94.6 Y117.4 Z0.6 E104.673635 F2400
G1 X94.6 Y102.6 Z0.6 E104.968985 F2400
G1 X125.4 Y102.6 Z0.6 E105.583632 F2400
G1 X125.4 Y117.4 Z0.6 E105.878982 F2400
G0 X125.0 Y117.0 Z0.6 F4800
G1 X95.0 Y117.0 Z0.6 E106.477664 F2400
G1 X95.0 Y103.0 Z0.6 E106.757049 F2400
G1 X125.0 Y103.0 Z0.6 E107.355731 F2400
G1 X125.0 Y117.0 Z0.6 E107.635116 F2400
G0 X124.6 Y116.6 Z0.6 F4800
G1 X95.4 Y116.6 Z0.6 E108.217834 F2400
G1 X95.4 Y103.4 Z0.6 E108.481254 F2400
G1 X124.6 Y103.4 Z0.6 E109.063972 F2400
G1 X124.6 Y116.6 Z0.6 E109.327392 F2400
G0 X124.2 Y116.2 Z0.6 F4800
G1 X95.8 Y116.2 Z0.6 E109.894145 F2400
G1 X95.8 Y103.8 Z0.6 E110.1416 F2400
G1 X124.2 Y103.8 Z0.6 E110.708353 F2400
G1 X124.2 Y116.2 Z0.6 E110.955808 F2400
G0 X123.8 Y115.8 Z0.6 F4800
G1 X96.2 Y115.8 Z0.6 E111.506596 F2400
G1 X96.2 Y104.2 Z0.6 E111.738087 F2400
G1 X123.8 Y104.2 Z0.6 E112.288875 F2400
G1 X123.8 Y115.8 Z0.6 E112.520366 F2400
G0 X123.4 Y115.4 Z0.6 F4800
G1 X96.6 Y115.4 Z0.6 E113.055189 F2400
G1 X96.6 Y104.6 Z0.6 E113.270715 F2400
G1 X123.4 Y104.6 Z0.6 E113.805538 F2400
G1 X123.4 Y115.4 Z0.6 E114.021064 F2400
G0 X123.0 Y115.0 Z0.6 F4800
G1 X97.0 Y115.0 Z0.6 E114.539922 F2400
G1 X97.0 Y105.0 Z0.6 E114.739483 F2400
G1 X123.0 Y105.0 Z0.6 E115.258341 F2400
G1 X123.0 Y115.0 Z0.6 E115.457902 F2400
G0 X122.6 Y114.6 Z0.6 F4800
G1 X97.4 Y114.6 Z0.6 E115.960795 F2400
G1 X97.4 Y105.4 Z0.6 E116.144391 F2400
G1 X122.6 Y105.4 Z0.6 E116.647284 F2400
G1 X122.6 Y114.6 Z0.6 E116.83088 F2400
G0 X122.2 Y114.2 Z0.6 F4800
G1 X97.8 Y114.2 Z0.6 E117.317808 F2400
G1 X97.8 Y105.8 Z0.6 E117.485439 F2400
G1 X122.2 Y105.8 Z0.6 E117.972367 F2400
G1 X122.2 Y114.2 Z0.6 E118.139998 F2400
G0 X121.8 Y113.8 Z0.6 F4800
G1 X98.2 Y113.8 Z0.6 E118.610962 F2400
G1 X98.2 Y106.2 Z0.6 E118.762628 F2400
G1 X121.8 Y106.2 Z0.6 E119.233592 F2400
G1 X121.8 Y113.8 Z0.6 E119.385258 F2400
G0 X121.4 Y113.4 Z0.6 F4800
G1 X98.6 Y113.4 Z0.6 E119.840257 F2400
G1 X98.6 Y106.6 Z0.6 E119.975958 F2400
G1 X121.4 Y106.6 Z0.6 E120.430957 F2400
G1 X121.4 Y113.4 Z0.6 E120.566658 F2400
G0 X121.0 Y113.0 Z0.6 F4800
G1 X99.0 Y113.0 Z0.6 E121.005692 F2400
G1 X99.0 Y107.0 Z0.6 E121.125428 F2400
G1 X121.0 Y107.0 Z0.6 E121.564462 F2400
G1 X121.0 Y113.0 Z0.6 E121.684198 F2400
G0 X120.6 Y112.6 Z0.6 F4800
G1 X99.4 Y112.6 Z0.6 E122.107267 F2400
G1 X99.4 Y107.4 Z0.6 E122.211039 F2400
G1 X120.6 Y107.4 Z0.6 E122.634108 F2400
G1 X120.6 Y112.6 Z0.6 E122.73788 F2400
G0 X120.2 Y112.2 Z0.6 F4800
G1 X99.8 Y112.2 Z0.6 E123.144984 F2400
G1 X99.8 Y107.8 Z0.6 E123.232791 F2400
G1 X120.2 Y107.8 Z0.6 E123.639895 F2400
G1 X120.2 Y112.2 Z0.6 E123.727702 F2400
G0 X119.8 Y111.8 Z0.6 F4800
G1 X100.2 Y111.8 Z0.6 E124.118841 F2400
G1 X100.2 Y108.2 Z0.6 E124.190683 F2400
G1 X119.8 Y108.2 Z0.6 E124.581822 F2400
G1 X119.8 Y111.8 Z0.6 E124.653664 F2400
G0 X119.4 Y111.4 Z0.6 F4800
G1 X100.6 Y111.4 Z0.6 E125.028838 F2400
G1 X100.6 Y108.6 Z0.6 E125.084715 F2400
G1 X119.4 Y108.6 Z0.6 E125.459889 F2400
G1 X119.4 Y111.4 Z0.6 E125.515766 F2400
G0 X119.0 Y111.0 Z0.6 F4800
G1 X101.0 Y111.0 Z0.6 E125.874975 F2400
G1 X101.0 Y109.0 Z0.6 E125.914887 F2400
G1 X119.0 Y109.0 Z0.6 E126.274096 F2400
G1 X119.0 Y111.0 Z0.6 E126.314008 F2400
G0 X118.6 Y110.6 Z0.6 F4800
G1 X101.4 Y110.6 Z0.6 E126.657253 F2400
G1 X101.4 Y109.4 Z0.6 E126.6812 F2400
G1 X118.6 Y109.4 Z0.6 E127.024445 F2400
G1 X118.6 Y110.6 Z0.6 E127.048392 F2400
G0 X118.2 Y110.2 Z0.6 F4800
G1 X101.8 Y110.2 Z0.6 E127.375672 F2400
G1 X101.8 Y109.8 Z0.6 E127.383654 F2400
G1 X118.2 Y109.8 Z0.6 E127.710934 F2400
G1 X118.2 Y110.2 Z0.6 E127.718916 F2400
G1 E119.718916
G0 X125.8 Y117.8 Z0.6 F4800
G0 X125.8 Y117.8 Z0.72 F4800
G1 E127.718916
G1 X94.2 Y117.8 Z0.72 E128.349528 F2400
G1 X94.2 Y102.2 Z0.72 E128.660843 F2400
G1 X125.8 Y102.2 Z0.72 E129.291455 F2400
G1 X125.8 Y117.8 Z0.72 E129.60277 F2400
G0 X125.4 Y117.4 Z0.72 F4800
G1 X94.6 Y117.4 Z0.72 E130.217417 F2400
G1 X94.6 Y102.6 Z0.72 E130.512767 F2400
G1 X125.4 Y102.6 Z0.72 E131.127414 F2400
G1 X125.4 Y117.4 Z0.72 E131.422764 F2400
G0 X125.0 Y117.0 Z0.72 F4800
G1 X95.0 Y117.0 Z0.72 E132.021446 F2400
G1 X95.0 Y103.0 Z0.72 E132.300831 F2400
G1 X125.0 Y103.0 Z0.72 E132.899513 F2400
G1 X125.0 Y117.0 Z0.72 E133.178898 F2400
G0 X124.6 Y116.6 Z0.72 F4800
G1 X95.4 Y116.6 Z0.72 E133.761616 F2400
G1 X95.4 Y103.4 Z0.72 E134.025036 F2400
