;FLAVOR:Marlin 
;Layer height: 0.12 
;Generated with Cura_SteamEngine 4.9.0 
M140 S70
M105 
M190 S70
M104 S210
M105 
M109 S210
M83 ;relative extrusion mode 
; Ender 3 Custom Start G-code 
G92 E0 ; Reset Extruder 
G1 X0 Y0 Z10 F3000
G1 Z2.0 F3000 ; Move Z Axis up little to prevent scratching of Heat Bed 
G1 X0.1 Y20 Z0.3 F5000.0 ; Move to start position 
G1 X0.1 Y200.0 Z0.3 F1500.0 E15 ; Draw the first line 
G1 X0.4 Y200.0 Z0.3 F5000.0 ; Move to side a little 
G1 X0.4 Y20 Z0.3 F1500.0 E15 ; Draw the second line 
G92 E0 ; Reset Extruder 
G1 Z2.0 F3000 ; Move Z Axis up little to prevent scratching of Heat Bed 
G1 X5 Y20 Z0.3 F5000.0 ; Move over to prevent blob squish 
G92 E0 
G92 E0 
G1 F3000 E-8 
M104 S210
G0 X54.75 Y54.75 Z0.24 F1200
G1 E8
G1 X45.25 Y54.75 Z0.24 E0.4739569244075381 F1200
G1 X45.25 Y45.25 Z0.24 E0.4739569244075381 F1200
G1 X54.75 Y45.25 Z0.24 E0.4739569244075381 F1200
G1 X54.75 Y54.75 Z0.24 E0.4739569244075381 F1200
G1 X54.25 Y54.25 Z0.24 E0.03527770055146212 F1200
G1 X45.75 Y54.25 Z0.24 E0.4240667218383236 F1200
G1 X45.75 Y45.75 Z0.24 E0.4240667218383236 F1200
G1 X54.25 Y45.75 Z0.24 E0.4240667218383236 F1200
G1 X54.25 Y54.25 Z0.24 E0.4240667218383236 F1200
G1 X53.75 Y53.75 Z0.24 E0.03527770055146212 F1200
G1 X46.25 Y53.75 Z0.24 E0.37417651926910905 F1200
G1 X46.25 Y46.25 Z0.24 E0.37417651926910905 F1200
G1 X53.75 Y46.25 Z0.24 E0.37417651926910905 F1200
G1 X53.75 Y53.75 Z0.24 E0.37417651926910905 F1200
G1 X53.25 Y53.25 Z0.24 E0.03527770055146212 F1200
G1 X46.75 Y53.25 Z0.24 E0.32428631669989455 F1200
G1 X46.75 Y46.75 Z0.24 E0.32428631669989455 F1200
G1 X53.25 Y46.75 Z0.24 E0.32428631669989455 F1200
G1 X53.25 Y53.25 Z0.24 E0.32428631669989455 F1200
G1 X52.75 Y52.75 Z0.24 E0.03527770055146212 F1200
G1 X47.25 Y52.75 Z0.24 E0.27439611413067994 F1200
G1 X47.25 Y47.25 Z0.24 E0.27439611413067994 F1200
G1 X52.75 Y47.25 Z0.24 E0.27439611413067994 F1200
G1 X52.75 Y52.75 Z0.24 E0.27439611413067994 F1200
G1 X52.25 Y52.25 Z0.24 E0.03527770055146212 F1200
G1 X47.75 Y52.25 Z0.24 E0.22450591156146546 F1200
G1 X47.75 Y47.75 Z0.24 E0.22450591156146546 F1200
G1 X52.25 Y47.75 Z0.24 E0.22450591156146546 F1200
G1 X52.25 Y52.25 Z0.24 E0.22450591156146546 F1200
G1 X51.75 Y51.75 Z0.24 E0.03527770055146212 F1200
G1 X48.25 Y51.75 Z0.24 E0.1746157089922509 F1200
G1 X48.25 Y48.25 Z0.24 E0.1746157089922509 F1200
G1 X51.75 Y48.25 Z0.24 E0.1746157089922509 F1200
G1 X51.75 Y51.75 Z0.24 E0.1746157089922509 F1200
G1 X51.25 Y51.25 Z0.24 E0.03527770055146212 F1200
G1 X48.75 Y51.25 Z0.24 E0.12472550642303636 F1200
G1 X48.75 Y48.75 Z0.24 E0.12472550642303636 F1200
G1 X51.25 Y48.75 Z0.24 E0.12472550642303636 F1200
G1 X51.25 Y51.25 Z0.24 E0.12472550642303636 F1200
G1 X50.75 Y50.75 Z0.24 E0.03527770055146212 F1200
G1 X49.25 Y50.75 Z0.24 E0.07483530385382181 F1200
G1 X49.25 Y49.25 Z0.24 E0.07483530385382181 F1200
G1 X50.75 Y49.25 Z0.24 E0.07483530385382181 F1200
G1 X50.75 Y50.75 Z0.24 E0.07483530385382181 F1200
G1 X50.25 Y50.25 Z0.24 E0.03527770055146212 F1200
G1 X49.75 Y50.25 Z0.24 E0.02494510128460727 F1200
G1 X49.75 Y49.75 Z0.24 E0.02494510128460727 F1200
G1 X50.25 Y49.75 Z0.24 E0.02494510128460727 F1200
G1 X50.25 Y50.25 Z0.24 E0.02494510128460727 F1200
G1 E-8
M104 S205
M140 S65
G0 X54.8 Y54.8 Z0.24 F1200
G0 X54.8 Y54.8 Z0.36 F1200
G1 E8
G1 X45.2 Y54.8 Z0.36 E0.19157837786578374 F1200
G1 X45.2 Y45.2 Z0.36 E0.19157837786578374 F1200
G1 X54.8 Y45.2 Z0.36 E0.19157837786578374 F1200
G1 X54.8 Y54.8 Z0.36 E0.19157837786578374 F1200
G1 X54.4 Y54.4 Z0.36 E0.011288864176467838 F1200
G1 X45.6 Y54.4 Z0.36 E0.17561351304363515 F1200
G1 X45.6 Y45.6 Z0.36 E0.17561351304363515 F1200
G1 X54.4 Y45.6 Z0.36 E0.17561351304363515 F1200
G1 X54.4 Y54.4 Z0.36 E0.17561351304363515 F1200
G1 X54.0 Y54.0 Z0.36 E0.011288864176467838 F1200
G1 X46.0 Y54.0 Z0.36 E0.15964864822148656 F1200
G1 X46.0 Y46.0 Z0.36 E0.15964864822148656 F1200
G1 X54.0 Y46.0 Z0.36 E0.15964864822148656 F1200
G1 X54.0 Y54.0 Z0.36 E0.15964864822148656 F1200
G1 X53.6 Y53.6 Z0.36 E0.011288864176467838 F1200
G1 X46.4 Y53.6 Z0.36 E0.14368378339933793 F1200
G1 X46.4 Y46.4 Z0.36 E0.14368378339933793 F1200
G1 X53.6 Y46.4 Z0.36 E0.14368378339933793 F1200
G1 X53.6 Y53.6 Z0.36 E0.14368378339933793 F1200
G1 X53.2 Y53.2 Z0.36 E0.011288864176467838 F1200
G1 X46.8 Y53.2 Z0.36 E0.12771891857718934 F1200
G1 X46.8 Y46.8 Z0.36 E0.12771891857718934 F1200
G1 X53.2 Y46.8 Z0.36 E0.12771891857718934 F1200
G1 X53.2 Y53.2 Z0.36 E0.12771891857718934 F1200
G1 X52.8 Y52.8 Z0.36 E0.011288864176468039 F1200
G1 X47.2 Y52.8 Z0.36 E0.11175405375504048 F1200
G1 X47.2 Y47.2 Z0.36 E0.11175405375504048 F1200
G1 X52.8 Y47.2 Z0.36 E0.11175405375504048 F1200
G1 X52.8 Y52.8 Z0.36 E0.11175405375504048 F1200
G1 X52.4 Y52.4 Z0.36 E0.011288864176467838 F1200
G1 X47.6 Y52.4 Z0.36 E0.09578918893289187 F1200
G1 X47.6 Y47.6 Z0.36 E0.09578918893289187 F1200
G1 X52.4 Y47.6 Z0.36 E0.09578918893289187 F1200
G1 X52.4 Y52.4 Z0.36 E0.09578918893289187 F1200
G1 X52.0 Y52.0 Z0.36 E0.011288864176467838 F1200
G1 X48.0 Y52.0 Z0.36 E0.07982432411074328 F1200
G1 X48.0 Y48.0 Z0.36 E0.07982432411074328 F1200
G1 X52.0 Y48.0 Z0.36 E0.07982432411074328 F1200
G1 X52.0 Y52.0 Z0.36 E0.07982432411074328 F1200
G1 X51.6 Y51.6 Z0.36 E0.011288864176467838 F1200
G1 X48.4 Y51.6 Z0.36 E0.06385945928859467 F1200
G1 X48.4 Y48.4 Z0.36 E0.06385945928859467 F1200
G1 X51.6 Y48.4 Z0.36 E0.06385945928859467 F1200
G1 X51.6 Y51.6 Z0.36 E0.06385945928859467 F1200
G1 X51.2 Y51.2 Z0.36 E0.011288864176467838 F1200
G1 X48.8 Y51.2 Z0.36 E0.047894594466446075 F1200
G1 X48.8 Y48.8 Z0.36 E0.047894594466446075 F1200
G1 X51.2 Y48.8 Z0.36 E0.047894594466446075 F1200
G1 X51.2 Y51.2 Z0.36 E0.047894594466446075 F1200
G1 X50.8 Y50.8 Z0.36 E0.011288864176468039 F1200
G1 X49.2 Y50.8 Z0.36 E0.031929729644297196 F1200
G1 X49.2 Y49.2 Z0.36 E0.031929729644297196 F1200
G1 X50.8 Y49.2 Z0.36 E0.031929729644297196 F1200
G1 X50.8 Y50.8 Z0.36 E0.031929729644297196 F1200
G1 X50.4 Y50.4 Z0.36 E0.011288864176467838 F1200
G1 X49.6 Y50.4 Z0.36 E0.015964864822148598 F1200
G1 X49.6 Y49.6 Z0.36 E0.015964864822148598 F1200
G1 X50.4 Y49.6 Z0.36 E0.015964864822148598 F1200
G1 X50.4 Y50.4 Z0.36 E0.015964864822148598 F1200
G1 E-8
G0 X54.8 Y54.8 Z0.36 F1200
G0 X54.8 Y54.8 Z0.48 F1200
G1 E8
G1 X45.2 Y54.8 Z0.48 E0.19157837786578374 F1200
G1 X45.2 Y45.2 Z0.48 E0.19157837786578374 F1200
G1 X54.8 Y45.2 Z0.48 E0.19157837786578374 F1200
G1 X54.8 Y54.8 Z0.48 E0.19157837786578374 F1200
G1 X54.4 Y54.4 Z0.48 E0.011288864176467838 F1200
G1 X45.6 Y54.4 Z0.48 E0.17561351304363515 F1200
G1 X45.6 Y45.6 Z0.48 E0.17561351304363515 F1200
G1 X54.4 Y45.6 Z0.48 E0.17561351304363515 F1200
G1 X54.4 Y54.4 Z0.48 E0.17561351304363515 F1200
G1 X54.0 Y54.0 Z0.48 E0.011288864176467838 F1200
G1 X46.0 Y54.0 Z0.48 E0.15964864822148656 F1200
G1 X46.0 Y46.0 Z0.48 E0.15964864822148656 F1200
G1 X54.0 Y46.0 Z0.48 E0.15964864822148656 F1200
G1 X54.0 Y54.0 Z0.48 E0.15964864822148656 F1200
G1 X53.6 Y53.6 Z0.48 E0.011288864176467838 F1200
G1 X46.4 Y53.6 Z0.48 E0.14368378339933793 F1200
G1 X46.4 Y46.4 Z0.48 E0.14368378339933793 F1200
G1 X53.6 Y46.4 Z0.48 E0.14368378339933793 F1200
G1 X53.6 Y53.6 Z0.48 E0.14368378339933793 F1200
G1 X53.2 Y53.2 Z0.48 E0.011288864176467838 F1200
G1 X46.8 Y53.2 Z0.48 E0.12771891857718934 F1200
G1 X46.8 Y46.8 Z0.48 E0.12771891857718934 F1200
G1 X53.2 Y46.8 Z0.48 E0.12771891857718934 F1200
G1 X53.2 Y53.2 Z0.48 E0.12771891857718934 F1200
G1 X52.8 Y52.8 Z0.48 E0.011288864176468039 F1200
G1 X47.2 Y52.8 Z0.48 E0.11175405375504048 F1200
G1 X47.2 Y47.2 Z0.48 E0.11175405375504048 F1200
G1 X52.8 Y47.2 Z0.48 E0.11175405375504048 F1200
G1 X52.8 Y52.8 Z0.48 E0.11175405375504048 F1200
G1 X52.4 Y52.4 Z0.48 E0.011288864176467838 F1200
G1 X47.6 Y52.4 Z0.48 E0.09578918893289187 F1200
G1 X47.6 Y47.6 Z0.48 E0.09578918893289187 F1200
G1 X52.4 Y47.6 Z0.48 E0.09578918893289187 F1200
G1 X52.4 Y52.4 Z0.48 E0.09578918893289187 F1200
G1 X52.0 Y52.0 Z0.48 E0.011288864176467838 F1200
G1 X48.0 Y52.0 Z0.48 E0.07982432411074328 F1200
G1 X48.0 Y48.0 Z0.48 E0.07982432411074328 F1200
G1 X52.0 Y48.0 Z0.48 E0.07982432411074328 F1200
G1 X52.0 Y52.0 Z0.48 E0.07982432411074328 F1200
G1 X51.6 Y51.6 Z0.48 E0.011288864176467838 F1200
G1 X48.4 Y51.6 Z0.48 E0.06385945928859467 F1200
G1 X48.4 Y48.4 Z0.48 E0.06385945928859467 F1200
G1 X51.6 Y48.4 Z0.48 E0.06385945928859467 F1200
G1 X51.6 Y51.6 Z0.48 E0.06385945928859467 F1200
G1 X51.2 Y51.2 Z0.48 E0.011288864176467838 F1200
G1 X48.8 Y51.2 Z0.48 E0.047894594466446075 F1200
G1 X48.8 Y48.8 Z0.48 E0.047894594466446075 F1200
G1 X51.2 Y48.8 Z0.48 E0.047894594466446075 F1200
G1 X51.2 Y51.2 Z0.48 E0.047894594466446075 F1200
G1 X50.8 Y50.8 Z0.48 E0.011288864176468039 F1200
G1 X49.2 Y50.8 Z0.48 E0.031929729644297196 F1200
G1 X49.2 Y49.2 Z0.48 E0.031929729644297196 F1200
G1 X50.8 Y49.2 Z0.48 E0.031929729644297196 F1200
G1 X50.8 Y50.8 Z0.48 E0.031929729644297196 F1200
G1 X50.4 Y50.4 Z0.48 E0.011288864176467838 F1200
G1 X49.6 Y50.4 Z0.48 E0.015964864822148598 F1200
G1 X49.6 Y49.6 Z0.48 E0.015964864822148598 F1200
G1 X50.4 Y49.6 Z0.48 E0.015964864822148598 F1200
G1 X50.4 Y50.4 Z0.48 E0.015964864822148598 F1200
G1 E-8
G0 X54.8 Y54.8 Z0.48 F1200
G0 X54.8 Y54.8 Z0.6 F1200
G1 E8
G1 X45.2 Y54.8 Z0.6 E0.19157837786578374 F1200
G1 X45.2 Y45.2 Z0.6 E0.19157837786578374 F1200
G1 X54.8 Y45.2 Z0.6 E0.19157837786578374 F1200
G1 X54.8 Y54.8 Z0.6 E0.19157837786578374 F1200
G1 X54.4 Y54.4 Z0.6 E0.011288864176467838 F1200
G1 X45.6 Y54.4 Z0.6 E0.17561351304363515 F1200
G1 X45.6 Y45.6 Z0.6 E0.17561351304363515 F1200
G1 X54.4 Y45.6 Z0.6 E0.17561351304363515 F1200
G1 X54.4 Y54.4 Z0.6 E0.17561351304363515 F1200
G1 X54.0 Y54.0 Z0.6 E0.011288864176467838 F1200
G1 X46.0 Y54.0 Z0.6 E0.15964864822148656 F1200
G1 X46.0 Y46.0 Z0.6 E0.15964864822148656 F1200
G1 X54.0 Y46.0 Z0.6 E0.15964864822148656 F1200
G1 X54.0 Y54.0 Z0.6 E0.15964864822148656 F1200
G1 X53.6 Y53.6 Z0.6 E0.011288864176467838 F1200
G1 X46.4 Y53.6 Z0.6 E0.14368378339933793 F1200
G1 X46.4 Y46.4 Z0.6 E0.14368378339933793 F1200
G1 X53.6 Y46.4 Z0.6 E0.14368378339933793 F1200
G1 X53.6 Y53.6 Z0.6 E0.14368378339933793 F1200
G1 X53.2 Y53.2 Z0.6 E0.011288864176467838 F1200
G1 X46.8 Y53.2 Z0.6 E0.12771891857718934 F1200
G1 X46.8 Y46.8 Z0.6 E0.12771891857718934 F1200
G1 X53.2 Y46.8 Z0.6 E0.12771891857718934 F1200
G1 X53.2 Y53.2 Z0.6 E0.12771891857718934 F1200
G1 X52.8 Y52.8 Z0.6 E0.011288864176468039 F1200
G1 X47.2 Y52.8 Z0.6 E0.11175405375504048 F1200
G1 X47.2 Y47.2 Z0.6 E0.11175405375504048 F1200
G1 X52.8 Y47.2 Z0.6 E0.11175405375504048 F1200
G1 X52.8 Y52.8 Z0.6 E0.11175405375504048 F1200
G1 X52.4 Y52.4 Z0.6 E0.011288864176467838 F1200
G1 X47.6 Y52.4 Z0.6 E0.09578918893289187 F1200
G1 X47.6 Y47.6 Z0.6 E0.09578918893289187 F1200
G1 X52.4 Y47.6 Z0.6 E0.09578918893289187 F1200
G1 X52.4 Y52.4 Z0.6 E0.09578918893289187 F1200
G1 X52.0 Y52.0 Z0.6 E0.011288864176467838 F1200
G1 X48.0 Y52.0 Z0.6 E0.07982432411074328 F1200
G1 X48.0 Y48.0 Z0.6 E0.07982432411074328 F1200
G1 X52.0 Y48.0 Z0.6 E0.07982432411074328 F1200
G1 X52.0 Y52.0 Z0.6 E0.07982432411074328 F1200
G1 X51.6 Y51.6 Z0.6 E0.011288864176467838 F1200
G1 X48.4 Y51.6 Z0.6 E0.06385945928859467 F1200
G1 X48.4 Y48.4 Z0.6 E0.06385945928859467 F1200
G1 X51.6 Y48.4 Z0.6 E0.06385945928859467 F1200
G1 X51.6 Y51.6 Z0.6 E0.06385945928859467 F1200
G1 X51.2 Y51.2 Z0.6 E0.011288864176467838 F1200
G1 X48.8 Y51.2 Z0.6 E0.047894594466446075 F1200
G1 X48.8 Y48.8 Z0.6 E0.047894594466446075 F1200
G1 X51.2 Y48.8 Z0.6 E0.047894594466446075 F1200
G1 X51.2 Y51.2 Z0.6 E0.047894594466446075 F1200
G1 X50.8 Y50.8 Z0.6 E0.011288864176468039 F1200
G1 X49.2 Y50.8 Z0.6 E0.031929729644297196 F1200
G1 X49.2 Y49.2 Z0.6 E0.031929729644297196 F1200
G1 X50.8 Y49.2 Z0.6 E0.031929729644297196 F1200
G1 X50.8 Y50.8 Z0.6 E0.031929729644297196 F1200
G1 X50.4 Y50.4 Z0.6 E0.011288864176467838 F1200
G1 X49.6 Y50.4 Z0.6 E0.015964864822148598 F1200
G1 X49.6 Y49.6 Z0.6 E0.015964864822148598 F1200
G1 X50.4 Y49.6 Z0.6 E0.015964864822148598 F1200
G1 X50.4 Y50.4 Z0.6 E0.015964864822148598 F1200
G1 E-8
G0 X54.8 Y54.8 Z0.6 F1200
G0 X54.8 Y54.8 Z0.72 F1200
G1 E8
G1 X45.2 Y54.8 Z0.72 E0.19157837786578374 F1200
G1 X45.2 Y45.2 Z0.72 E0.19157837786578374 F1200
G1 X54.8 Y45.2 Z0.72 E0.19157837786578374 F1200
G1 X54.8 Y54.8 Z0.72 E0.19157837786578374 F1200
G1 X54.4 Y54.4 Z0.72 E0.011288864176467838 F1200
G1 X45.6 Y54.4 Z0.72 E0.17561351304363515 F1200
G1 X45.6 Y45.6 Z0.72 E0.17561351304363515 F1200
G1 X54.4 Y45.6 Z0.72 E0.17561351304363515 F1200
G1 X54.4 Y54.4 Z0.72 E0.17561351304363515 F1200
G1 X54.0 Y54.0 Z0.72 E0.011288864176467838 F1200
G1 X46.0 Y54.0 Z0.72 E0.15964864822148656 F1200
G1 X46.0 Y46.0 Z0.72 E0.15964864822148656 F1200
G1 X54.0 Y46.0 Z0.72 E0.15964864822148656 F1200
G1 X54.0 Y54.0 Z0.72 E0.15964864822148656 F1200
G1 X53.6 Y53.6 Z0.72 E0.011288864176467838 F1200
G1 X46.4 Y53.6 Z0.72 E0.14368378339933793 F1200
G1 X46.4 Y46.4 Z0.72 E0.14368378339933793 F1200
G1 X53.6 Y46.4 Z0.72 E0.14368378339933793 F1200
G1 X53.6 Y53.6 Z0.72 E0.14368378339933793 F1200
G1 X53.2 Y53.2 Z0.72 E0.011288864176467838 F1200
G1 X46.8 Y53.2 Z0.72 E0.12771891857718934 F1200
G1 X46.8 Y46.8 Z0.72 E0.12771891857718934 F1200
G1 X53.2 Y46.8 Z0.72 E0.12771891857718934 F1200
G1 X53.2 Y53.2 Z0.72 E0.12771891857718934 F1200
G1 X52.8 Y52.8 Z0.72 E0.011288864176468039 F1200
G1 X47.2 Y52.8 Z0.72 E0.11175405375504048 F1200
G1 X47.2 Y47.2 Z0.72 E0.11175405375504048 F1200
G1 X52.8 Y47.2 Z0.72 E0.11175405375504048 F1200
G1 X52.8 Y52.8 Z0.72 E0.11175405375504048 F1200
G1 X52.4 Y52.4 Z0.72 E0.011288864176467838 F1200
G1 X47.6 Y52.4 Z0.72 E0.09578918893289187 F1200
G1 X47.6 Y47.6 Z0.72 E0.09578918893289187 F1200
G1 X52.4 Y47.6 Z0.72 E0.09578918893289187 F1200
G1 X52.4 Y52.4 Z0.72 E0.09578918893289187 F1200
G1 X52.0 Y52.0 Z0.72 E0.011288864176467838 F1200
G1 X48.0 Y52.0 Z0.72 E0.07982432411074328 F1200
G1 X48.0 Y48.0 Z0.72 E0.07982432411074328 F1200
G1 X52.0 Y48.0 Z0.72 E0.07982432411074328 F1200
G1 X52.0 Y52.0 Z0.72 E0.07982432411074328 F1200
G1 X51.6 Y51.6 Z0.72 E0.011288864176467838 F1200
G1 X48.4 Y51.6 Z0.72 E0.06385945928859467 F1200
G1 X48.4 Y48.4 Z0.72 E0.06385945928859467 F1200
G1 X51.6 Y48.4 Z0.72 E0.06385945928859467 F1200
G1 X51.6 Y51.6 Z0.72 E0.06385945928859467 F1200
G1 X51.2 Y51.2 Z0.72 E0.011288864176467838 F1200
G1 X48.8 Y51.2 Z0.72 E0.047894594466446075 F1200
G1 X48.8 Y48.8 Z0.72 E0.047894594466446075 F1200
G1 X51.2 Y48.8 Z0.72 E0.047894594466446075 F1200
G1 X51.2 Y51.2 Z0.72 E0.047894594466446075 F1200
G1 X50.8 Y50.8 Z0.72 E0.011288864176468039 F1200
G1 X49.2 Y50.8 Z0.72 E0.031929729644297196 F1200
G1 X49.2 Y49.2 Z0.72 E0.031929729644297196 F1200
G1 X50.8 Y49.2 Z0.72 E0.031929729644297196 F1200
G1 X50.8 Y50.8 Z0.72 E0.031929729644297196 F1200
G1 X50.4 Y50.4 Z0.72 E0.011288864176467838 F1200
G1 X49.6 Y50.4 Z0.72 E0.015964864822148598 F1200
G1 X49.6 Y49.6 Z0.72 E0.015964864822148598 F1200
G1 X50.4 Y49.6 Z0.72 E0.015964864822148598 F1200
G1 X50.4 Y50.4 Z0.72 E0.015964864822148598 F1200
G1 E-8
G0 X54.8 Y54.8 Z0.72 F1200
G0 X54.8 Y54.8 Z0.84 F1200
G1 E8
G1 X45.2 Y54.8 Z0.84 E0.19157837786578374 F1200
G1 X45.2 Y45.2 Z0.84 E0.19157837786578374 F1200
G1 X54.8 Y45.2 Z0.84 E0.19157837786578374 F1200
G1 X54.8 Y54.8 Z0.84 E0.19157837786578374 F1200
G1 X54.4 Y54.4 Z0.84 E0.011288864176467838 F1200
G1 X45.6 Y54.4 Z0.84 E0.17561351304363515 F1200
G1 X45.6 Y45.6 Z0.84 E0.17561351304363515 F1200
G1 X54.4 Y45.6 Z0.84 E0.17561351304363515 F1200
G1 X54.4 Y54.4 Z0.84 E0.17561351304363515 F1200
G1 X54.0 Y54.0 Z0.84 E0.011288864176467838 F1200
G1 X46.0 Y54.0 Z0.84 E0.15964864822148656 F1200
G1 X46.0 Y46.0 Z0.84 E0.15964864822148656 F1200
G1 X54.0 Y46.0 Z0.84 E0.15964864822148656 F1200
G1 X54.0 Y54.0 Z0.84 E0.15964864822148656 F1200
G1 X53.6 Y53.6 Z0.84 E0.011288864176467838 F1200
G1 X46.4 Y53.6 Z0.84 E0.14368378339933793 F1200
G1 X46.4 Y46.4 Z0.84 E0.14368378339933793 F1200
G1 X53.6 Y46.4 Z0.84 E0.14368378339933793 F1200
G1 X53.6 Y53.6 Z0.84 E0.14368378339933793 F1200
G1 X53.2 Y53.2 Z0.84 E0.011288864176467838 F1200
G1 X46.8 Y53.2 Z0.84 E0.12771891857718934 F1200
G1 X46.8 Y46.8 Z0.84 E0.12771891857718934 F1200
