;FLAVOR:Marlin 
;Layer height: 0.12 
;Generated with Cura_SteamEngine 4.9.0 
M140 S65
M105 
M190 S65
M104 S205
M105 
M109 S205
M83 ;relative extrusion mode 
; Ender 3 Custom Start G-code 
G92 E0 ; Reset Extruder 
G1 X0 Y0 Z10 F3000
G1 Z2.0 F3000 ; Move Z Axis up little to prevent scratching of Heat Bed 
G1 X0.1 Y20 Z0.3 F5000.0 ; Move to start position 
G1 X0.1 Y200.0 Z0.3 F1500.0 E15 ; Draw the first line 
G1 X0.4 Y200.0 Z0.3 F5000.0 ; Move to side a little 
G1 X0.4 Y20 Z0.3 F1500.0 E15 ; Draw the second line 
G92 E0 ; Reset Extruder 
G1 Z2.0 F3000 ; Move Z Axis up little to prevent scratching of Heat Bed 
G1 X5 Y20 Z0.3 F5000.0 ; Move over to prevent blob squish 
G92 E0 
G92 E0 
G1 F3000 E-8 
M104 S205
G0 X106.717514 Y100.0 Z0.24 F2400
G1 E8
G1 X100.0 Y106.717514 Z0.24 E0.473957 F1200
G1 X93.282486 Y100.0 Z0.24 E0.473957 F1200
G1 X100.0 Y93.282486 Z0.24 E0.473957 F1200
G1 X106.717514 Y100.0 Z0.24 E0.473957 F1200
G0 X106.010408 Y100.0 Z0.24 F2400
G1 X100.0 Y106.010408 Z0.24 E0.424067 F1200
G1 X93.989592 Y100.0 Z0.24 E0.424067 F1200
G1 X100.0 Y93.989592 Z0.24 E0.424067 F1200
G1 X106.010408 Y100.0 Z0.24 E0.424067 F1200
G0 X105.303301 Y100.0 Z0.24 F2400
G1 X100.0 Y105.303301 Z0.24 E0.374177 F1200
G1 X94.696699 Y100.0 Z0.24 E0.374177 F1200
G1 X100.0 Y94.696699 Z0.24 E0.374177 F1200
G1 X105.303301 Y100.0 Z0.24 E0.374177 F1200
G0 X104.596194 Y100.0 Z0.24 F2400
G1 X100.0 Y104.596194 Z0.24 E0.324286 F1200
G1 X95.403806 Y100.0 Z0.24 E0.324286 F1200
G1 X100.0 Y95.403806 Z0.24 E0.324286 F1200
G1 X104.596194 Y100.0 Z0.24 E0.324286 F1200
G0 X103.889087 Y100.0 Z0.24 F2400
G1 X100.0 Y103.889087 Z0.24 E0.274396 F1200
G1 X96.110913 Y100.0 Z0.24 E0.274396 F1200
G1 X100.0 Y96.110913 Z0.24 E0.274396 F1200
G1 X103.889087 Y100.0 Z0.24 E0.274396 F1200
G0 X103.181981 Y100.0 Z0.24 F2400
G1 X100.0 Y103.181981 Z0.24 E0.224506 F1200
G1 X96.818019 Y100.0 Z0.24 E0.224506 F1200
G1 X100.0 Y96.818019 Z0.24 E0.224506 F1200
G1 X103.181981 Y100.0 Z0.24 E0.224506 F1200
G0 X102.474874 Y100.0 Z0.24 F2400
G1 X100.0 Y102.474874 Z0.24 E0.174616 F1200
G1 X97.525126 Y100.0 Z0.24 E0.174616 F1200
G1 X100.0 Y97.525126 Z0.24 E0.174616 F1200
G1 X102.474874 Y100.0 Z0.24 E0.174616 F1200
G0 X101.767767 Y100.0 Z0.24 F2400
G1 X100.0 Y101.767767 Z0.24 E0.124726 F1200
G1 X98.232233 Y100.0 Z0.24 E0.124726 F1200
G1 X100.0 Y98.232233 Z0.24 E0.124726 F1200
G1 X101.767767 Y100.0 Z0.24 E0.124726 F1200
G0 X101.06066 Y100.0 Z0.24 F2400
G1 X100.0 Y101.06066 Z0.24 E0.074835 F1200
G1 X98.93934 Y100.0 Z0.24 E0.074835 F1200
G1 X100.0 Y98.93934 Z0.24 E0.074835 F1200
G1 X101.06066 Y100.0 Z0.24 E0.074835 F1200
G0 X100.353553 Y100.0 Z0.24 F2400
G1 X100.0 Y100.353553 Z0.24 E0.024945 F1200
G1 X99.646447 Y100.0 Z0.24 E0.024945 F1200
G1 X100.0 Y99.646447 Z0.24 E0.024945 F1200
G1 X100.353553 Y100.0 Z0.24 E0.024945 F1200
G1 E-8
M104 S200
M140 S60
G0 X106.788225 Y100.0 Z0.24 F4800
G0 X106.788225 Y100.0 Z0.36 F4800
G1 E8
G1 X100.0 Y106.788225 Z0.36 E0.191578 F2400
G1 X93.211775 Y100.0 Z0.36 E0.191578 F2400
G1 X100.0 Y93.211775 Z0.36 E0.191578 F2400
G1 X106.788225 Y100.0 Z0.36 E0.191578 F2400
G0 X106.22254 Y100.0 Z0.36 F4800
G1 X100.0 Y106.22254 Z0.36 E0.175614 F2400
G1 X93.77746 Y100.0 Z0.36 E0.175614 F2400
G1 X100.0 Y93.77746 Z0.36 E0.175614 F2400
G1 X106.22254 Y100.0 Z0.36 E0.175614 F2400
G0 X105.656854 Y100.0 Z0.36 F4800
G1 X100.0 Y105.656854 Z0.36 E0.159649 F2400
G1 X94.343146 Y100.0 Z0.36 E0.159649 F2400
G1 X100.0 Y94.343146 Z0.36 E0.159649 F2400
G1 X105.656854 Y100.0 Z0.36 E0.159649 F2400
G0 X105.091169 Y100.0 Z0.36 F4800
G1 X100.0 Y105.091169 Z0.36 E0.143684 F2400
G1 X94.908831 Y100.0 Z0.36 E0.143684 F2400
G1 X100.0 Y94.908831 Z0.36 E0.143684 F2400
G1 X105.091169 Y100.0 Z0.36 E0.143684 F2400
G0 X104.525483 Y100.0 Z0.36 F4800
G1 X100.0 Y104.525483 Z0.36 E0.127719 F2400
G1 X95.474517 Y100.0 Z0.36 E0.127719 F2400
G1 X100.0 Y95.474517 Z0.36 E0.127719 F2400
G1 X104.525483 Y100.0 Z0.36 E0.127719 F2400
G0 X103.959798 Y100.0 Z0.36 F4800
G1 X100.0 Y103.959798 Z0.36 E0.111754 F2400
G1 X96.040202 Y100.0 Z0.36 E0.111754 F2400
G1 X100.0 Y96.040202 Z0.36 E0.111754 F2400
G1 X103.959798 Y100.0 Z0.36 E0.111754 F2400
G0 X103.394113 Y100.0 Z0.36 F4800
G1 X100.0 Y103.394113 Z0.36 E0.095789 F2400
G1 X96.605887 Y100.0 Z0.36 E0.095789 F2400
G1 X100.0 Y96.605887 Z0.36 E0.095789 F2400
G1 X103.394113 Y100.0 Z0.36 E0.095789 F2400
G0 X102.828427 Y100.0 Z0.36 F4800
G1 X100.0 Y102.828427 Z0.36 E0.079824 F2400
G1 X97.171573 Y100.0 Z0.36 E0.079824 F2400
G1 X100.0 Y97.171573 Z0.36 E0.079824 F2400
G1 X102.828427 Y100.0 Z0.36 E0.079824 F2400
G0 X102.262742 Y100.0 Z0.36 F4800
G1 X100.0 Y102.262742 Z0.36 E0.063859 F2400
G1 X97.737258 Y100.0 Z0.36 E0.063859 F2400
G1 X100.0 Y97.737258 Z0.36 E0.063859 F2400
G1 X102.262742 Y100.0 Z0.36 E0.063859 F2400
G0 X101.697056 Y100.0 Z0.36 F4800
G1 X100.0 Y101.697056 Z0.36 E0.047895 F2400
G1 X98.302944 Y100.0 Z0.36 E0.047895 F2400
G1 X100.0 Y98.302944 Z0.36 E0.047895 F2400
G1 X101.697056 Y100.0 Z0.36 E0.047895 F2400
G0 X101.131371 Y100.0 Z0.36 F4800
G1 X100.0 Y101.131371 Z0.36 E0.03193 F2400
G1 X98.868629 Y100.0 Z0.36 E0.03193 F2400
G1 X100.0 Y98.868629 Z0.36 E0.03193 F2400
G1 X101.131371 Y100.0 Z0.36 E0.03193 F2400
G0 X100.565685 Y100.0 Z0.36 F4800
G1 X100.0 Y100.565685 Z0.36 E0.015965 F2400
G1 X99.434315 Y100.0 Z0.36 E0.015965 F2400
G1 X100.0 Y99.434315 Z0.36 E0.015965 F2400
G1 X100.565685 Y100.0 Z0.36 E0.015965 F2400
G1 E-8
G0 X106.788225 Y100.0 Z0.36 F4800
G0 X106.788225 Y100.0 Z0.48 F4800
G1 E8
G1 X100.0 Y106.788225 Z0.48 E0.191578 F2400
G1 X93.211775 Y100.0 Z0.48 E0.191578 F2400
G1 X100.0 Y93.211775 Z0.48 E0.191578 F2400
G1 X106.788225 Y100.0 Z0.48 E0.191578 F2400
G0 X106.22254 Y100.0 Z0.48 F4800
G1 X100.0 Y106.22254 Z0.48 E0.175614 F2400
G1 X93.77746 Y100.0 Z0.48 E0.175614 F2400
G1 X100.0 Y93.77746 Z0.48 E0.175614 F2400
G1 X106.22254 Y100.0 Z0.48 E0.175614 F2400
G0 X105.656854 Y100.0 Z0.48 F4800
G1 X100.0 Y105.656854 Z0.48 E0.159649 F2400
G1 X94.343146 Y100.0 Z0.48 E0.159649 F2400
G1 X100.0 Y94.343146 Z0.48 E0.159649 F2400
G1 X105.656854 Y100.0 Z0.48 E0.159649 F2400
G0 X105.091169 Y100.0 Z0.48 F4800
G1 X100.0 Y105.091169 Z0.48 E0.143684 F2400
G1 X94.908831 Y100.0 Z0.48 E0.143684 F2400
G1 X100.0 Y94.908831 Z0.48 E0.143684 F2400
G1 X105.091169 Y100.0 Z0.48 E0.143684 F2400
G0 X104.525483 Y100.0 Z0.48 F4800
G1 X100.0 Y104.525483 Z0.48 E0.127719 F2400
G1 X95.474517 Y100.0 Z0.48 E0.127719 F2400
G1 X100.0 Y95.474517 Z0.48 E0.127719 F2400
G1 X104.525483 Y100.0 Z0.48 E0.127719 F2400
G0 X103.959798 Y100.0 Z0.48 F4800
G1 X100.0 Y103.959798 Z0.48 E0.111754 F2400
G1 X96.040202 Y100.0 Z0.48 E0.111754 F2400
G1 X100.0 Y96.040202 Z0.48 E0.111754 F2400
G1 X103.959798 Y100.0 Z0.48 E0.111754 F2400
G0 X103.394113 Y100.0 Z0.48 F4800
G1 X100.0 Y103.394113 Z0.48 E0.095789 F2400
G1 X96.605887 Y100.0 Z0.48 E0.095789 F2400
G1 X100.0 Y96.605887 Z0.48 E0.095789 F2400
G1 X103.394113 Y100.0 Z0.48 E0.095789 F2400
G0 X102.828427 Y100.0 Z0.48 F4800
G1 X100.0 Y102.828427 Z0.48 E0.079824 F2400
G1 X97.171573 Y100.0 Z0.48 E0.079824 F2400
G1 X100.0 Y97.171573 Z0.48 E0.079824 F2400
G1 X102.828427 Y100.0 Z0.48 E0.079824 F2400
G0 X102.262742 Y100.0 Z0.48 F4800
G1 X100.0 Y102.262742 Z0.48 E0.063859 F2400
G1 X97.737258 Y100.0 Z0.48 E0.063859 F2400
G1 X100.0 Y97.737258 Z0.48 E0.063859 F2400
G1 X102.262742 Y100.0 Z0.48 E0.063859 F2400
G0 X101.697056 Y100.0 Z0.48 F4800
G1 X100.0 Y101.697056 Z0.48 E0.047895 F2400
G1 X98.302944 Y100.0 Z0.48 E0.047895 F2400
G1 X100.0 Y98.302944 Z0.48 E0.047895 F2400
G1 X101.697056 Y100.0 Z0.48 E0.047895 F2400
G0 X101.131371 Y100.0 Z0.48 F4800
G1 X100.0 Y101.131371 Z0.48 E0.03193 F2400
G1 X98.868629 Y100.0 Z0.48 E0.03193 F2400
G1 X100.0 Y98.868629 Z0.48 E0.03193 F2400
G1 X101.131371 Y100.0 Z0.48 E0.03193 F2400
G0 X100.565685 Y100.0 Z0.48 F4800
G1 X100.0 Y100.565685 Z0.48 E0.015965 F2400
G1 X99.434315 Y100.0 Z0.48 E0.015965 F2400
G1 X100.0 Y99.434315 Z0.48 E0.015965 F2400
G1 X100.565685 Y100.0 Z0.48 E0.015965 F2400
G1 E-8
G0 X106.788225 Y100.0 Z0.48 F4800
G0 X106.788225 Y100.0 Z0.6 F4800
G1 E8
G1 X100.0 Y106.788225 Z0.6 E0.191578 F2400
G1 X93.211775 Y100.0 Z0.6 E0.191578 F2400
G1 X100.0 Y93.211775 Z0.6 E0.191578 F2400
G1 X106.788225 Y100.0 Z0.6 E0.191578 F2400
G0 X106.22254 Y100.0 Z0.6 F4800
G1 X100.0 Y106.22254 Z0.6 E0.175614 F2400
G1 X93.77746 Y100.0 Z0.6 E0.175614 F2400
G1 X100.0 Y93.77746 Z0.6 E0.175614 F2400
G1 X106.22254 Y100.0 Z0.6 E0.175614 F2400
G0 X105.656854 Y100.0 Z0.6 F4800
G1 X100.0 Y105.656854 Z0.6 E0.159649 F2400
G1 X94.343146 Y100.0 Z0.6 E0.159649 F2400
G1 X100.0 Y94.343146 Z0.6 E0.159649 F2400
G1 X105.656854 Y100.0 Z0.6 E0.159649 F2400
G0 X105.091169 Y100.0 Z0.6 F4800
G1 X100.0 Y105.091169 Z0.6 E0.143684 F2400
G1 X94.908831 Y100.0 Z0.6 E0.143684 F2400
G1 X100.0 Y94.908831 Z0.6 E0.143684 F2400
G1 X105.091169 Y100.0 Z0.6 E0.143684 F2400
G0 X104.525483 Y100.0 Z0.6 F4800
G1 X100.0 Y104.525483 Z0.6 E0.127719 F2400
G1 X95.474517 Y100.0 Z0.6 E0.127719 F2400
G1 X100.0 Y95.474517 Z0.6 E0.127719 F2400
G1 X104.525483 Y100.0 Z0.6 E0.127719 F2400
G0 X103.959798 Y100.0 Z0.6 F4800
G1 X100.0 Y103.959798 Z0.6 E0.111754 F2400
G1 X96.040202 Y100.0 Z0.6 E0.111754 F2400
G1 X100.0 Y96.040202 Z0.6 E0.111754 F2400
G1 X103.959798 Y100.0 Z0.6 E0.111754 F2400
G0 X103.394113 Y100.0 Z0.6 F4800
G1 X100.0 Y103.394113 Z0.6 E0.095789 F2400
G1 X96.605887 Y100.0 Z0.6 E0.095789 F2400
G1 X100.0 Y96.605887 Z0.6 E0.095789 F2400
G1 X103.394113 Y100.0 Z0.6 E0.095789 F2400
G0 X102.828427 Y100.0 Z0.6 F4800
G1 X100.0 Y102.828427 Z0.6 E0.079824 F2400
G1 X97.171573 Y100.0 Z0.6 E0.079824 F2400
G1 X100.0 Y97.171573 Z0.6 E0.079824 F2400
G1 X102.828427 Y100.0 Z0.6 E0.079824 F2400
G0 X102.262742 Y100.0 Z0.6 F4800
G1 X100.0 Y102.262742 Z0.6 E0.063859 F2400
G1 X97.737258 Y100.0 Z0.6 E0.063859 F2400
G1 X100.0 Y97.737258 Z0.6 E0.063859 F2400
G1 X102.262742 Y100.0 Z0.6 E0.063859 F2400
G0 X101.697056 Y100.0 Z0.6 F4800
G1 X100.0 Y101.697056 Z0.6 E0.047895 F2400
G1 X98.302944 Y100.0 Z0.6 E0.047895 F2400
G1 X100.0 Y98.302944 Z0.6 E0.047895 F2400
G1 X101.697056 Y100.0 Z0.6 E0.047895 F2400
G0 X101.131371 Y100.0 Z0.6 F4800
G1 X100.0 Y101.131371 Z0.6 E0.03193 F2400
G1 X98.868629 Y100.0 Z0.6 E0.03193 F2400
G1 X100.0 Y98.868629 Z0.6 E0.03193 F2400
G1 X101.131371 Y100.0 Z0.6 E0.03193 F2400
G0 X100.565685 Y100.0 Z0.6 F4800
G1 X100.0 Y100.565685 Z0.6 E0.015965 F2400
G1 X99.434315 Y100.0 Z0.6 E0.015965 F2400
G1 X100.0 Y99.434315 Z0.6 E0.015965 F2400
G1 X100.565685 Y100.0 Z0.6 E0.015965 F2400
G1 E-8
G0 X106.788225 Y100.0 Z0.6 F4800
G0 X106.788225 Y100.0 Z0.72 F4800
G1 E8
G1 X100.0 Y106.788225 Z0.72 E0.191578 F2400
G1 X93.211775 Y100.0 Z0.72 E0.191578 F2400
G1 X100.0 Y93.211775 Z0.72 E0.191578 F2400
G1 X106.788225 Y100.0 Z0.72 E0.191578 F2400
G0 X106.22254 Y100.0 Z0.72 F4800
G1 X100.0 Y106.22254 Z0.72 E0.175614 F2400
G1 X93.77746 Y100.0 Z0.72 E0.175614 F2400
G1 X100.0 Y93.77746 Z0.72 E0.175614 F2400
G1 X106.22254 Y100.0 Z0.72 E0.175614 F2400
G0 X105.656854 Y100.0 Z0.72 F4800
G1 X100.0 Y105.656854 Z0.72 E0.159649 F2400
G1 X94.343146 Y100.0 Z0.72 E0.159649 F2400
G1 X100.0 Y94.343146 Z0.72 E0.159649 F2400
G1 X105.656854 Y100.0 Z0.72 E0.159649 F2400
G0 X105.091169 Y100.0 Z0.72 F4800
G1 X100.0 Y105.091169 Z0.72 E0.143684 F2400
G1 X94.908831 Y100.0 Z0.72 E0.143684 F2400
G1 X100.0 Y94.908831 Z0.72 E0.143684 F2400
G1 X105.091169 Y100.0 Z0.72 E0.143684 F2400
G0 X104.525483 Y100.0 Z0.72 F4800
G1 X100.0 Y104.525483 Z0.72 E0.127719 F2400
G1 X95.474517 Y100.0 Z0.72 E0.127719 F2400
G1 X100.0 Y95.474517 Z0.72 E0.127719 F2400
G1 X104.525483 Y100.0 Z0.72 E0.127719 F2400
G0 X103.959798 Y100.0 Z0.72 F4800
G1 X100.0 Y103.959798 Z0.72 E0.111754 F2400
G1 X96.040202 Y100.0 Z0.72 E0.111754 F2400
G1 X100.0 Y96.040202 Z0.72 E0.111754 F2400
G1 X103.959798 Y100.0 Z0.72 E0.111754 F2400
G0 X103.394113 Y100.0 Z0.72 F4800
G1 X100.0 Y103.394113 Z0.72 E0.095789 F2400
G1 X96.605887 Y100.0 Z0.72 E0.095789 F2400
G1 X100.0 Y96.605887 Z0.72 E0.095789 F2400
G1 X103.394113 Y100.0 Z0.72 E0.095789 F2400
G0 X102.828427 Y100.0 Z0.72 F4800
G1 X100.0 Y102.828427 Z0.72 E0.079824 F2400
G1 X97.171573 Y100.0 Z0.72 E0.079824 F2400
G1 X100.0 Y97.171573 Z0.72 E0.079824 F2400
G1 X102.828427 Y100.0 Z0.72 E0.079824 F2400
G0 X102.262742 Y100.0 Z0.72 F4800
G1 X100.0 Y102.262742 Z0.72 E0.063859 F2400
G1 X97.737258 Y100.0 Z0.72 E0.063859 F2400
G1 X100.0 Y97.737258 Z0.72 E0.063859 F2400
G1 X102.262742 Y100.0 Z0.72 E0.063859 F2400
G0 X101.697056 Y100.0 Z0.72 F4800
G1 X100.0 Y101.697056 Z0.72 E0.047895 F2400
G1 X98.302944 Y100.0 Z0.72 E0.047895 F2400
G1 X100.0 Y98.302944 Z0.72 E0.047895 F2400
G1 X101.697056 Y100.0 Z0.72 E0.047895 F2400
G0 X101.131371 Y100.0 Z0.72 F4800
G1 X100.0 Y101.131371 Z0.72 E0.03193 F2400
G1 X98.868629 Y100.0 Z0.72 E0.03193 F2400
G1 X100.0 Y98.868629 Z0.72 E0.03193 F2400
G1 X101.131371 Y100.0 Z0.72 E0.03193 F2400
G0 X100.565685 Y100.0 Z0.72 F4800
G1 X100.0 Y100.565685 Z0.72 E0.015965 F2400
G1 X99.434315 Y100.0 Z0.72 E0.015965 F2400
G1 X100.0 Y99.434315 Z0.72 E0.015965 F2400
G1 X100.565685 Y100.0 Z0.72 E0.015965 F2400
G1 E-8
G0 X106.788225 Y100.0 Z0.72 F4800
G0 X106.788225 Y100.0 Z0.84 F4800
G1 E8
G1 X100.0 Y106.788225 Z0.84 E0.191578 F2400
G1 X93.211775 Y100.0 Z0.84 E0.191578 F2400
G1 X100.0 Y93.211775 Z0.84 E0.191578 F2400
G1 X106.788225 Y100.0 Z0.84 E0.191578 F2400
G0 X106.22254 Y100.0 Z0.84 F4800
G1 X100.0 Y106.22254 Z0.84 E0.175614 F2400
G1 X93.77746 Y100.0 Z0.84 E0.175614 F2400
G1 X100.0 Y93.77746 Z0.84 E0.175614 F2400
G1 X106.22254 Y100.0 Z0.84 E0.175614 F2400
G0 X105.656854 Y100.0 Z0.84 F4800
G1 X100.0 Y105.656854 Z0.84 E0.159649 F2400
G1 X94.343146 Y100.0 Z0.84 E0.159649 F2400
G1 X100.0 Y94.343146 Z0.84 E0.159649 F2400
G1 X105.656854 Y100.0 Z0.84 E0.159649 F2400
G0 X105.091169 Y100.0 Z0.84 F4800
G1 X100.0 Y105.091169 Z0.84 E0.143684 F2400
G1 X94.908831 Y100.0 Z0.84 E0.143684 F2400
G1 X100.0 Y94.908831 Z0.84 E0.143684 F2400
G1 X105.091169 Y100.0 Z0.84 E0.143684 F2400
G0 X104.525483 Y100.0 Z0.84 F4800
G1 X100.0 Y104.525483 Z0.84 E0.127719 F2400
G1 X95.474517 Y100.0 Z0.84 E0.127719 F2400
G1 X100.0 Y95.474517 Z0.84 E0.127719 F2400
G1 X104.525483 Y100.0 Z0.84 E0.127719 F2400
G0 X103.959798 Y100.0 Z0.84 F4800
G1 X100.0 Y103.959798 Z0.84 E0.111754 F2400
G1 X96.040202 Y100.0 Z0.84 E0.111754 F2400
G1 X100.0 Y96.040202 Z0.84 E0.111754 F2400
G1 X103.959798 Y100.0 Z0.84 E0.111754 F2400
G0 X103.394113 Y100.0 Z0.84 F4800
G1 X100.0 Y103.394113 Z0.84 E0.095789 F2400
G1 X96.605887 Y100.0 Z0.84 E0.095789 F2400
G1 X100.0 Y96.605887 Z0.84 E0.095789 F2400
G1 X103.394113 Y100.0 Z0.84 E0.095789 F2400
G0 X102.828427 Y100.0 Z0.84 F4800
G1 X100.0 Y102.828427 Z0.84 E0.079824 F2400
G1 X97.171573 Y100.0 Z0.84 E0.079824 F2400
G1 X100.0 Y97.171573 Z0.84 E0.079824 F2400
G1 X102.828427 Y100.0 Z0.84 E0.079824 F2400
G0 X102.262742 Y100.0 Z0.84 F4800
G1 X100.0 Y102.262742 Z0.84 E0.063859 F2400
G1 X97.737258 Y100.0 Z0.84 E0.063859 F2400
G1 X100.0 Y97.737258 Z0.84 E0.063859 F2400
G1 X102.262742 Y100.0 Z0.84 E0.063859 F2400
G0 X101.697056 Y100.0 Z0.84 F4800
G1 X100.0 Y101.697056 Z0.84 E0.047895 F2400
G1 X98.302944 Y100.0 Z0.84 E0.047895 F2400
G1 X100.0 Y98.302944 Z0.84 E0.047895 F2400
G1 X101.697056 Y100.0 Z0.84 E0.047895 F2400
G0 X101.131371 Y100.0 Z0.84 F4800
G1 X100.0 Y101.131371 Z0.84 E0.03193 F2400
G1 X98.868629 Y100.0 Z0.84 E0.03193 F2400
G1 X100.0 Y98.868629 Z0.84 E0.03193 F2400
G1 X101.131371 Y100.0 Z0.84 E0.03193 F2400
G0 X100.565685 Y100.0 Z0.84 F4800
G1 X100.0 Y100.565685 Z0.84 E0.015965 F2400
G1 X99.434315 Y100.0 Z0.84 E0.015965 F2400
G1 X100.0 Y99.434315 Z0.84 E0.015965 F2400
G1 X100.565685 Y100.0 Z0.84 E0.015965 F2400
G1 E-8
G0 X106.788225 Y100.0 Z0.84 F4800
G0 X106.788225 Y100.0 Z0.96 F4800
G1 E8
G1 X100.0 Y106.788225 Z0.96 E0.191578 F2400
G1 X93.211775 Y100.0 Z0.96 E0.191578 F2400
G1 X100.0 Y93.211775 Z0.96 E0.191578 F2400
G1 X106.788225 Y100.0 Z0.96 E0.191578 F2400
G0 X106.22254 Y100.0 Z0.96 F4800
G1 X100.0 Y106.22254 Z0.96 E0.175614 F2400
G1 X93.77746 Y100.0 Z0.96 E0.175614 F2400
G1 X100.0 Y93.77746 Z0.96 E0.175614 F2400
G1 X106.22254 Y100.0 Z0.96 E0.175614 F2400
G0 X105.656854 Y100.0 Z0.96 F4800
G1 X100.0 Y105.656854 Z0.96 E0.159649 F2400
