;FLAVOR:Marlin 
;Layer height: 0.12 
;Generated with Cura_SteamEngine 4.9.0 
M140 S55
M105 
M190 S55
M140 S65
M104 S205
M105 
M109 S205
M190 S65
M82 ;absolute extrusion mode 
; Ender 3 Custom Start G-code 
G92 E0 ; Reset Extruder 
G1 X0 Y0 Z10 F3000
G1 Z2.0 F3000 ; Move Z Axis up little to prevent scratching of Heat Bed 
G1 X0.1 Y20 Z0.3 F5000.0 ; Move to start position 
G1 X0.1 Y200.0 Z0.3 F1500.0 E15 ; Draw the first line 
G1 X0.4 Y200.0 Z0.3 F5000.0 ; Move to side a little 
G1 X0.4 Y20 Z0.3 F1500.0 E30 ; Draw the second line 
G92 E0 ; Reset Extruder 
G1 Z2.0 F3000 ; Move Z Axis up little to prevent scratching of Heat Bed 
G1 X5 Y20 Z0.3 F5000.0 ; Move over to prevent blob squish 
G92 E0 
G92 E0 
G1 F3000 E-8 
G0 X119.8 Y114.8 Z0.12 F2400
G1 E0.0
G1 X100.2 Y114.8 Z0.12 E0.391139 F1200
G1 X100.2 Y105.2 Z0.12 E0.582717 F1200
G1 X119.8 Y105.2 Z0.12 E0.973856 F1200
G1 X119.8 Y114.8 Z0.12 E1.165434 F1200
G0 X119.4 Y114.4 Z0.12 F2400
G1 X100.6 Y114.4 Z0.12 E1.540608 F1200
G1 X100.6 Y105.6 Z0.12 E1.716222 F1200
G1 X119.4 Y105.6 Z0.12 E2.091396 F1200
G1 X119.4 Y114.4 Z0.12 E2.26701 F1200
G0 X119.0 Y114.0 Z0.12 F2400
G1 X101.0 Y114.0 Z0.12 E2.626219 F1200
G1 X101.0 Y106.0 Z0.12 E2.785868 F1200
G1 X119.0 Y106.0 Z0.12 E3.145077 F1200
G1 X119.0 Y114.0 Z0.12 E3.304726 F1200
G0 X118.6 Y113.6 Z0.12 F2400
G1 X101.4 Y113.6 Z0.12 E3.647971 F1200
G1 X101.4 Y106.4 Z0.12 E3.791655 F1200
G1 X118.6 Y106.4 Z0.12 E4.1349 F1200
G1 X118.6 Y113.6 Z0.12 E4.278584 F1200
G0 X118.2 Y113.2 Z0.12 F2400
G1 X101.8 Y113.2 Z0.12 E4.605864 F1200
G1 X101.8 Y106.8 Z0.12 E4.733583 F1200
G1 X118.2 Y106.8 Z0.12 E5.060863 F1200
G1 X118.2 Y113.2 Z0.12 E5.188582 F1200
G0 X117.8 Y112.8 Z0.12 F2400
G1 X102.2 Y112.8 Z0.12 E5.499897 F1200
G1 X102.2 Y107.2 Z0.12 E5.611651 F1200
G1 X117.8 Y107.2 Z0.12 E5.922966 F1200
G1 X117.8 Y112.8 Z0.12 E6.03472 F1200
G0 X117.4 Y112.4 Z0.12 F2400
G1 X102.6 Y112.4 Z0.12 E6.33007 F1200
G1 X102.6 Y107.6 Z0.12 E6.425859 F1200
G1 X117.4 Y107.6 Z0.12 E6.721209 F1200
G1 X117.4 Y112.4 Z0.12 E6.816998 F1200
G0 X117.0 Y112.0 Z0.12 F2400
G1 X103.0 Y112.0 Z0.12 E7.096383 F1200
G1 X103.0 Y108.0 Z0.12 E7.176207 F1200
G1 X117.0 Y108.0 Z0.12 E7.455592 F1200
G1 X117.0 Y112.0 Z0.12 E7.535416 F1200
G0 X116.6 Y111.6 Z0.12 F2400
G1 X103.4 Y111.6 Z0.12 E7.798836 F1200
G1 X103.4 Y108.4 Z0.12 E7.862695 F1200
G1 X116.6 Y108.4 Z0.12 E8.126115 F1200
G1 X116.6 Y111.6 Z0.12 E8.189974 F1200
G0 X116.2 Y111.2 Z0.12 F2400
G1 X103.8 Y111.2 Z0.12 E8.437429 F1200
G1 X103.8 Y108.8 Z0.12 E8.485324 F1200
G1 X116.2 Y108.8 Z0.12 E8.732779 F1200
G1 X116.2 Y111.2 Z0.12 E8.780674 F1200
G0 X115.8 Y110.8 Z0.12 F2400
G1 X104.2 Y110.8 Z0.12 E9.012165 F1200
G1 X104.2 Y109.2 Z0.12 E9.044095 F1200
G1 X115.8 Y109.2 Z0.12 E9.275586 F1200
G1 X115.8 Y110.8 Z0.12 E9.307516 F1200
G0 X115.4 Y110.4 Z0.12 F2400
G1 X104.6 Y110.4 Z0.12 E9.523042 F1200
G1 X104.6 Y109.6 Z0.12 E9.539007 F1200
G1 X115.4 Y109.6 Z0.12 E9.754533 F1200
G1 X115.4 Y110.4 Z0.12 E9.770498 F1200
G1 E1.770498
M104 S200
M140 S60
G0 X119.8 Y114.8 Z0.12 F4800
G0 X119.8 Y114.8 Z0.24 F4800
G1 E9.770498
G1 X100.2 Y114.8 Z0.24 E10.161637 F2400
G1 X100.2 Y105.2 Z0.24 E10.353215 F2400
G1 X119.8 Y105.2 Z0.24 E10.744354 F2400
G1 X119.8 Y114.8 Z0.24 E10.935932 F2400
G0 X119.4 Y114.4 Z0.24 F4800
G1 X100.6 Y114.4 Z0.24 E11.311106 F2400
G1 X100.6 Y105.6 Z0.24 E11.48672 F2400
G1 X119.4 Y105.6 Z0.24 E11.861894 F2400
G1 X119.4 Y114.4 Z0.24 E12.037508 F2400
G0 X119.0 Y114.0 Z0.24 F4800
G1 X101.0 Y114.0 Z0.24 E12.396717 F2400
G1 X101.0 Y106.0 Z0.24 E12.556366 F2400
G1 X119.0 Y106.0 Z0.24 E12.915575 F2400
G1 X119.0 Y114.0 Z0.24 E13.075224 F2400
G0 X118.6 Y113.6 Z0.24 F4800
G1 X101.4 Y113.6 Z0.24 E13.418469 F2400
G1 X101.4 Y106.4 Z0.24 E13.562153 F2400
G1 X118.6 Y106.4 Z0.24 E13.905398 F2400
G1 X118.6 Y113.6 Z0.24 E14.049082 F2400
G0 X118.2 Y113.2 Z0.24 F4800
G1 X101.8 Y113.2 Z0.24 E14.376362 F2400
G1 X101.8 Y106.8 Z0.24 E14.504081 F2400
G1 X118.2 Y106.8 Z0.24 E14.831361 F2400
G1 X118.2 Y113.2 Z0.24 E14.95908 F2400
G0 X117.8 Y112.8 Z0.24 F4800
G1 X102.2 Y112.8 Z0.24 E15.270395 F2400
G1 X102.2 Y107.2 Z0.24 E15.382149 F2400
G1 X117.8 Y107.2 Z0.24 E15.693464 F2400
G1 X117.8 Y112.8 Z0.24 E15.805218 F2400
G0 X117.4 Y112.4 Z0.24 F4800
G1 X102.6 Y112.4 Z0.24 E16.100568 F2400
G1 X102.6 Y107.6 Z0.24 E16.196357 F2400
G1 X117.4 Y107.6 Z0.24 E16.491707 F2400
G1 X117.4 Y112.4 Z0.24 E16.587496 F2400
G0 X117.0 Y112.0 Z0.24 F4800
G1 X103.0 Y112.0 Z0.24 E16.866881 F2400
G1 X103.0 Y108.0 Z0.24 E16.946705 F2400
G1 X117.0 Y108.0 Z0.24 E17.22609 F2400
G1 X117.0 Y112.0 Z0.24 E17.305914 F2400
G0 X116.6 Y111.6 Z0.24 F4800
G1 X103.4 Y111.6 Z0.24 E17.569334 F2400
G1 X103.4 Y108.4 Z0.24 E17.633193 F2400
G1 X116.6 Y108.4 Z0.24 E17.896613 F2400
G1 X116.6 Y111.6 Z0.24 E17.960472 F2400
G0 X116.2 Y111.2 Z0.24 F4800
G1 X103.8 Y111.2 Z0.24 E18.207927 F2400
G1 X103.8 Y108.8 Z0.24 E18.255822 F2400
G1 X116.2 Y108.8 Z0.24 E18.503277 F2400
G1 X116.2 Y111.2 Z0.24 E18.551172 F2400
G0 X115.8 Y110.8 Z0.24 F4800
G1 X104.2 Y110.8 Z0.24 E18.782663 F2400
G1 X104.2 Y109.2 Z0.24 E18.814593 F2400
G1 X115.8 Y109.2 Z0.24 E19.046084 F2400
G1 X115.8 Y110.8 Z0.24 E19.078014 F2400
G0 X115.4 Y110.4 Z0.24 F4800
G1 X104.6 Y110.4 Z0.24 E19.29354 F2400
G1 X104.6 Y109.6 Z0.24 E19.309505 F2400
G1 X115.4 Y109.6 Z0.24 E19.525031 F2400
G1 X115.4 Y110.4 Z0.24 E19.540996 F2400
G1 E11.540996
G0 X119.8 Y114.8 Z0.24 F4800
G0 X119.8 Y114.8 Z0.36 F4800
G1 E19.540996
G1 X100.2 Y114.8 Z0.36 E19.932135 F2400
G1 X100.2 Y105.2 Z0.36 E20.123713 F2400
G1 X119.8 Y105.2 Z0.36 E20.514852 F2400
G1 X119.8 Y114.8 Z0.36 E20.70643 F2400
G0 X119.4 Y114.4 Z0.36 F4800
G1 X100.6 Y114.4 Z0.36 E21.081604 F2400
G1 X100.6 Y105.6 Z0.36 E21.257218 F2400
G1 X119.4 Y105.6 Z0.36 E21.632392 F2400
G1 X119.4 Y114.4 Z0.36 E21.808006 F2400
G0 X119.0 Y114.0 Z0.36 F4800
G1 X101.0 Y114.0 Z0.36 E22.167215 F2400
G1 X101.0 Y106.0 Z0.36 E22.326864 F2400
G1 X119.0 Y106.0 Z0.36 E22.686073 F2400
G1 X119.0 Y114.0 Z0.36 E22.845722 F2400
G0 X118.6 Y113.6 Z0.36 F4800
G1 X101.4 Y113.6 Z0.36 E23.188967 F2400
G1 X101.4 Y106.4 Z0.36 E23.332651 F2400
G1 X118.6 Y106.4 Z0.36 E23.675896 F2400
G1 X118.6 Y113.6 Z0.36 E23.81958 F2400
G0 X118.2 Y113.2 Z0.36 F4800
G1 X101.8 Y113.2 Z0.36 E24.14686 F2400
G1 X101.8 Y106.8 Z0.36 E24.274579 F2400
G1 X118.2 Y106.8 Z0.36 E24.601859 F2400
G1 X118.2 Y113.2 Z0.36 E24.729578 F2400
G0 X117.8 Y112.8 Z0.36 F4800
G1 X102.2 Y112.8 Z0.36 E25.040893 F2400
G1 X102.2 Y107.2 Z0.36 E25.152647 F2400
G1 X117.8 Y107.2 Z0.36 E25.463962 F2400
G1 X117.8 Y112.8 Z0.36 E25.575716 F2400
G0 X117.4 Y112.4 Z0.36 F4800
G1 X102.6 Y112.4 Z0.36 E25.871066 F2400
G1 X102.6 Y107.6 Z0.36 E25.966855 F2400
G1 X117.4 Y107.6 Z0.36 E26.262205 F2400
G1 X117.4 Y112.4 Z0.36 E26.357994 F2400
G0 X117.0 Y112.0 Z0.36 F4800
G1 X103.0 Y112.0 Z0.36 E26.637379 F2400
G1 X103.0 Y108.0 Z0.36 E26.717203 F2400
G1 X117.0 Y108.0 Z0.36 E26.996588 F2400
G1 X117.0 Y112.0 Z0.36 E27.076412 F2400
G0 X116.6 Y111.6 Z0.36 F4800
G1 X103.4 Y111.6 Z0.36 E27.339832 F2400
G1 X103.4 Y108.4 Z0.36 E27.403691 F2400
G1 X116.6 Y108.4 Z0.36 E27.667111 F2400
G1 X116.6 Y111.6 Z0.36 E27.73097 F2400
G0 X116.2 Y111.2 Z0.36 F4800
G1 X103.8 Y111.2 Z0.36 E27.978425 F2400
G1 X103.8 Y108.8 Z0.36 E28.02632 F2400
G1 X116.2 Y108.8 Z0.36 E28.273775 F2400
G1 X116.2 Y111.2 Z0.36 E28.32167 F2400
G0 X115.8 Y110.8 Z0.36 F4800
G1 X104.2 Y110.8 Z0.36 E28.553161 F2400
G1 X104.2 Y109.2 Z0.36 E28.585091 F2400
G1 X115.8 Y109.2 Z0.36 E28.816582 F2400
G1 X115.8 Y110.8 Z0.36 E28.848512 F2400
G0 X115.4 Y110.4 Z0.36 F4800
G1 X104.6 Y110.4 Z0.36 E29.064038 F2400
G1 X104.6 Y109.6 Z0.36 E29.080003 F2400
G1 X115.4 Y109.6 Z0.36 E29.295529 F2400
G1 X115.4 Y110.4 Z0.36 E29.311494 F2400
G1 E21.311494
G0 X119.8 Y114.8 Z0.36 F4800
G0 X119.8 Y114.8 Z0.48 F4800
G1 E29.311494
G1 X100.2 Y114.8 Z0.48 E29.702633 F2400
G1 X100.2 Y105.2 Z0.48 E29.894211 F2400
G1 X119.8 Y105.2 Z0.48 E30.28535 F2400
G1 X119.8 Y114.8 Z0.48 E30.476928 F2400
G0 X119.4 Y114.4 Z0.48 F4800
G1 X100.6 Y114.4 Z0.48 E30.852102 F2400
G1 X100.6 Y105.6 Z0.48 E31.027716 F2400
G1 X119.4 Y105.6 Z0.48 E31.40289 F2400
G1 X119.4 Y114.4 Z0.48 E31.578504 F2400
G0 X119.0 Y114.0 Z0.48 F4800
G1 X101.0 Y114.0 Z0.48 E31.937713 F2400
G1 X101.0 Y106.0 Z0.48 E32.097362 F2400
G1 X119.0 Y106.0 Z0.48 E32.456571 F2400
G1 X119.0 Y114.0 Z0.48 E32.61622 F2400
G0 X118.6 Y113.6 Z0.48 F4800
G1 X101.4 Y113.6 Z0.48 E32.959465 F2400
G1 X101.4 Y106.4 Z0.48 E33.103149 F2400
G1 X118.6 Y106.4 Z0.48 E33.446394 F2400
G1 X118.6 Y113.6 Z0.48 E33.590078 F2400
G0 X118.2 Y113.2 Z0.48 F4800
G1 X101.8 Y113.2 Z0.48 E33.917358 F2400
G1 X101.8 Y106.8 Z0.48 E34.045077 F2400
G1 X118.2 Y106.8 Z0.48 E34.372357 F2400
G1 X118.2 Y113.2 Z0.48 E34.500076 F2400
G0 X117.8 Y112.8 Z0.48 F4800
G1 X102.2 Y112.8 Z0.48 E34.811391 F2400
G1 X102.2 Y107.2 Z0.48 E34.923145 F2400
G1 X117.8 Y107.2 Z0.48 E35.23446 F2400
G1 X117.8 Y112.8 Z0.48 E35.346214 F2400
G0 X117.4 Y112.4 Z0.48 F4800
G1 X102.6 Y112.4 Z0.48 E35.641564 F2400
G1 X102.6 Y107.6 Z0.48 E35.737353 F2400
G1 X117.4 Y107.6 Z0.48 E36.032703 F2400
G1 X117.4 Y112.4 Z0.48 E36.128492 F2400
G0 X117.0 Y112.0 Z0.48 F4800
G1 X103.0 Y112.0 Z0.48 E36.407877 F2400
G1 X103.0 Y108.0 Z0.48 E36.487701 F2400
G1 X117.0 Y108.0 Z0.48 E36.767086 F2400
G1 X117.0 Y112.0 Z0.48 E36.84691 F2400
G0 X116.6 Y111.6 Z0.48 F4800
G1 X103.4 Y111.6 Z0.48 E37.11033 F2400
G1 X103.4 Y108.4 Z0.48 E37.174189 F2400
G1 X116.6 Y108.4 Z0.48 E37.437609 F2400
G1 X116.6 Y111.6 Z0.48 E37.501468 F2400
G0 X116.2 Y111.2 Z0.48 F4800
G1 X103.8 Y111.2 Z0.48 E37.748923 F2400
G1 X103.8 Y108.8 Z0.48 E37.796818 F2400
G1 X116.2 Y108.8 Z0.48 E38.044273 F2400
G1 X116.2 Y111.2 Z0.48 E38.092168 F2400
G0 X115.8 Y110.8 Z0.48 F4800
G1 X104.2 Y110.8 Z0.48 E38.323659 F2400
G1 X104.2 Y109.2 Z0.48 E38.355589 F2400
G1 X115.8 Y109.2 Z0.48 E38.58708 F2400
G1 X115.8 Y110.8 Z0.48 E38.61901 F2400
G0 X115.4 Y110.4 Z0.48 F4800
G1 X104.6 Y110.4 Z0.48 E38.834536 F2400
G1 X104.6 Y109.6 Z0.48 E38.850501 F2400
G1 X115.4 Y109.6 Z0.48 E39.066027 F2400
G1 X115.4 Y110.4 Z0.48 E39.081992 F2400
G1 E31.081992
G0 X119.8 Y114.8 Z0.48 F4800
G0 X119.8 Y114.8 Z0.6 F4800
G1 E39.081992
G1 X100.2 Y114.8 Z0.6 E39.473131 F2400
G1 X100.2 Y105.2 Z0.6 E39.664709 F2400
G1 X119.8 Y105.2 Z0.6 E40.055848 F2400
G1 X119.8 Y114.8 Z0.6 E40.247426 F2400
G0 X119.4 Y114.4 Z0.6 F4800
G1 X100.6 Y114.4 Z0.6 E40.6226 F2400
G1 X100.6 Y105.6 Z0.6 E40.798214 F2400
G1 X119.4 Y105.6 Z0.6 E41.173388 F2400
G1 X119.4 Y114.4 Z0.6 E41.349002 F2400
G0 X119.0 Y114.0 Z0.6 F4800
G1 X101.0 Y114.0 Z0.6 E41.708211 F2400
G1 X101.0 Y106.0 Z0.6 E41.86786 F2400
G1 X119.0 Y106.0 Z0.6 E42.227069 F2400
G1 X119.0 Y114.0 Z0.6 E42.386718 F2400
G0 X118.6 Y113.6 Z0.6 F4800
G1 X101.4 Y113.6 Z0.6 E42.729963 F2400
G1 X101.4 Y106.4 Z0.6 E42.873647 F2400
G1 X118.6 Y106.4 Z0.6 E43.216892 F2400
G1 X118.6 Y113.6 Z0.6 E43.360576 F2400
G0 X118.2 Y113.2 Z0.6 F4800
G1 X101.8 Y113.2 Z0.6 E43.687856 F2400
G1 X101.8 Y106.8 Z0.6 E43.815575 F2400
G1 X118.2 Y106.8 Z0.6 E44.142855 F2400
G1 X118.2 Y113.2 Z0.6 E44.270574 F2400
G0 X117.8 Y112.8 Z0.6 F4800
G1 X102.2 Y112.8 Z0.6 E44.581889 F2400
G1 X102.2 Y107.2 Z0.6 E44.693643 F2400
G1 X117.8 Y107.2 Z0.6 E45.004958 F2400
G1 X117.8 Y112.8 Z0.6 E45.116712 F2400
G0 X117.4 Y112.4 Z0.6 F4800
G1 X102.6 Y112.4 Z0.6 E45.412062 F2400
G1 X102.6 Y107.6 Z0.6 E45.507851 F2400
G1 X117.4 Y107.6 Z0.6 E45.803201 F2400
G1 X117.4 Y112.4 Z0.6 E45.89899 F2400
G0 X117.0 Y112.0 Z0.6 F4800
G1 X103.0 Y112.0 Z0.6 E46.178375 F2400
G1 X103.0 Y108.0 Z0.6 E46.258199 F2400
G1 X117.0 Y108.0 Z0.6 E46.537584 F2400
G1 X117.0 Y112.0 Z0.6 E46.617408 F2400
G0 X116.6 Y111.6 Z0.6 F4800
G1 X103.4 Y111.6 Z0.6 E46.880828 F2400
G1 X103.4 Y108.4 Z0.6 E46.944687 F2400
G1 X116.6 Y108.4 Z0.6 E47.208107 F2400
G1 X116.6 Y111.6 Z0.6 E47.271966 F2400
G0 X116.2 Y111.2 Z0.6 F4800
G1 X103.8 Y111.2 Z0.6 E47.519421 F2400
G1 X103.8 Y108.8 Z0.6 E47.567316 F2400
G1 X116.2 Y108.8 Z0.6 E47.814771 F2400
G1 X116.2 Y111.2 Z0.6 E47.862666 F2400
G0 X115.8 Y110.8 Z0.6 F4800
G1 X104.2 Y110.8 Z0.6 E48.094157 F2400
G1 X104.2 Y109.2 Z0.6 E48.126087 F2400
G1 X115.8 Y109.2 Z0.6 E48.357578 F2400
G1 X115.8 Y110.8 Z0.6 E48.389508 F2400
G0 X115.4 Y110.4 Z0.6 F4800
G1 X104.6 Y110.4 Z0.6 E48.605034 F2400
G1 X104.6 Y109.6 Z0.6 E48.620999 F2400
G1 X115.4 Y109.6 Z0.6 E48.836525 F2400
G1 X115.4 Y110.4 Z0.6 E48.85249 F2400
G1 E40.85249
G0 X119.8 Y114.8 Z0.6 F4800
G0 X119.8 Y114.8 Z0.72 F4800
G1 E48.85249
G1 X100.2 Y114.8 Z0.72 E49.243629 F2400
G1 X100.2 Y105.2 Z0.72 E49.435207 F2400
G1 X119.8 Y105.2 Z0.72 E49.826346 F2400
G1 X119.8 Y114.8 Z0.72 E50.017924 F2400
G0 X119.4 Y114.4 Z0.72 F4800
G1 X100.6 Y114.4 Z0.72 E50.393098 F2400
G1 X100.6 Y105.6 Z0.72 E50.568712 F2400
G1 X119.4 Y105.6 Z0.72 E50.943886 F2400
G1 X119.4 Y114.4 Z0.72 E51.1195 F2400
G0 X119.0 Y114.0 Z0.72 F4800
G1 X101.0 Y114.0 Z0.72 E51.478709 F2400
G1 X101.0 Y106.0 Z0.72 E51.638358 F2400
G1 X119.0 Y106.0 Z0.72 E51.997567 F2400
G1 X119.0 Y114.0 Z0.72 E52.157216 F2400
G0 X118.6 Y113.6 Z0.72 F4800
G1 X101.4 Y113.6 Z0.72 E52.500461 F2400
G1 X101.4 Y106.4 Z0.72 E52.644145 F2400
G1 X118.6 Y106.4 Z0.72 E52.98739 F2400
G1 X118.6 Y113.6 Z0.72 E53.131074 F2400
G0 X118.2 Y113.2 Z0.72 F4800
G1 X101.8 Y113.2 Z0.72 E53.458354 F2400
G1 X101.8 Y106.8 Z0.72 E53.586073 F2400
G1 X118.2 Y106.8 Z0.72 E53.913353 F2400
G1 X118.2 Y113.2 Z0.72 E54.041072 F2400
G0 X117.8 Y112.8 Z0.72 F4800
G1 X102.2 Y112.8 Z0.72 E54.352387 F2400
G1 X102.2 Y107.2 Z0.72 E54.464141 F2400
G1 X117.8 Y107.2 Z0.72 E54.775456 F2400
G1 X117.8 Y112.8 Z0.72 E54.88721 F2400
G0 X117.4 Y112.4 Z0.72 F4800
G1 X102.6 Y112.4 Z0.72 E55.18256 F2400
G1 X102.6 Y107.6 Z0.72 E55.278349 F2400
G1 X117.4 Y107.6 Z0.72 E55.573699 F2400
G1 X117.4 Y112.4 Z0.72 E55.669488 F2400
G0 X117.0 Y112.0 Z0.72 F4800
G1 X103.0 Y112.0 Z0.72 E55.948873 F2400
G1 X103.0 Y108.0 Z0.72 E56.028697 F2400
G1 X117.0 Y108.0 Z0.72 E56.308082 F2400
G1 X117.0 Y112.0 Z0.72 E56.387906 F2400
G0 X116.6 Y111.6 Z0.72 F4800
G1 X103.4 Y111.6 Z0.72 E56.651326 F2400
G1 X103.4 Y108.4 Z0.72 E56.715185 F2400
G1 X116.6 Y108.4 Z0.72 E56.978605 F2400
G1 X116.6 Y111.6 Z0.72 E57.042464 F2400
G0 X116.2 Y111.2 Z0.72 F4800
G1 X103.8 Y111.2 Z0.72 E57.289919 F2400
G1 X103.8 Y108.8 Z0.72 E57.337814 F2400
G1 X116.2 Y108.8 Z0.72 E57.585269 F2400
G1 X116.2 Y111.2 Z0.72 E57.633164 F2400
G0 X115.8 Y110.8 Z0.72 F4800
G1 X104.2 Y110.8 Z0.72 E57.864655 F2400
G1 X104.2 Y109.2 Z0.72 E57.896585 F2400
G1 X115.8 Y109.2 Z0.72 E58.128076 F2400
G1 X115.8 Y110.8 Z0.72 E58.160006 F2400
G0 X115.4 Y110.4 Z0.72 F4800
G1 X104.6 Y110.4 Z0.72 E58.375532 F2400
G1 X104.6 Y109.6 Z0.72 E58.391497 F2400
G1 X115.4 Y109.6 Z0.72 E58.607023 F2400
G1 X115.4 Y110.4 Z0.72 E58.622988 F2400
G1 E50.622988
G0 X119.8 Y114.8 Z0.72 F4800
G0 X119.8 Y114.8 Z0.84 F4800
G1 E58.622988
G1 X100.2 Y114.8 Z0.84 E59.014127 F2400
G1 X100.2 Y105.2 Z0.84 E59.205705 F2400
G1 X119.8 Y105.2 Z0.84 E59.596844 F2400
G1 X119.8 Y114.8 Z0.84 E59.788422 F2400
G0 X119.4 Y114.4 Z0.84 F4800
G1 X100.6 Y114.4 Z0.84 E60.163596 F2400
G1 X100.6 Y105.6 Z0.84 E60.33921 F2400
G1 X119.4 Y105.6 Z0.84 E60.714384 F2400
G1 X119.4 Y114.4 Z0.84 E60.889998 F2400
G0 X119.0 Y114.0 Z0.84 F4800
G1 X101.0 Y114.0 Z0.84 E61.249207 F2400
G1 X101.0 Y106.0 Z0.84 E61.408856 F2400
G1 X119.0 Y106.0 Z0.84 E61.768065 F2400
G1 X119.0 Y114.0 Z0.84 E61.927714 F2400
G0 X118.6 Y113.6 Z0.84 F4800
G1 X101.4 Y113.6 Z0.84 E62.270959 F2400
G1 X101.4 Y106.4 Z0.84 E62.414643 F2400
G1 X118.6 Y106.4 Z0.84 E62.757888 F2400
G1 X118.6 Y113.6 Z0.84 E62.901572 F2400
G0 X118.2 Y113.2 Z0.84 F4800
G1 X101.8 Y113.2 Z0.84 E63.228852 F2400
G1 X101.8 Y106.8 Z0.84 E63.356571 F2400
G1 X118.2 Y106.8 Z0.84 E63.683851 F2400
G1 X118.2 Y113.2 Z0.84 E63.81157 F2400
G0 X117.8 Y112.8 Z0.84 F4800
G1 X102.2 Y112.8 Z0.84 E64.122885 F2400
G1 X102.2 Y107.2 Z0.84 E64.234639 F2400
G1 X117.8 Y107.2 Z0.84 E64.545954 F2400
G1 X117.8 Y112.8 Z0.84 E64.657708 F2400
G0 X117.4 Y112.4 Z0.84 F4800
G1 X102.6 Y112.4 Z0.84 E64.953058 F2400
G1 X102.6 Y107.6 Z0.84 E65.048847 F2400
G1 X117.4 Y107.6 Z0.84 E65.344197 F2400
G1 X117.4 Y112.4 Z0.84 E65.439986 F2400
G0 X117.0 Y112.0 Z0.84 F4800
G1 X103.0 Y112.0 Z0.84 E65.719371 F2400
G1 X103.0 Y108.0 Z0.84 E65.799195 F2400
