;FLAVOR:Marlin 
;Layer height: 0.12 
;Generated with Cura_SteamEngine 4.9.0 
M140 S55
M105 
M190 S55
M140 S65
M104 S205
M105 
M109 S205
M190 S65
M82 ;absolute extrusion mode 
; Ender 3 Custom Start G-code 
G92 E0 ; Reset Extruder 
G1 X0 Y0 Z10 F3000
G1 Z2.0 F3000 ; Move Z Axis up little to prevent scratching of Heat Bed 
G1 X0.1 Y20 Z0.3 F5000.0 ; Move to start position 
G1 X0.1 Y200.0 Z0.3 F1500.0 E15 ; Draw the first line 
G1 X0.4 Y200.0 Z0.3 F5000.0 ; Move to side a little 
G1 X0.4 Y20 Z0.3 F1500.0 E30 ; Draw the second line 
G92 E0 ; Reset Extruder 
G1 Z2.0 F3000 ; Move Z Axis up little to prevent scratching of Heat Bed 
G1 X5 Y20 Z0.3 F5000.0 ; Move over to prevent blob squish 
G92 E0 
G92 E0 
G1 F3000 E-8 
G0 X119.75 Y114.75 Z0.24 F2400
G1 E0.0
G1 X100.25 Y114.75 Z0.24 E0.972859 F1200
G1 X100.25 Y105.25 Z0.24 E1.446816 F1200
G1 X119.75 Y105.25 Z0.24 E2.419675 F1200
G1 X119.75 Y114.75 Z0.24 E2.893632 F1200
G0 X119.25 Y114.25 Z0.24 F2400
G1 X100.75 Y114.25 Z0.24 E3.816601 F1200
G1 X100.75 Y105.75 Z0.24 E4.240668 F1200
G1 X119.25 Y105.75 Z0.24 E5.163637 F1200
G1 X119.25 Y114.25 Z0.24 E5.587704 F1200
G0 X118.75 Y113.75 Z0.24 F2400
G1 X101.25 Y113.75 Z0.24 E6.460783 F1200
G1 X101.25 Y106.25 Z0.24 E6.83496 F1200
G1 X118.75 Y106.25 Z0.24 E7.708039 F1200
G1 X118.75 Y113.75 Z0.24 E8.082216 F1200
G0 X118.25 Y113.25 Z0.24 F2400
G1 X101.75 Y113.25 Z0.24 E8.905404 F1200
G1 X101.75 Y106.75 Z0.24 E9.22969 F1200
G1 X118.25 Y106.75 Z0.24 E10.052878 F1200
G1 X118.25 Y113.25 Z0.24 E10.377164 F1200
G0 X117.75 Y112.75 Z0.24 F2400
G1 X102.25 Y112.75 Z0.24 E11.150462 F1200
G1 X102.25 Y107.25 Z0.24 E11.424858 F1200
G1 X117.75 Y107.25 Z0.24 E12.198156 F1200
G1 X117.75 Y112.75 Z0.24 E12.472552 F1200
G0 X117.25 Y112.25 Z0.24 F2400
G1 X102.75 Y112.25 Z0.24 E13.19596 F1200
G1 X102.75 Y107.75 Z0.24 E13.420466 F1200
G1 X117.25 Y107.75 Z0.24 E14.143874 F1200
G1 X117.25 Y112.25 Z0.24 E14.36838 F1200
G0 X116.75 Y111.75 Z0.24 F2400
G1 X103.25 Y111.75 Z0.24 E15.041898 F1200
G1 X103.25 Y108.25 Z0.24 E15.216514 F1200
G1 X116.75 Y108.25 Z0.24 E15.890032 F1200
G1 X116.75 Y111.75 Z0.24 E16.064648 F1200
G0 X116.25 Y111.25 Z0.24 F2400
G1 X103.75 Y111.25 Z0.24 E16.688276 F1200
G1 X103.75 Y108.75 Z0.24 E16.813002 F1200
G1 X116.25 Y108.75 Z0.24 E17.43663 F1200
G1 X116.25 Y111.25 Z0.24 E17.561356 F1200
G0 X115.75 Y110.75 Z0.24 F2400
G1 X104.25 Y110.75 Z0.24 E18.135093 F1200
G1 X104.25 Y109.25 Z0.24 E18.209928 F1200
G1 X115.75 Y109.25 Z0.24 E18.783665 F1200
G1 X115.75 Y110.75 Z0.24 E18.8585 F1200
G0 X115.25 Y110.25 Z0.24 F2400
G1 X104.75 Y110.25 Z0.24 E19.382347 F1200
G1 X104.75 Y109.75 Z0.24 E19.407292 F1200
G1 X115.25 Y109.75 Z0.24 E19.931139 F1200
G1 X115.25 Y110.25 Z0.24 E19.956084 F1200
G1 E11.956084
M104 S200
M140 S60
G0 X119.8 Y114.8 Z0.24 F4800
G0 X119.8 Y114.8 Z0.36 F4800
G1 E19.956084
G1 X100.2 Y114.8 Z0.36 E20.347223 F2400
G1 X100.2 Y105.2 Z0.36 E20.538801 F2400
G1 X119.8 Y105.2 Z0.36 E20.92994 F2400
G1 X119.8 Y114.8 Z0.36 E21.121518 F2400
G0 X119.4 Y114.4 Z0.36 F4800
G1 X100.6 Y114.4 Z0.36 E21.496692 F2400
G1 X100.6 Y105.6 Z0.36 E21.672306 F2400
G1 X119.4 Y105.6 Z0.36 E22.04748 F2400
G1 X119.4 Y114.4 Z0.36 E22.223094 F2400
G0 X119.0 Y114.0 Z0.36 F4800
G1 X101.0 Y114.0 Z0.36 E22.582303 F2400
G1 X101.0 Y106.0 Z0.36 E22.741952 F2400
G1 X119.0 Y106.0 Z0.36 E23.101161 F2400
G1 X119.0 Y114.0 Z0.36 E23.26081 F2400
G0 X118.6 Y113.6 Z0.36 F4800
G1 X101.4 Y113.6 Z0.36 E23.604055 F2400
G1 X101.4 Y106.4 Z0.36 E23.747739 F2400
G1 X118.6 Y106.4 Z0.36 E24.090984 F2400
G1 X118.6 Y113.6 Z0.36 E24.234668 F2400
G0 X118.2 Y113.2 Z0.36 F4800
G1 X101.8 Y113.2 Z0.36 E24.561948 F2400
G1 X101.8 Y106.8 Z0.36 E24.689667 F2400
G1 X118.2 Y106.8 Z0.36 E25.016947 F2400
G1 X118.2 Y113.2 Z0.36 E25.144666 F2400
G0 X117.8 Y112.8 Z0.36 F4800
G1 X102.2 Y112.8 Z0.36 E25.455981 F2400
G1 X102.2 Y107.2 Z0.36 E25.567735 F2400
G1 X117.8 Y107.2 Z0.36 E25.87905 F2400
G1 X117.8 Y112.8 Z0.36 E25.990804 F2400
G0 X117.4 Y112.4 Z0.36 F4800
G1 X102.6 Y112.4 Z0.36 E26.286154 F2400
G1 X102.6 Y107.6 Z0.36 E26.381943 F2400
G1 X117.4 Y107.6 Z0.36 E26.677293 F2400
G1 X117.4 Y112.4 Z0.36 E26.773082 F2400
G0 X117.0 Y112.0 Z0.36 F4800
G1 X103.0 Y112.0 Z0.36 E27.052467 F2400
G1 X103.0 Y108.0 Z0.36 E27.132291 F2400
G1 X117.0 Y108.0 Z0.36 E27.411676 F2400
G1 X117.0 Y112.0 Z0.36 E27.4915 F2400
G0 X116.6 Y111.6 Z0.36 F4800
G1 X103.4 Y111.6 Z0.36 E27.75492 F2400
G1 X103.4 Y108.4 Z0.36 E27.818779 F2400
G1 X116.6 Y108.4 Z0.36 E28.082199 F2400
G1 X116.6 Y111.6 Z0.36 E28.146058 F2400
G0 X116.2 Y111.2 Z0.36 F4800
G1 X103.8 Y111.2 Z0.36 E28.393513 F2400
G1 X103.8 Y108.8 Z0.36 E28.441408 F2400
G1 X116.2 Y108.8 Z0.36 E28.688863 F2400
G1 X116.2 Y111.2 Z0.36 E28.736758 F2400
G0 X115.8 Y110.8 Z0.36 F4800
G1 X104.2 Y110.8 Z0.36 E28.968249 F2400
G1 X104.2 Y109.2 Z0.36 E29.000179 F2400
G1 X115.8 Y109.2 Z0.36 E29.23167 F2400
G1 X115.8 Y110.8 Z0.36 E29.2636 F2400
G0 X115.4 Y110.4 Z0.36 F4800
G1 X104.6 Y110.4 Z0.36 E29.479126 F2400
G1 X104.6 Y109.6 Z0.36 E29.495091 F2400
G1 X115.4 Y109.6 Z0.36 E29.710617 F2400
G1 X115.4 Y110.4 Z0.36 E29.726582 F2400
G1 E21.726582
G0 X119.8 Y114.8 Z0.36 F4800
G0 X119.8 Y114.8 Z0.48 F4800
G1 E29.726582
G1 X100.2 Y114.8 Z0.48 E30.117721 F2400
G1 X100.2 Y105.2 Z0.48 E30.309299 F2400
G1 X119.8 Y105.2 Z0.48 E30.700438 F2400
G1 X119.8 Y114.8 Z0.48 E30.892016 F2400
G0 X119.4 Y114.4 Z0.48 F4800
G1 X100.6 Y114.4 Z0.48 E31.26719 F2400
G1 X100.6 Y105.6 Z0.48 E31.442804 F2400
G1 X119.4 Y105.6 Z0.48 E31.817978 F2400
G1 X119.4 Y114.4 Z0.48 E31.993592 F2400
G0 X119.0 Y114.0 Z0.48 F4800
G1 X101.0 Y114.0 Z0.48 E32.352801 F2400
G1 X101.0 Y106.0 Z0.48 E32.51245 F2400
G1 X119.0 Y106.0 Z0.48 E32.871659 F2400
G1 X119.0 Y114.0 Z0.48 E33.031308 F2400
G0 X118.6 Y113.6 Z0.48 F4800
G1 X101.4 Y113.6 Z0.48 E33.374553 F2400
G1 X101.4 Y106.4 Z0.48 E33.518237 F2400
G1 X118.6 Y106.4 Z0.48 E33.861482 F2400
G1 X118.6 Y113.6 Z0.48 E34.005166 F2400
G0 X118.2 Y113.2 Z0.48 F4800
G1 X101.8 Y113.2 Z0.48 E34.332446 F2400
G1 X101.8 Y106.8 Z0.48 E34.460165 F2400
G1 X118.2 Y106.8 Z0.48 E34.787445 F2400
G1 X118.2 Y113.2 Z0.48 E34.915164 F2400
G0 X117.8 Y112.8 Z0.48 F4800
G1 X102.2 Y112.8 Z0.48 E35.226479 F2400
G1 X102.2 Y107.2 Z0.48 E35.338233 F2400
G1 X117.8 Y107.2 Z0.48 E35.649548 F2400
G1 X117.8 Y112.8 Z0.48 E35.761302 F2400
G0 X117.4 Y112.4 Z0.48 F4800
G1 X102.6 Y112.4 Z0.48 E36.056652 F2400
G1 X102.6 Y107.6 Z0.48 E36.152441 F2400
G1 X117.4 Y107.6 Z0.48 E36.447791 F2400
G1 X117.4 Y112.4 Z0.48 E36.54358 F2400
G0 X117.0 Y112.0 Z0.48 F4800
G1 X103.0 Y112.0 Z0.48 E36.822965 F2400
G1 X103.0 Y108.0 Z0.48 E36.902789 F2400
G1 X117.0 Y108.0 Z0.48 E37.182174 F2400
G1 X117.0 Y112.0 Z0.48 E37.261998 F2400
G0 X116.6 Y111.6 Z0.48 F4800
G1 X103.4 Y111.6 Z0.48 E37.525418 F2400
G1 X103.4 Y108.4 Z0.48 E37.589277 F2400
G1 X116.6 Y108.4 Z0.48 E37.852697 F2400
G1 X116.6 Y111.6 Z0.48 E37.916556 F2400
G0 X116.2 Y111.2 Z0.48 F4800
G1 X103.8 Y111.2 Z0.48 E38.164011 F2400
G1 X103.8 Y108.8 Z0.48 E38.211906 F2400
G1 X116.2 Y108.8 Z0.48 E38.459361 F2400
G1 X116.2 Y111.2 Z0.48 E38.507256 F2400
G0 X115.8 Y110.8 Z0.48 F4800
G1 X104.2 Y110.8 Z0.48 E38.738747 F2400
G1 X104.2 Y109.2 Z0.48 E38.770677 F2400
G1 X115.8 Y109.2 Z0.48 E39.002168 F2400
G1 X115.8 Y110.8 Z0.48 E39.034098 F2400
G0 X115.4 Y110.4 Z0.48 F4800
G1 X104.6 Y110.4 Z0.48 E39.249624 F2400
G1 X104.6 Y109.6 Z0.48 E39.265589 F2400
G1 X115.4 Y109.6 Z0.48 E39.481115 F2400
G1 X115.4 Y110.4 Z0.48 E39.49708 F2400
G1 E31.497079999999997
G0 X119.8 Y114.8 Z0.48 F4800
G0 X119.8 Y114.8 Z0.6 F4800
G1 E39.49708
G1 X100.2 Y114.8 Z0.6 E39.888219 F2400
G1 X100.2 Y105.2 Z0.6 E40.079797 F2400
G1 X119.8 Y105.2 Z0.6 E40.470936 F2400
G1 X119.8 Y114.8 Z0.6 E40.662514 F2400
G0 X119.4 Y114.4 Z0.6 F4800
G1 X100.6 Y114.4 Z0.6 E41.037688 F2400
G1 X100.6 Y105.6 Z0.6 E41.213302 F2400
G1 X119.4 Y105.6 Z0.6 E41.588476 F2400
G1 X119.4 Y114.4 Z0.6 E41.76409 F2400
G0 X119.0 Y114.0 Z0.6 F4800
G1 X101.0 Y114.0 Z0.6 E42.123299 F2400
G1 X101.0 Y106.0 Z0.6 E42.282948 F2400
G1 X119.0 Y106.0 Z0.6 E42.642157 F2400
G1 X119.0 Y114.0 Z0.6 E42.801806 F2400
G0 X118.6 Y113.6 Z0.6 F4800
G1 X101.4 Y113.6 Z0.6 E43.145051 F2400
G1 X101.4 Y106.4 Z0.6 E43.288735 F2400
G1 X118.6 Y106.4 Z0.6 E43.63198 F2400
G1 X118.6 Y113.6 Z0.6 E43.775664 F2400
G0 X118.2 Y113.2 Z0.6 F4800
G1 X101.8 Y113.2 Z0.6 E44.102944 F2400
G1 X101.8 Y106.8 Z0.6 E44.230663 F2400
G1 X118.2 Y106.8 Z0.6 E44.557943 F2400
G1 X118.2 Y113.2 Z0.6 E44.685662 F2400
G0 X117.8 Y112.8 Z0.6 F4800
G1 X102.2 Y112.8 Z0.6 E44.996977 F2400
G1 X102.2 Y107.2 Z0.6 E45.108731 F2400
G1 X117.8 Y107.2 Z0.6 E45.420046 F2400
G1 X117.8 Y112.8 Z0.6 E45.5318 F2400
G0 X117.4 Y112.4 Z0.6 F4800
G1 X102.6 Y112.4 Z0.6 E45.82715 F2400
G1 X102.6 Y107.6 Z0.6 E45.922939 F2400
G1 X117.4 Y107.6 Z0.6 E46.218289 F2400
G1 X117.4 Y112.4 Z0.6 E46.314078 F2400
G0 X117.0 Y112.0 Z0.6 F4800
G1 X103.0 Y112.0 Z0.6 E46.593463 F2400
G1 X103.0 Y108.0 Z0.6 E46.673287 F2400
G1 X117.0 Y108.0 Z0.6 E46.952672 F2400
G1 X117.0 Y112.0 Z0.6 E47.032496 F2400
G0 X116.6 Y111.6 Z0.6 F4800
G1 X103.4 Y111.6 Z0.6 E47.295916 F2400
G1 X103.4 Y108.4 Z0.6 E47.359775 F2400
G1 X116.6 Y108.4 Z0.6 E47.623195 F2400
G1 X116.6 Y111.6 Z0.6 E47.687054 F2400
G0 X116.2 Y111.2 Z0.6 F4800
G1 X103.8 Y111.2 Z0.6 E47.934509 F2400
G1 X103.8 Y108.8 Z0.6 E47.982404 F2400
G1 X116.2 Y108.8 Z0.6 E48.229859 F2400
G1 X116.2 Y111.2 Z0.6 E48.277754 F2400
G0 X115.8 Y110.8 Z0.6 F4800
G1 X104.2 Y110.8 Z0.6 E48.509245 F2400
G1 X104.2 Y109.2 Z0.6 E48.541175 F2400
G1 X115.8 Y109.2 Z0.6 E48.772666 F2400
G1 X115.8 Y110.8 Z0.6 E48.804596 F2400
G0 X115.4 Y110.4 Z0.6 F4800
G1 X104.6 Y110.4 Z0.6 E49.020122 F2400
G1 X104.6 Y109.6 Z0.6 E49.036087 F2400
G1 X115.4 Y109.6 Z0.6 E49.251613 F2400
G1 X115.4 Y110.4 Z0.6 E49.267578 F2400
G1 E41.267578
G0 X119.8 Y114.8 Z0.6 F4800
G0 X119.8 Y114.8 Z0.72 F4800
G1 E49.267578
G1 X100.2 Y114.8 Z0.72 E49.658717 F2400
G1 X100.2 Y105.2 Z0.72 E49.850295 F2400
G1 X119.8 Y105.2 Z0.72 E50.241434 F2400
G1 X119.8 Y114.8 Z0.72 E50.433012 F2400
G0 X119.4 Y114.4 Z0.72 F4800
G1 X100.6 Y114.4 Z0.72 E50.808186 F2400
G1 X100.6 Y105.6 Z0.72 E50.9838 F2400
G1 X119.4 Y105.6 Z0.72 E51.358974 F2400
G1 X119.4 Y114.4 Z0.72 E51.534588 F2400
G0 X119.0 Y114.0 Z0.72 F4800
G1 X101.0 Y114.0 Z0.72 E51.893797 F2400
G1 X101.0 Y106.0 Z0.72 E52.053446 F2400
G1 X119.0 Y106.0 Z0.72 E52.412655 F2400
G1 X119.0 Y114.0 Z0.72 E52.572304 F2400
G0 X118.6 Y113.6 Z0.72 F4800
G1 X101.4 Y113.6 Z0.72 E52.915549 F2400
G1 X101.4 Y106.4 Z0.72 E53.059233 F2400
G1 X118.6 Y106.4 Z0.72 E53.402478 F2400
G1 X118.6 Y113.6 Z0.72 E53.546162 F2400
G0 X118.2 Y113.2 Z0.72 F4800
G1 X101.8 Y113.2 Z0.72 E53.873442 F2400
G1 X101.8 Y106.8 Z0.72 E54.001161 F2400
G1 X118.2 Y106.8 Z0.72 E54.328441 F2400
G1 X118.2 Y113.2 Z0.72 E54.45616 F2400
G0 X117.8 Y112.8 Z0.72 F4800
G1 X102.2 Y112.8 Z0.72 E54.767475 F2400
G1 X102.2 Y107.2 Z0.72 E54.879229 F2400
G1 X117.8 Y107.2 Z0.72 E55.190544 F2400
G1 X117.8 Y112.8 Z0.72 E55.302298 F2400
G0 X117.4 Y112.4 Z0.72 F4800
G1 X102.6 Y112.4 Z0.72 E55.597648 F2400
G1 X102.6 Y107.6 Z0.72 E55.693437 F2400
G1 X117.4 Y107.6 Z0.72 E55.988787 F2400
G1 X117.4 Y112.4 Z0.72 E56.084576 F2400
G0 X117.0 Y112.0 Z0.72 F4800
G1 X103.0 Y112.0 Z0.72 E56.363961 F2400
G1 X103.0 Y108.0 Z0.72 E56.443785 F2400
G1 X117.0 Y108.0 Z0.72 E56.72317 F2400
G1 X117.0 Y112.0 Z0.72 E56.802994 F2400
G0 X116.6 Y111.6 Z0.72 F4800
G1 X103.4 Y111.6 Z0.72 E57.066414 F2400
G1 X103.4 Y108.4 Z0.72 E57.130273 F2400
G1 X116.6 Y108.4 Z0.72 E57.393693 F2400
G1 X116.6 Y111.6 Z0.72 E57.457552 F2400
G0 X116.2 Y111.2 Z0.72 F4800
G1 X103.8 Y111.2 Z0.72 E57.705007 F2400
G1 X103.8 Y108.8 Z0.72 E57.752902 F2400
G1 X116.2 Y108.8 Z0.72 E58.000357 F2400
G1 X116.2 Y111.2 Z0.72 E58.048252 F2400
G0 X115.8 Y110.8 Z0.72 F4800
G1 X104.2 Y110.8 Z0.72 E58.279743 F2400
G1 X104.2 Y109.2 Z0.72 E58.311673 F2400
G1 X115.8 Y109.2 Z0.72 E58.543164 F2400
G1 X115.8 Y110.8 Z0.72 E58.575094 F2400
G0 X115.4 Y110.4 Z0.72 F4800
G1 X104.6 Y110.4 Z0.72 E58.79062 F2400
G1 X104.6 Y109.6 Z0.72 E58.806585 F2400
G1 X115.4 Y109.6 Z0.72 E59.022111 F2400
G1 X115.4 Y110.4 Z0.72 E59.038076 F2400
G1 E51.038076
G0 X119.8 Y114.8 Z0.72 F4800
G0 X119.8 Y114.8 Z0.84 F4800
G1 E59.038076
G1 X100.2 Y114.8 Z0.84 E59.429215 F2400
G1 X100.2 Y105.2 Z0.84 E59.620793 F2400
G1 X119.8 Y105.2 Z0.84 E60.011932 F2400
G1 X119.8 Y114.8 Z0.84 E60.20351 F2400
G0 X119.4 Y114.4 Z0.84 F4800
G1 X100.6 Y114.4 Z0.84 E60.578684 F2400
G1 X100.6 Y105.6 Z0.84 E60.754298 F2400
G1 X119.4 Y105.6 Z0.84 E61.129472 F2400
G1 X119.4 Y114.4 Z0.84 E61.305086 F2400
G0 X119.0 Y114.0 Z0.84 F4800
G1 X101.0 Y114.0 Z0.84 E61.664295 F2400
G1 X101.0 Y106.0 Z0.84 E61.823944 F2400
G1 X119.0 Y106.0 Z0.84 E62.183153 F2400
G1 X119.0 Y114.0 Z0.84 E62.342802 F2400
G0 X118.6 Y113.6 Z0.84 F4800
G1 X101.4 Y113.6 Z0.84 E62.686047 F2400
G1 X101.4 Y106.4 Z0.84 E62.829731 F2400
G1 X118.6 Y106.4 Z0.84 E63.172976 F2400
G1 X118.6 Y113.6 Z0.84 E63.31666 F2400
G0 X118.2 Y113.2 Z0.84 F4800
G1 X101.8 Y113.2 Z0.84 E63.64394 F2400
G1 X101.8 Y106.8 Z0.84 E63.771659 F2400
G1 X118.2 Y106.8 Z0.84 E64.098939 F2400
G1 X118.2 Y113.2 Z0.84 E64.226658 F2400
G0 X117.8 Y112.8 Z0.84 F4800
G1 X102.2 Y112.8 Z0.84 E64.537973 F2400
G1 X102.2 Y107.2 Z0.84 E64.649727 F2400
G1 X117.8 Y107.2 Z0.84 E64.961042 F2400
G1 X117.8 Y112.8 Z0.84 E65.072796 F2400
G0 X117.4 Y112.4 Z0.84 F4800
G1 X102.6 Y112.4 Z0.84 E65.368146 F2400
G1 X102.6 Y107.6 Z0.84 E65.463935 F2400
G1 X117.4 Y107.6 Z0.84 E65.759285 F2400
G1 X117.4 Y112.4 Z0.84 E65.855074 F2400
G0 X117.0 Y112.0 Z0.84 F4800
G1 X103.0 Y112.0 Z0.84 E66.134459 F2400
G1 X103.0 Y108.0 Z0.84 E66.214283 F2400
G1 X117.0 Y108.0 Z0.84 E66.493668 F2400
G1 X117.0 Y112.0 Z0.84 E66.573492 F2400
G0 X116.6 Y111.6 Z0.84 F4800
G1 X103.4 Y111.6 Z0.84 E66.836912 F2400
G1 X103.4 Y108.4 Z0.84 E66.900771 F2400
G1 X116.6 Y108.4 Z0.84 E67.164191 F2400
G1 X116.6 Y111.6 Z0.84 E67.22805 F2400
G0 X116.2 Y111.2 Z0.84 F4800
G1 X103.8 Y111.2 Z0.84 E67.475505 F2400
G1 X103.8 Y108.8 Z0.84 E67.5234 F2400
G1 X116.2 Y108.8 Z0.84 E67.770855 F2400
G1 X116.2 Y111.2 Z0.84 E67.81875 F2400
G0 X115.8 Y110.8 Z0.84 F4800
G1 X104.2 Y110.8 Z0.84 E68.050241 F2400
G1 X104.2 Y109.2 Z0.84 E68.082171 F2400
G1 X115.8 Y109.2 Z0.84 E68.313662 F2400
G1 X115.8 Y110.8 Z0.84 E68.345592 F2400
G0 X115.4 Y110.4 Z0.84 F4800
G1 X104.6 Y110.4 Z0.84 E68.561118 F2400
G1 X104.6 Y109.6 Z0.84 E68.577083 F2400
G1 X115.4 Y109.6 Z0.84 E68.792609 F2400
G1 X115.4 Y110.4 Z0.84 E68.808574 F2400
G1 E60.80857399999999
G0 X119.8 Y114.8 Z0.84 F4800
G0 X119.8 Y114.8 Z0.96 F4800
G1 E68.808574
G1 X100.2 Y114.8 Z0.96 E69.199713 F2400
G1 X100.2 Y105.2 Z0.96 E69.391291 F2400
G1 X119.8 Y105.2 Z0.96 E69.78243 F2400
G1 X119.8 Y114.8 Z0.96 E69.974008 F2400
G0 X119.4 Y114.4 Z0.96 F4800
G1 X100.6 Y114.4 Z0.96 E70.349182 F2400
G1 X100.6 Y105.6 Z0.96 E70.524796 F2400
G1 X119.4 Y105.6 Z0.96 E70.89997 F2400
G1 X119.4 Y114.4 Z0.96 E71.075584 F2400
G0 X119.0 Y114.0 Z0.96 F4800
G1 X101.0 Y114.0 Z0.96 E71.434793 F2400
G1 X101.0 Y106.0 Z0.96 E71.594442 F2400
G1 X119.0 Y106.0 Z0.96 E71.953651 F2400
G1 X119.0 Y114.0 Z0.96 E72.1133 F2400
G0 X118.6 Y113.6 Z0.96 F4800
G1 X101.4 Y113.6 Z0.96 E72.456545 F2400
G1 X101.4 Y106.4 Z0.96 E72.600229 F2400
G1 X118.6 Y106.4 Z0.96 E72.943474 F2400
G1 X118.6 Y113.6 Z0.96 E73.087158 F2400
G0 X118.2 Y113.2 Z0.96 F4800
G1 X101.8 Y113.2 Z0.96 E73.414438 F2400
G1 X101.8 Y106.8 Z0.96 E73.542157 F2400
G1 X118.2 Y106.8 Z0.96 E73.869437 F2400
G1 X118.2 Y113.2 Z0.96 E73.997156 F2400
G0 X117.8 Y112.8 Z0.96 F4800
G1 X102.2 Y112.8 Z0.96 E74.308471 F2400
G1 X102.2 Y107.2 Z0.96 E74.420225 F2400
G1 X117.8 Y107.2 Z0.96 E74.73154 F2400
G1 X117.8 Y112.8 Z0.96 E74.843294 F2400
G0 X117.4 Y112.4 Z0.96 F4800
G1 X102.6 Y112.4 Z0.96 E75.138644 F2400
G1 X102.6 Y107.6 Z0.96 E75.234433 F2400
G1 X117.4 Y107.6 Z0.96 E75.529783 F2400
G1 X117.4 Y112.4 Z0.96 E75.625572 F2400
G0 X117.0 Y112.0 Z0.96 F4800
G1 X103.0 Y112.0 Z0.96 E75.904957 F2400
G1 X103.0 Y108.0 Z0.96 E75.984781 F2400
G1 X117.0 Y108.0 Z0.96 E76.264166 F2400
G1 X117.0 Y112.0 Z0.96 E76.34399 F2400
G0 X116.6 Y111.6 Z0.96 F4800
G1 X103.4 Y111.6 Z0.96 E76.60741 F2400
G1 X103.4 Y108.4 Z0.96 E76.671269 F2400
G1 X116.6 Y108.4 Z0.96 E76.934689 F2400
