;FLAVOR:Marlin 
;Layer height: 0.12 
;Generated with Cura_SteamEngine 4.9.0 
M140 S70
M105 
M190 S70
M104 S210
M105 
M109 S210
M83 ;relative extrusion mode 
; Ender 3 Custom Start G-code 
G92 E0 ; Reset Extruder 
G1 X0 Y0 Z10 F3000
G1 Z2.0 F3000 ; Move Z Axis up little to prevent scratching of Heat Bed 
G1 X0.1 Y20 Z0.3 F5000.0 ; Move to start position 
G1 X0.1 Y200.0 Z0.3 F1500.0 E15 ; Draw the first line 
G1 X0.4 Y200.0 Z0.3 F5000.0 ; Move to side a little 
G1 X0.4 Y20 Z0.3 F1500.0 E15 ; Draw the second line 
G92 E0 ; Reset Extruder 
G1 Z2.0 F3000 ; Move Z Axis up little to prevent scratching of Heat Bed 
G1 X5 Y20 Z0.3 F5000.0 ; Move over to prevent blob squish 
G92 E0 
G92 E0 
G1 F3000 E-8 
M104 S210
G0 X64.75 Y59.75 Z0.24 F1200
G1 E8
G1 X35.25 Y59.75 Z0.24 E1.471760975791829 F1200
G1 X35.25 Y40.25 Z0.24 E0.9728589500996835 F1200
G1 X64.75 Y40.25 Z0.24 E1.471760975791829 F1200
G1 X64.75 Y59.75 Z0.24 E0.9728589500996835 F1200
G1 X64.25 Y59.25 Z0.24 E0.03527770055146212 F1200
G1 X35.75 Y59.25 Z0.24 E1.4218707732226143 F1200
G1 X35.75 Y40.75 Z0.24 E0.922968747530469 F1200
G1 X64.25 Y40.75 Z0.24 E1.4218707732226143 F1200
G1 X64.25 Y59.25 Z0.24 E0.922968747530469 F1200
G1 X63.75 Y58.75 Z0.24 E0.03527770055146212 F1200
G1 X36.25 Y58.75 Z0.24 E1.3719805706533998 F1200
G1 X36.25 Y41.25 Z0.24 E0.8730785449612546 F1200
G1 X63.75 Y41.25 Z0.24 E1.3719805706533998 F1200
G1 X63.75 Y58.75 Z0.24 E0.8730785449612546 F1200
G1 X63.25 Y58.25 Z0.24 E0.03527770055146212 F1200
G1 X36.75 Y58.25 Z0.24 E1.3220903680841853 F1200
G1 X36.75 Y41.75 Z0.24 E0.82318834239204 F1200
G1 X63.25 Y41.75 Z0.24 E1.3220903680841853 F1200
G1 X63.25 Y58.25 Z0.24 E0.82318834239204 F1200
G1 X62.75 Y57.75 Z0.24 E0.03527770055146212 F1200
G1 X37.25 Y57.75 Z0.24 E1.2722001655149708 F1200
G1 X37.25 Y42.25 Z0.24 E0.7732981398228254 F1200
G1 X62.75 Y42.25 Z0.24 E1.2722001655149708 F1200
G1 X62.75 Y57.75 Z0.24 E0.7732981398228254 F1200
G1 X62.25 Y57.25 Z0.24 E0.03527770055146212 F1200
G1 X37.75 Y57.25 Z0.24 E1.2223099629457563 F1200
G1 X37.75 Y42.75 Z0.24 E0.7234079372536109 F1200
G1 X62.25 Y42.75 Z0.24 E1.2223099629457563 F1200
G1 X62.25 Y57.25 Z0.24 E0.7234079372536109 F1200
G1 X61.75 Y56.75 Z0.24 E0.03527770055146212 F1200
G1 X38.25 Y56.75 Z0.24 E1.1724197603765416 F1200
G1 X38.25 Y43.25 Z0.24 E0.6735177346843962 F1200
G1 X61.75 Y43.25 Z0.24 E1.1724197603765416 F1200
G1 X61.75 Y56.75 Z0.24 E0.6735177346843962 F1200
G1 X61.25 Y56.25 Z0.24 E0.03527770055146212 F1200
G1 X38.75 Y56.25 Z0.24 E1.122529557807327 F1200
G1 X38.75 Y43.75 Z0.24 E0.6236275321151817 F1200
G1 X61.25 Y43.75 Z0.24 E1.122529557807327 F1200
G1 X61.25 Y56.25 Z0.24 E0.6236275321151817 F1200
G1 X60.75 Y55.75 Z0.24 E0.03527770055146212 F1200
G1 X39.25 Y55.75 Z0.24 E1.0726393552381126 F1200
G1 X39.25 Y44.25 Z0.24 E0.5737373295459672 F1200
G1 X60.75 Y44.25 Z0.24 E1.0726393552381126 F1200
G1 X60.75 Y55.75 Z0.24 E0.5737373295459672 F1200
G1 X60.25 Y55.25 Z0.24 E0.03527770055146212 F1200
G1 X39.75 Y55.25 Z0.24 E1.022749152668898 F1200
G1 X39.75 Y44.75 Z0.24 E0.5238471269767527 F1200
G1 X60.25 Y44.75 Z0.24 E1.022749152668898 F1200
G1 X60.25 Y55.25 Z0.24 E0.5238471269767527 F1200
G1 X59.75 Y54.75 Z0.24 E0.03527770055146212 F1200
G1 X40.25 Y54.75 Z0.24 E0.9728589500996835 F1200
G1 X40.25 Y45.25 Z0.24 E0.4739569244075381 F1200
G1 X59.75 Y45.25 Z0.24 E0.9728589500996835 F1200
G1 X59.75 Y54.75 Z0.24 E0.4739569244075381 F1200
G1 X59.25 Y54.25 Z0.24 E0.03527770055146212 F1200
G1 X40.75 Y54.25 Z0.24 E0.922968747530469 F1200
G1 X40.75 Y45.75 Z0.24 E0.4240667218383236 F1200
G1 X59.25 Y45.75 Z0.24 E0.922968747530469 F1200
G1 X59.25 Y54.25 Z0.24 E0.4240667218383236 F1200
G1 X58.75 Y53.75 Z0.24 E0.03527770055146212 F1200
G1 X41.25 Y53.75 Z0.24 E0.8730785449612546 F1200
G1 X41.25 Y46.25 Z0.24 E0.37417651926910905 F1200
G1 X58.75 Y46.25 Z0.24 E0.8730785449612546 F1200
G1 X58.75 Y53.75 Z0.24 E0.37417651926910905 F1200
G1 X58.25 Y53.25 Z0.24 E0.03527770055146212 F1200
G1 X41.75 Y53.25 Z0.24 E0.82318834239204 F1200
G1 X41.75 Y46.75 Z0.24 E0.32428631669989455 F1200
G1 X58.25 Y46.75 Z0.24 E0.82318834239204 F1200
G1 X58.25 Y53.25 Z0.24 E0.32428631669989455 F1200
G1 X57.75 Y52.75 Z0.24 E0.03527770055146212 F1200
G1 X42.25 Y52.75 Z0.24 E0.7732981398228254 F1200
G1 X42.25 Y47.25 Z0.24 E0.27439611413067994 F1200
G1 X57.75 Y47.25 Z0.24 E0.7732981398228254 F1200
G1 X57.75 Y52.75 Z0.24 E0.27439611413067994 F1200
G1 X57.25 Y52.25 Z0.24 E0.03527770055146212 F1200
G1 X42.75 Y52.25 Z0.24 E0.7234079372536109 F1200
G1 X42.75 Y47.75 Z0.24 E0.22450591156146546 F1200
G1 X57.25 Y47.75 Z0.24 E0.7234079372536109 F1200
G1 X57.25 Y52.25 Z0.24 E0.22450591156146546 F1200
G1 X56.75 Y51.75 Z0.24 E0.03527770055146212 F1200
G1 X43.25 Y51.75 Z0.24 E0.6735177346843962 F1200
G1 X43.25 Y48.25 Z0.24 E0.1746157089922509 F1200
G1 X56.75 Y48.25 Z0.24 E0.6735177346843962 F1200
G1 X56.75 Y51.75 Z0.24 E0.1746157089922509 F1200
G1 X56.25 Y51.25 Z0.24 E0.03527770055146212 F1200
G1 X43.75 Y51.25 Z0.24 E0.6236275321151817 F1200
G1 X43.75 Y48.75 Z0.24 E0.12472550642303636 F1200
G1 X56.25 Y48.75 Z0.24 E0.6236275321151817 F1200
G1 X56.25 Y51.25 Z0.24 E0.12472550642303636 F1200
G1 X55.75 Y50.75 Z0.24 E0.03527770055146212 F1200
G1 X44.25 Y50.75 Z0.24 E0.5737373295459672 F1200
G1 X44.25 Y49.25 Z0.24 E0.07483530385382181 F1200
G1 X55.75 Y49.25 Z0.24 E0.5737373295459672 F1200
G1 X55.75 Y50.75 Z0.24 E0.07483530385382181 F1200
G1 X55.25 Y50.25 Z0.24 E0.03527770055146212 F1200
G1 X44.75 Y50.25 Z0.24 E0.5238471269767527 F1200
G1 X44.75 Y49.75 Z0.24 E0.02494510128460727 F1200
G1 X55.25 Y49.75 Z0.24 E0.5238471269767527 F1200
G1 X55.25 Y50.25 Z0.24 E0.02494510128460727 F1200
G1 E-8
G1 E-8
M104 S205
G0 X64.8 Y59.8 Z0.36 F1200
G1 E8
G1 E8
G1 X35.2 Y59.8 Z0.36 E0.5906999984195 F1200
G1 X35.2 Y40.2 Z0.36 E0.3911391881426419 F1200
G1 X64.8 Y40.2 Z0.36 E0.5906999984195 F1200
G1 X64.8 Y59.8 Z0.36 E0.3911391881426419 F1200
G1 X64.4 Y59.4 Z0.36 E0.011288864176467737 F1200
G1 X35.6 Y59.4 Z0.36 E0.5747351335973516 F1200
G1 X35.6 Y40.6 Z0.36 E0.37517432332049333 F1200
G1 X64.4 Y40.6 Z0.36 E0.5747351335973516 F1200
G1 X64.4 Y59.4 Z0.36 E0.37517432332049333 F1200
G1 X64.0 Y59.0 Z0.36 E0.011288864176467937 F1200
G1 X36.0 Y59.0 Z0.36 E0.558770268775203 F1200
G1 X36.0 Y41.0 Z0.36 E0.3592094584983447 F1200
G1 X64.0 Y41.0 Z0.36 E0.558770268775203 F1200
G1 X64.0 Y59.0 Z0.36 E0.3592094584983447 F1200
G1 X63.6 Y58.6 Z0.36 E0.011288864176467838 F1200
G1 X36.4 Y58.6 Z0.36 E0.5428054039530543 F1200
G1 X36.4 Y41.4 Z0.36 E0.34324459367619614 F1200
G1 X63.6 Y41.4 Z0.36 E0.5428054039530543 F1200
G1 X63.6 Y58.6 Z0.36 E0.34324459367619614 F1200
G1 X63.2 Y58.2 Z0.36 E0.011288864176467838 F1200
G1 X36.8 Y58.2 Z0.36 E0.5268405391309057 F1200
G1 X36.8 Y41.8 Z0.36 E0.3272797288540475 F1200
G1 X63.2 Y41.8 Z0.36 E0.5268405391309057 F1200
G1 X63.2 Y58.2 Z0.36 E0.3272797288540475 F1200
G1 X62.8 Y57.8 Z0.36 E0.011288864176468039 F1200
G1 X37.2 Y57.8 Z0.36 E0.5108756743087568 F1200
G1 X37.2 Y42.2 Z0.36 E0.3113148640318987 F1200
G1 X62.8 Y42.2 Z0.36 E0.5108756743087568 F1200
G1 X62.8 Y57.8 Z0.36 E0.3113148640318987 F1200
G1 X62.4 Y57.4 Z0.36 E0.011288864176467838 F1200
G1 X37.6 Y57.4 Z0.36 E0.4949108094866082 F1200
G1 X37.6 Y42.6 Z0.36 E0.29534999920975 F1200
G1 X62.4 Y42.6 Z0.36 E0.4949108094866082 F1200
G1 X62.4 Y57.4 Z0.36 E0.29534999920975 F1200
G1 X62.0 Y57.0 Z0.36 E0.011288864176467838 F1200
G1 X38.0 Y57.0 Z0.36 E0.47894594466445967 F1200
G1 X38.0 Y43.0 Z0.36 E0.2793851343876015 F1200
G1 X62.0 Y43.0 Z0.36 E0.47894594466445967 F1200
G1 X62.0 Y57.0 Z0.36 E0.2793851343876015 F1200
G1 X61.599999999999994 Y56.599999999999994 Z0.36 E0.011288864176468039 F1200
G1 X38.400000000000006 Y56.599999999999994 Z0.36 E0.46298107984231074 F1200
G1 X38.400000000000006 Y43.400000000000006 Z0.36 E0.26342026956545256 F1200
G1 X61.599999999999994 Y43.400000000000006 Z0.36 E0.46298107984231074 F1200
G1 X61.599999999999994 Y56.599999999999994 Z0.36 E0.26342026956545256 F1200
G1 X61.199999999999996 Y56.199999999999996 Z0.36 E0.011288864176467838 F1200
G1 X38.800000000000004 Y56.199999999999996 Z0.36 E0.4470162150201622 F1200
G1 X38.800000000000004 Y43.800000000000004 Z0.36 E0.24745540474330396 F1200
G1 X61.199999999999996 Y43.800000000000004 Z0.36 E0.4470162150201622 F1200
G1 X61.199999999999996 Y56.199999999999996 Z0.36 E0.24745540474330396 F1200
G1 X60.8 Y55.8 Z0.36 E0.011288864176467838 F1200
G1 X39.2 Y55.8 Z0.36 E0.43105135019801355 F1200
G1 X39.2 Y44.2 Z0.36 E0.23149053992115537 F1200
G1 X60.8 Y44.2 Z0.36 E0.43105135019801355 F1200
G1 X60.8 Y55.8 Z0.36 E0.23149053992115537 F1200
G1 X60.4 Y55.4 Z0.36 E0.011288864176467838 F1200
G1 X39.6 Y55.4 Z0.36 E0.4150864853758649 F1200
G1 X39.6 Y44.6 Z0.36 E0.21552567509900677 F1200
G1 X60.4 Y44.6 Z0.36 E0.4150864853758649 F1200
G1 X60.4 Y55.4 Z0.36 E0.21552567509900677 F1200
G1 X60.0 Y54.99999999999999 Z0.36 E0.011288864176467937 F1200
G1 X40.0 Y54.99999999999999 Z0.36 E0.3991216205537163 F1200
G1 X40.0 Y45.00000000000001 Z0.36 E0.19956081027685788 F1200
G1 X60.0 Y45.00000000000001 Z0.36 E0.3991216205537163 F1200
G1 X60.0 Y54.99999999999999 Z0.36 E0.19956081027685788 F1200
G1 X59.599999999999994 Y54.599999999999994 Z0.36 E0.011288864176467937 F1200
G1 X40.400000000000006 Y54.599999999999994 Z0.36 E0.3831567557315675 F1200
G1 X40.400000000000006 Y45.400000000000006 Z0.36 E0.1835959454547093 F1200
G1 X59.599999999999994 Y45.400000000000006 Z0.36 E0.3831567557315675 F1200
G1 X59.599999999999994 Y54.599999999999994 Z0.36 E0.1835959454547093 F1200
G1 X59.199999999999996 Y54.199999999999996 Z0.36 E0.011288864176467838 F1200
G1 X40.800000000000004 Y54.199999999999996 Z0.36 E0.36719189090941884 F1200
G1 X40.800000000000004 Y45.800000000000004 Z0.36 E0.16763108063256071 F1200
G1 X59.199999999999996 Y45.800000000000004 Z0.36 E0.36719189090941884 F1200
G1 X59.199999999999996 Y54.199999999999996 Z0.36 E0.16763108063256071 F1200
G1 X58.8 Y53.8 Z0.36 E0.011288864176467838 F1200
G1 X41.2 Y53.8 Z0.36 E0.3512270260872703 F1200
G1 X41.2 Y46.2 Z0.36 E0.1516662158104121 F1200
G1 X58.8 Y46.2 Z0.36 E0.3512270260872703 F1200
G1 X58.8 Y53.8 Z0.36 E0.1516662158104121 F1200
G1 X58.39999999999999 Y53.39999999999999 Z0.36 E0.011288864176468039 F1200
G1 X41.60000000000001 Y53.39999999999999 Z0.36 E0.33526216126512143 F1200
G1 X41.60000000000001 Y46.60000000000001 Z0.36 E0.13570135098826322 F1200
G1 X58.39999999999999 Y46.60000000000001 Z0.36 E0.33526216126512143 F1200
G1 X58.39999999999999 Y53.39999999999999 Z0.36 E0.13570135098826322 F1200
G1 X57.99999999999999 Y52.99999999999999 Z0.36 E0.011288864176467838 F1200
G1 X42.00000000000001 Y52.99999999999999 Z0.36 E0.31929729644297283 F1200
G1 X42.00000000000001 Y47.00000000000001 Z0.36 E0.11973648616611461 F1200
G1 X57.99999999999999 Y47.00000000000001 Z0.36 E0.31929729644297283 F1200
G1 X57.99999999999999 Y52.99999999999999 Z0.36 E0.11973648616611461 F1200
G1 X57.599999999999994 Y52.599999999999994 Z0.36 E0.011288864176467838 F1200
G1 X42.400000000000006 Y52.599999999999994 Z0.36 E0.3033324316208242 F1200
G1 X42.400000000000006 Y47.400000000000006 Z0.36 E0.10377162134396603 F1200
G1 X57.599999999999994 Y47.400000000000006 Z0.36 E0.3033324316208242 F1200
G1 X57.599999999999994 Y52.599999999999994 Z0.36 E0.10377162134396603 F1200
G1 X57.199999999999996 Y52.199999999999996 Z0.36 E0.011288864176467838 F1200
G1 X42.800000000000004 Y52.199999999999996 Z0.36 E0.2873675667986756 F1200
G1 X42.800000000000004 Y47.800000000000004 Z0.36 E0.08780675652181742 F1200
G1 X57.199999999999996 Y47.800000000000004 Z0.36 E0.2873675667986756 F1200
G1 X57.199999999999996 Y52.199999999999996 Z0.36 E0.08780675652181742 F1200
G1 X56.79999999999999 Y51.8 Z0.36 E0.011288864176467937 F1200
G1 X43.20000000000001 Y51.8 Z0.36 E0.2714027019765267 F1200
G1 X43.20000000000001 Y48.2 Z0.36 E0.07184189169966883 F1200
G1 X56.79999999999999 Y48.2 Z0.36 E0.2714027019765267 F1200
G1 X56.79999999999999 Y51.8 Z0.36 E0.07184189169966883 F1200
G1 X56.39999999999999 Y51.4 Z0.36 E0.011288864176467838 F1200
G1 X43.60000000000001 Y51.4 Z0.36 E0.2554378371543782 F1200
G1 X43.60000000000001 Y48.6 Z0.36 E0.05587702687752024 F1200
G1 X56.39999999999999 Y48.6 Z0.36 E0.2554378371543782 F1200
G1 X56.39999999999999 Y51.4 Z0.36 E0.05587702687752024 F1200
G1 X55.99999999999999 Y50.99999999999999 Z0.36 E0.011288864176467937 F1200
G1 X44.00000000000001 Y50.99999999999999 Z0.36 E0.2394729723322295 F1200
G1 X44.00000000000001 Y49.00000000000001 Z0.36 E0.039912162055371354 F1200
G1 X55.99999999999999 Y49.00000000000001 Z0.36 E0.2394729723322295 F1200
G1 X55.99999999999999 Y50.99999999999999 Z0.36 E0.039912162055371354 F1200
G1 X55.599999999999994 Y50.599999999999994 Z0.36 E0.011288864176467838 F1200
G1 X44.400000000000006 Y50.599999999999994 Z0.36 E0.22350810751008096 F1200
G1 X44.400000000000006 Y49.400000000000006 Z0.36 E0.023947297233222756 F1200
G1 X55.599999999999994 Y49.400000000000006 Z0.36 E0.22350810751008096 F1200
G1 X55.599999999999994 Y50.599999999999994 Z0.36 E0.023947297233222756 F1200
G1 X55.19999999999999 Y50.199999999999996 Z0.36 E0.011288864176467937 F1200
G1 X44.80000000000001 Y50.199999999999996 Z0.36 E0.20754324268793206 F1200
G1 X44.80000000000001 Y49.800000000000004 Z0.36 E0.007982432411074157 F1200
G1 X55.19999999999999 Y49.800000000000004 Z0.36 E0.20754324268793206 F1200
G1 X55.19999999999999 Y50.199999999999996 Z0.36 E0.007982432411074157 F1200
G1 E8
G1 E8
G1 X35.2 Y59.8 Z0.48 E0.5906999984195 F1200
G1 X35.2 Y40.2 Z0.48 E0.3911391881426419 F1200
G1 X64.8 Y40.2 Z0.48 E0.5906999984195 F1200
G1 X64.8 Y59.8 Z0.48 E0.3911391881426419 F1200
G1 X64.4 Y59.4 Z0.48 E0.011288864176467737 F1200
G1 X35.6 Y59.4 Z0.48 E0.5747351335973516 F1200
G1 X35.6 Y40.6 Z0.48 E0.37517432332049333 F1200
G1 X64.4 Y40.6 Z0.48 E0.5747351335973516 F1200
G1 X64.4 Y59.4 Z0.48 E0.37517432332049333 F1200
G1 X64.0 Y59.0 Z0.48 E0.011288864176467937 F1200
G1 X36.0 Y59.0 Z0.48 E0.558770268775203 F1200
G1 X36.0 Y41.0 Z0.48 E0.3592094584983447 F1200
G1 X64.0 Y41.0 Z0.48 E0.558770268775203 F1200
G1 X64.0 Y59.0 Z0.48 E0.3592094584983447 F1200
G1 X63.6 Y58.6 Z0.48 E0.011288864176467838 F1200
G1 X36.4 Y58.6 Z0.48 E0.5428054039530543 F1200
G1 X36.4 Y41.4 Z0.48 E0.34324459367619614 F1200
G1 X63.6 Y41.4 Z0.48 E0.5428054039530543 F1200
G1 X63.6 Y58.6 Z0.48 E0.34324459367619614 F1200
G1 X63.2 Y58.2 Z0.48 E0.011288864176467838 F1200
G1 X36.8 Y58.2 Z0.48 E0.5268405391309057 F1200
G1 X36.8 Y41.8 Z0.48 E0.3272797288540475 F1200
G1 X63.2 Y41.8 Z0.48 E0.5268405391309057 F1200
G1 X63.2 Y58.2 Z0.48 E0.3272797288540475 F1200
G1 X62.8 Y57.8 Z0.48 E0.011288864176468039 F1200
G1 X37.2 Y57.8 Z0.48 E0.5108756743087568 F1200
G1 X37.2 Y42.2 Z0.48 E0.3113148640318987 F1200
G1 X62.8 Y42.2 Z0.48 E0.5108756743087568 F1200
G1 X62.8 Y57.8 Z0.48 E0.3113148640318987 F1200
G1 X62.4 Y57.4 Z0.48 E0.011288864176467838 F1200
G1 X37.6 Y57.4 Z0.48 E0.4949108094866082 F1200
G1 X37.6 Y42.6 Z0.48 E0.29534999920975 F1200
G1 X62.4 Y42.6 Z0.48 E0.4949108094866082 F1200
G1 X62.4 Y57.4 Z0.48 E0.29534999920975 F1200
G1 X62.0 Y57.0 Z0.48 E0.011288864176467838 F1200
G1 X38.0 Y57.0 Z0.48 E0.47894594466445967 F1200
G1 X38.0 Y43.0 Z0.48 E0.2793851343876015 F1200
G1 X62.0 Y43.0 Z0.48 E0.47894594466445967 F1200
G1 X62.0 Y57.0 Z0.48 E0.2793851343876015 F1200
G1 X61.599999999999994 Y56.599999999999994 Z0.48 E0.011288864176468039 F1200
G1 X38.400000000000006 Y56.599999999999994 Z0.48 E0.46298107984231074 F1200
G1 X38.400000000000006 Y43.400000000000006 Z0.48 E0.26342026956545256 F1200
G1 X61.599999999999994 Y43.400000000000006 Z0.48 E0.46298107984231074 F1200
G1 X61.599999999999994 Y56.599999999999994 Z0.48 E0.26342026956545256 F1200
G1 X61.199999999999996 Y56.199999999999996 Z0.48 E0.011288864176467838 F1200
G1 X38.800000000000004 Y56.199999999999996 Z0.48 E0.4470162150201622 F1200
G1 X38.800000000000004 Y43.800000000000004 Z0.48 E0.24745540474330396 F1200
G1 X61.199999999999996 Y43.800000000000004 Z0.48 E0.4470162150201622 F1200
G1 X61.199999999999996 Y56.199999999999996 Z0.48 E0.24745540474330396 F1200
G1 X60.8 Y55.8 Z0.48 E0.011288864176467838 F1200
