;FLAVOR:Marlin
;Layer height: 0.12
;Generated with Cura_SteamEngine 4.12.1
M140 S70
M105 
M190 S70
M104 S210
M105 
M109 S210
M83 ;relative extrusion mode 
; Ender 3 Custom Start G-code 
G92 E0 ; Reset Extruder 
G1 X0 Y0 Z10 F3000
G1 Z2.0 F3000 ; Move Z Axis up little to prevent scratching of Heat Bed 
G1 X0.1 Y20 Z0.3 F5000.0 ; Move to start position 
G1 X0.1 Y200.0 Z0.3 F1500.0 E15 ; Draw the first line 
G1 X0.4 Y200.0 Z0.3 F5000.0 ; Move to side a little 
G1 X0.4 Y20 Z0.3 F1500.0 E15 ; Draw the second line 
G92 E0 ; Reset Extruder 
G1 Z2.0 F3000 ; Move Z Axis up little to prevent scratching of Heat Bed 
G1 X5 Y20 Z0.3 F5000.0 ; Move over to prevent blob squish 
G92 E0 
G92 E0 
G1 F3000 E-8
M104 S210
G0 X59.711325 Y50.0 Z0.24 F1200
G1 E8
G1 X54.855662 Y58.410254 Z0.24 E0.4844999772666955 F1200
G1 X45.144338 Y58.410254 Z0.24 E0.4844999215752751 F1200
G1 X40.288675 Y50.0 Z0.24 E0.4844999772666955 F1200
G1 X45.144338 Y41.589746 Z0.24 E0.4844999772666955 F1200
G1 X54.855662 Y41.589746 Z0.24 E0.4844999215752751 F1200
G1 X59.711325 Y50.0 Z0.24 E0.4844999772666955 F1200
G1 X59.133975 Y50.0 Z0.24 E0.02880410845333615 F1200
G1 X54.566987 Y57.910254 Z0.24 E0.4556958587409161 F1200
G1 X45.433013 Y57.910254 Z0.24 E0.4556958131219386 F1200
G1 X40.866025 Y50.0 Z0.24 E0.4556958587409161 F1200
G1 X45.433013 Y42.089746 Z0.24 E0.4556958587409161 F1200
G1 X54.566987 Y42.089746 Z0.24 E0.4556958131219386 F1200
G1 X59.133975 Y50.0 Z0.24 E0.4556958587409161 F1200
G1 X58.556624 Y50.0 Z0.24 E0.028804158343538593 F1200
G1 X54.278312 Y57.410254 Z0.24 E0.4268917152700341 F1200
G1 X45.721688 Y57.410254 Z0.24 E0.4268917046686028 F1200
G1 X41.443376 Y50.0 Z0.24 E0.4268917152700341 F1200
G1 X45.721688 Y42.589746 Z0.24 E0.4268917152700341 F1200
G1 X54.278312 Y42.589746 Z0.24 E0.4268917046686028 F1200
G1 X58.556624 Y50.0 Z0.24 E0.4268917152700341 F1200
G1 X57.979274 Y50.0 Z0.24 E0.02880410845333615 F1200
G1 X53.989637 Y56.910254 Z0.24 E0.3980875967442542 F1200
G1 X46.010363 Y56.910254 Z0.24 E0.398087596215267 F1200
G1 X42.020726 Y50.0 Z0.24 E0.3980875967442542 F1200
G1 X46.010363 Y43.089746 Z0.24 E0.3980875967442542 F1200
G1 X53.989637 Y43.089746 Z0.24 E0.398087596215267 F1200
G1 X57.979274 Y50.0 Z0.24 E0.3980875967442542 F1200
G1 X57.401924 Y50.0 Z0.24 E0.028804108453335794 F1200
G1 X53.700962 Y56.410254 Z0.24 E0.3692834782184747 F1200
G1 X46.299038 Y56.410254 Z0.24 E0.3692834877619305 F1200
G1 X42.598076 Y50.0 Z0.24 E0.3692834782184747 F1200
G1 X46.299038 Y43.589746 Z0.24 E0.3692834782184747 F1200
G1 X53.700962 Y43.589746 Z0.24 E0.3692834877619305 F1200
G1 X57.401924 Y50.0 Z0.24 E0.3692834782184747 F1200
G1 X56.824574 Y50.0 Z0.24 E0.02880410845333615 F1200
G1 X53.412287 Y55.910254 Z0.24 E0.34047935969269494 F1200
G1 X46.587713 Y55.910254 Z0.24 E0.3404793793085947 F1200
G1 X43.175426 Y50.0 Z0.24 E0.34047935969269494 F1200
G1 X46.587713 Y44.089746 Z0.24 E0.34047935969269494 F1200
G1 X53.412287 Y44.089746 Z0.24 E0.3404793793085947 F1200
G1 X56.824574 Y50.0 Z0.24 E0.34047935969269494 F1200
G1 X56.247223 Y50.0 Z0.24 E0.028804158343538593 F1200
G1 X53.123612 Y55.410254 Z0.24 E0.3116752162218148 F1200
G1 X46.876388 Y55.410254 Z0.24 E0.31167527085525887 F1200
G1 X43.752777 Y50.0 Z0.24 E0.3116752162218148 F1200
G1 X46.876388 Y44.589746 Z0.24 E0.3116752162218148 F1200
G1 X53.123612 Y44.589746 Z0.24 E0.31167527085525887 F1200
G1 X56.247223 Y50.0 Z0.24 E0.3116752162218148 F1200
G1 X55.669873 Y50.0 Z0.24 E0.028804108453335794 F1200
G1 X52.834936 Y54.910254 Z0.24 E0.2828711226411364 F1200
G1 X47.165064 Y54.910254 Z0.24 E0.2828710626215175 F1200
G1 X44.330127 Y50.0 Z0.24 E0.2828711226411364 F1200
G1 X47.165064 Y45.089746 Z0.24 E0.2828711226411364 F1200
G1 X52.834936 Y45.089746 Z0.24 E0.2828710626215175 F1200
G1 X55.669873 Y50.0 Z0.24 E0.2828711226411364 F1200
G1 X55.092523 Y50.0 Z0.24 E0.02880410845333615 F1200
G1 X52.546261 Y54.410254 Z0.24 E0.25406700411535726 F1200
G1 X47.453739 Y54.410254 Z0.24 E0.2540669541681817 F1200
G1 X44.907477 Y50.0 Z0.24 E0.25406700411535726 F1200
G1 X47.453739 Y45.589746 Z0.24 E0.25406700411535726 F1200
G1 X52.546261 Y45.589746 Z0.24 E0.2540669541681817 F1200
G1 X55.092523 Y50.0 Z0.24 E0.25406700411535726 F1200
G1 X54.515172 Y50.0 Z0.24 E0.028804158343538593 F1200
G1 X52.257586 Y53.910254 Z0.24 E0.22526286064447468 F1200
G1 X47.742414 Y53.910254 Z0.24 E0.22526284571484592 F1200
G1 X45.484828 Y50.0 Z0.24 E0.22526286064447468 F1200
G1 X47.742414 Y46.089746 Z0.24 E0.22526286064447468 F1200
G1 X52.257586 Y46.089746 Z0.24 E0.22526284571484592 F1200
G1 X54.515172 Y50.0 Z0.24 E0.22526286064447468 F1200
G1 X53.937822 Y50.0 Z0.24 E0.02880410845333615 F1200
G1 X51.968911 Y53.410254 Z0.24 E0.19645874211869485 F1200
G1 X48.031089 Y53.410254 Z0.24 E0.1964587372615094 F1200
G1 X46.062178 Y50.0 Z0.24 E0.19645874211869485 F1200
G1 X48.031089 Y46.589746 Z0.24 E0.19645874211869485 F1200
G1 X51.968911 Y46.589746 Z0.24 E0.1964587372615094 F1200
G1 X53.937822 Y50.0 Z0.24 E0.19645874211869485 F1200
G1 X53.360472 Y50.0 Z0.24 E0.028804108453335794 F1200
G1 X51.680236 Y52.910254 Z0.24 E0.1676546235929152 F1200
G1 X48.319764 Y52.910254 Z0.24 E0.1676546288081736 F1200
G1 X46.639528 Y50.0 Z0.24 E0.1676546235929152 F1200
G1 X48.319764 Y47.089746 Z0.24 E0.1676546235929152 F1200
G1 X51.680236 Y47.089746 Z0.24 E0.1676546288081736 F1200
G1 X53.360472 Y50.0 Z0.24 E0.1676546235929152 F1200
G1 X52.783122 Y50.0 Z0.24 E0.02880410845333615 F1200
G1 X51.391561 Y52.410254 Z0.24 E0.1388505050671356 F1200
G1 X48.608439 Y52.410254 Z0.24 E0.1388505203548378 F1200
G1 X47.216878 Y50.0 Z0.24 E0.1388505050671356 F1200
G1 X48.608439 Y47.589746 Z0.24 E0.1388505050671356 F1200
G1 X51.391561 Y47.589746 Z0.24 E0.1388505203548378 F1200
G1 X52.783122 Y50.0 Z0.24 E0.1388505050671356 F1200
G1 X52.205771 Y50.0 Z0.24 E0.028804158343538593 F1200
G1 X51.102886 Y51.910254 Z0.24 E0.11004636159625811 F1200
G1 X48.897114 Y51.910254 Z0.24 E0.11004641190150131 F1200
G1 X47.794229 Y50.0 Z0.24 E0.11004636159625811 F1200
G1 X48.897114 Y48.089746 Z0.24 E0.11004636159625811 F1200
G1 X51.102886 Y48.089746 Z0.24 E0.11004641190150131 F1200
G1 X52.205771 Y50.0 Z0.24 E0.11004636159625811 F1200
G1 X51.628421 Y50.0 Z0.24 E0.028804108453335794 F1200
G1 X50.814211 Y51.410254 Z0.24 E0.08124224307047791 F1200
G1 X49.185789 Y51.410254 Z0.24 E0.0812423034481655 F1200
G1 X48.371579 Y50.0 Z0.24 E0.08124224307047791 F1200
G1 X49.185789 Y48.589746 Z0.24 E0.08124224307047791 F1200
G1 X50.814211 Y48.589746 Z0.24 E0.0812423034481655 F1200
G1 X51.628421 Y50.0 Z0.24 E0.08124224307047791 F1200
G1 X51.051071 Y50.0 Z0.24 E0.02880410845333615 F1200
G1 X50.525535 Y50.910254 Z0.24 E0.05243814948980284 F1200
G1 X49.474465 Y50.910254 Z0.24 E0.052438095214424114 F1200
G1 X48.948929 Y50.0 Z0.24 E0.05243814948980284 F1200
G1 X49.474465 Y49.089746 Z0.24 E0.05243814948980284 F1200
G1 X50.525535 Y49.089746 Z0.24 E0.052438095214424114 F1200
G1 X51.051071 Y50.0 Z0.24 E0.05243814948980284 F1200
G1 X50.473721 Y50.0 Z0.24 E0.02880410845333615 F1200
G1 X50.23686 Y50.410254 Z0.24 E0.023634030964038186 F1200
G1 X49.76314 Y50.410254 Z0.24 E0.02363398676108832 F1200
G1 X49.526279 Y50.0 Z0.24 E0.023634030964038186 F1200
G1 X49.76314 Y49.589746 Z0.24 E0.023634030964038186 F1200
G1 X50.23686 Y49.589746 Z0.24 E0.02363398676108832 F1200
G1 X50.473721 Y50.0 Z0.24 E0.023634030964038186 F1200
G1 E-8
M104 S205
M140 S65
G0 X59.76906 Y50.0 Z0.24 F1200
G0 X59.76906 Y50.0 Z0.36 F1200
G1 E8
G1 X54.88453 Y58.460254 Z0.36 E0.19495215065868887 F1200
G1 X45.11547 Y58.460254 Z0.36 E0.19495215292432433 F1200
G1 X40.23094 Y50.0 Z0.36 E0.19495215065868887 F1200
G1 X45.11547 Y41.539746 Z0.36 E0.19495215065868887 F1200
G1 X54.88453 Y41.539746 Z0.36 E0.19495215292432433 F1200
G1 X59.76906 Y50.0 Z0.36 E0.19495215065868887 F1200
G1 X59.30718 Y50.0 Z0.36 E0.00921731470506754 F1200
G1 X54.65359 Y58.060254 Z0.36 E0.18573483273043934 F1200
G1 X45.34641 Y58.060254 Z0.36 E0.18573483821925693 F1200
G1 X40.69282 Y50.0 Z0.36 E0.18573483273043934 F1200
G1 X45.34641 Y41.939746 Z0.36 E0.18573483273043934 F1200
G1 X54.65359 Y41.939746 Z0.36 E0.18573483821925693 F1200
G1 X59.30718 Y50.0 Z0.36 E0.18573483273043934 F1200
G1 X58.845299 Y50.0 Z0.36 E0.009217334661148659 F1200
G1 X54.42265 Y57.660254 Z0.36 E0.17651750482414974 F1200
G1 X45.57735 Y57.660254 Z0.36 E0.17651752351418926 F1200
G1 X41.154701 Y50.0 Z0.36 E0.17651750482414974 F1200
G1 X45.57735 Y42.339746 Z0.36 E0.17651750482414974 F1200
G1 X54.42265 Y42.339746 Z0.36 E0.17651752351418926 F1200
G1 X58.845299 Y50.0 Z0.36 E0.17651750482414974 F1200
G1 X58.383419 Y50.0 Z0.36 E0.0092173147050674 F1200
G1 X54.19171 Y57.260254 Z0.36 E0.16730018689590018 F1200
G1 X45.80829 Y57.260254 Z0.36 E0.16730020880912186 F1200
G1 X41.616581 Y50.0 Z0.36 E0.16730018689590018 F1200
G1 X45.80829 Y42.739746 Z0.36 E0.16730018689590018 F1200
G1 X54.19171 Y42.739746 Z0.36 E0.16730020880912186 F1200
G1 X58.383419 Y50.0 Z0.36 E0.16730018689590018 F1200
G1 X57.921539 Y50.0 Z0.36 E0.00921731470506754 F1200
G1 X53.96077 Y56.860254 Z0.36 E0.1580828689676505 F1200
G1 X46.03923 Y56.860254 Z0.36 E0.15808289410405418 F1200
G1 X42.078461 Y50.0 Z0.36 E0.1580828689676505 F1200
G1 X46.03923 Y43.139746 Z0.36 E0.1580828689676505 F1200
G1 X53.96077 Y43.139746 Z0.36 E0.15808289410405418 F1200
G1 X57.921539 Y50.0 Z0.36 E0.1580828689676505 F1200
G1 X57.459659 Y50.0 Z0.36 E0.00921731470506754 F1200
G1 X53.729829 Y56.460254 Z0.36 E0.1488655610174416 F1200
G1 X46.270171 Y56.460254 Z0.36 E0.14886553948682482 F1200
G1 X42.540341 Y50.0 Z0.36 E0.1488655610174416 F1200
G1 X46.270171 Y43.539746 Z0.36 E0.1488655610174416 F1200
G1 X53.729829 Y43.539746 Z0.36 E0.14886553948682482 F1200
G1 X57.459659 Y50.0 Z0.36 E0.1488655610174416 F1200
G1 X56.997779 Y50.0 Z0.36 E0.00921731470506754 F1200
G1 X53.498889 Y56.060254 Z0.36 E0.13964824308919235 F1200
G1 X46.501111 Y56.060254 Z0.36 E0.13964822478175712 F1200
G1 X43.002221 Y50.0 Z0.36 E0.13964824308919235 F1200
G1 X46.501111 Y43.939746 Z0.36 E0.13964824308919235 F1200
G1 X53.498889 Y43.939746 Z0.36 E0.13964822478175712 F1200
G1 X56.997779 Y50.0 Z0.36 E0.13964824308919235 F1200
G1 X56.535898 Y50.0 Z0.36 E0.009217334661148517 F1200
G1 X53.267949 Y55.660254 Z0.36 E0.13043091518290179 F1200
G1 X46.732051 Y55.660254 Z0.36 E0.13043091007668975 F1200
G1 X43.464102 Y50.0 Z0.36 E0.13043091518290179 F1200
G1 X46.732051 Y44.339746 Z0.36 E0.13043091518290179 F1200
G1 X53.267949 Y44.339746 Z0.36 E0.13043091007668975 F1200
G1 X56.535898 Y50.0 Z0.36 E0.13043091518290179 F1200
G1 X56.074018 Y50.0 Z0.36 E0.00921731470506754 F1200
G1 X53.037009 Y55.260254 Z0.36 E0.1212135972546523 F1200
G1 X46.962991 Y55.260254 Z0.36 E0.12121359537162205 F1200
G1 X43.925982 Y50.0 Z0.36 E0.1212135972546523 F1200
G1 X46.962991 Y44.739746 Z0.36 E0.1212135972546523 F1200
G1 X53.037009 Y44.739746 Z0.36 E0.12121359537162205 F1200
G1 X56.074018 Y50.0 Z0.36 E0.1212135972546523 F1200
G1 X55.612138 Y50.0 Z0.36 E0.00921731470506754 F1200
G1 X52.806069 Y54.860254 Z0.36 E0.11199627932640265 F1200
G1 X47.193931 Y54.860254 Z0.36 E0.11199628066655466 F1200
G1 X44.387862 Y50.0 Z0.36 E0.11199627932640265 F1200
G1 X47.193931 Y45.139746 Z0.36 E0.11199627932640265 F1200
G1 X52.806069 Y45.139746 Z0.36 E0.11199628066655466 F1200
G1 X55.612138 Y50.0 Z0.36 E0.11199627932640265 F1200
G1 X55.150258 Y50.0 Z0.36 E0.00921731470506754 F1200
G1 X52.575129 Y54.460254 Z0.36 E0.1027789613981532 F1200
G1 X47.424871 Y54.460254 Z0.36 E0.10277896596148697 F1200
G1 X44.849742 Y50.0 Z0.36 E0.1027789613981532 F1200
G1 X47.424871 Y45.539746 Z0.36 E0.1027789613981532 F1200
G1 X52.575129 Y45.539746 Z0.36 E0.10277896596148697 F1200
G1 X55.150258 Y50.0 Z0.36 E0.1027789613981532 F1200
G1 X54.688378 Y50.0 Z0.36 E0.00921731470506754 F1200
G1 X52.344189 Y54.060254 Z0.36 E0.09356164346990377 F1200
G1 X47.655811 Y54.060254 Z0.36 E0.09356165125641958 F1200
G1 X45.311622 Y50.0 Z0.36 E0.09356164346990377 F1200
G1 X47.655811 Y45.939746 Z0.36 E0.09356164346990377 F1200
G1 X52.344189 Y45.939746 Z0.36 E0.09356165125641958 F1200
G1 X54.688378 Y50.0 Z0.36 E0.09356164346990377 F1200
G1 X54.226497 Y50.0 Z0.36 E0.009217334661148517 F1200
G1 X52.113249 Y53.660254 Z0.36 E0.08434431556361435 F1200
G1 X47.886751 Y53.660254 Z0.36 E0.08434433655135219 F1200
G1 X45.773503 Y50.0 Z0.36 E0.08434431556361435 F1200
G1 X47.886751 Y46.339746 Z0.36 E0.08434431556361435 F1200
G1 X52.113249 Y46.339746 Z0.36 E0.08434433655135219 F1200
G1 X54.226497 Y50.0 Z0.36 E0.08434431556361435 F1200
G1 X53.764617 Y50.0 Z0.36 E0.00921731470506754 F1200
G1 X51.882309 Y53.260254 Z0.36 E0.07512699763536472 F1200
G1 X48.117691 Y53.260254 Z0.36 E0.0751270218462845 F1200
G1 X46.235383 Y50.0 Z0.36 E0.07512699763536472 F1200
G1 X48.117691 Y46.739746 Z0.36 E0.07512699763536472 F1200
G1 X51.882309 Y46.739746 Z0.36 E0.0751270218462845 F1200
G1 X53.764617 Y50.0 Z0.36 E0.07512699763536472 F1200
G1 X53.302737 Y50.0 Z0.36 E0.00921731470506754 F1200
G1 X51.651368 Y52.860254 Z0.36 E0.06590968968515586 F1200
G1 X48.348632 Y52.860254 Z0.36 E0.06590966722905486 F1200
G1 X46.697263 Y50.0 Z0.36 E0.06590968968515586 F1200
G1 X48.348632 Y47.139746 Z0.36 E0.06590968968515586 F1200
G1 X51.651368 Y47.139746 Z0.36 E0.06590966722905486 F1200
G1 X53.302737 Y50.0 Z0.36 E0.06590968968515586 F1200
G1 X52.840857 Y50.0 Z0.36 E0.00921731470506754 F1200
G1 X51.420428 Y52.460254 Z0.36 E0.056692371756906806 F1200
G1 X48.579572 Y52.460254 Z0.36 E0.056692352523987466 F1200
G1 X47.159143 Y50.0 Z0.36 E0.056692371756906806 F1200
G1 X48.579572 Y47.539746 Z0.36 E0.056692371756906806 F1200
G1 X51.420428 Y47.539746 Z0.36 E0.056692352523987466 F1200
G1 X52.840857 Y50.0 Z0.36 E0.056692371756906806 F1200
G1 X52.378976 Y50.0 Z0.36 E0.009217334661148517 F1200
G1 X51.189488 Y52.060254 Z0.36 E0.04747504385061572 F1200
G1 X48.810512 Y52.060254 Z0.36 E0.047475037818919784 F1200
G1 X47.621024 Y50.0 Z0.36 E0.04747504385061572 F1200
G1 X48.810512 Y47.939746 Z0.36 E0.04747504385061572 F1200
G1 X51.189488 Y47.939746 Z0.36 E0.047475037818919784 F1200
G1 X52.378976 Y50.0 Z0.36 E0.04747504385061572 F1200
G1 X51.917096 Y50.0 Z0.36 E0.00921731470506754 F1200
G1 X50.958548 Y51.660254 Z0.36 E0.038257725922366106 F1200
G1 X49.041452 Y51.660254 Z0.36 E0.038257723113852386 F1200
G1 X48.082904 Y50.0 Z0.36 E0.038257725922366106 F1200
G1 X49.041452 Y48.339746 Z0.36 E0.038257725922366106 F1200
G1 X50.958548 Y48.339746 Z0.36 E0.038257723113852386 F1200
G1 X51.917096 Y50.0 Z0.36 E0.038257725922366106 F1200
G1 X51.455216 Y50.0 Z0.36 E0.00921731470506754 F1200
G1 X50.727608 Y51.260254 Z0.36 E0.029040407994116616 F1200
G1 X49.272392 Y51.260254 Z0.36 E0.029040408408784704 F1200
G1 X48.544784 Y50.0 Z0.36 E0.029040407994116616 F1200
G1 X49.272392 Y48.739746 Z0.36 E0.029040407994116616 F1200
G1 X50.727608 Y48.739746 Z0.36 E0.029040408408784704 F1200
G1 X51.455216 Y50.0 Z0.36 E0.029040407994116616 F1200
G1 X50.993336 Y50.0 Z0.36 E0.00921731470506754 F1200
G1 X50.496668 Y50.860254 Z0.36 E0.01982309006586707 F1200
G1 X49.503332 Y50.860254 Z0.36 E0.019823093703717307 F1200
G1 X49.006664 Y50.0 Z0.36 E0.01982309006586707 F1200
G1 X49.503332 Y49.139746 Z0.36 E0.01982309006586707 F1200
G1 X50.496668 Y49.139746 Z0.36 E0.019823093703717307 F1200
G1 X50.993336 Y50.0 Z0.36 E0.01982309006586707 F1200
G1 X50.531456 Y50.0 Z0.36 E0.00921731470506754 F1200
G1 X50.265728 Y50.460254 Z0.36 E0.010605772137618168 F1200
G1 X49.734272 Y50.460254 Z0.36 E0.010605778998649907 F1200
G1 X49.468544 Y50.0 Z0.36 E0.010605772137618168 F1200
G1 X49.734272 Y49.539746 Z0.36 E0.010605772137618168 F1200
G1 X50.265728 Y49.539746 Z0.36 E0.010605778998649907 F1200
G1 X50.531456 Y50.0 Z0.36 E0.010605772137618168 F1200
G1 E-8
G0 X59.76906 Y50.0 Z0.36 F1200
G0 X59.76906 Y50.0 Z0.48 F1200
G1 E8
G1 X54.88453 Y58.460254 Z0.48 E0.19495215065868887 F1200
G1 X45.11547 Y58.460254 Z0.48 E0.19495215292432433 F1200
G1 X40.23094 Y50.0 Z0.48 E0.19495215065868887 F1200
G1 X45.11547 Y41.539746 Z0.48 E0.19495215065868887 F1200
G1 X54.88453 Y41.539746 Z0.48 E0.19495215292432433 F1200
G1 X59.76906 Y50.0 Z0.48 E0.19495215065868887 F1200
G1 X59.30718 Y50.0 Z0.48 E0.00921731470506754 F1200
